fgashi/en/graphics/results/traj_results/case1/target_pozita_q2.txt
q1     q2   q3   q4  q5   q6   t1
-7.000723444842300580e-01  -1.499837858513842548e+00  1.999691502810929222e+00  -2.269529400948050224e+00  -1.570043039947977448e+00  -4.020557894721084935e+00  0.000000000000000000e+00
-7.000699136969679159e-01  -1.499834000960241553e+00  1.999686406979105158e+00  -2.269517036140976884e+00  -1.570024101899700320e+00  -4.020557612906795697e+00  7.762694358825683594e-02
-7.013868599411914317e-01  -1.502572326104482769e+00  2.002483225614417162e+00  -2.271256693067048360e+00  -1.575918876701663862e+00  -4.016271136308623646e+00  1.619551181793212891e-01
-7.042352062600407692e-01  -1.521320371190304499e+00  2.021588236677492212e+00  -2.279632095970132610e+00  -1.611648913688039642e+00  -3.986175774057148846e+00  2.388510704040527344e-01
-6.848950889703031564e-01  -1.545037069345955416e+00  2.045724813485654714e+00  -2.274194277847368717e+00  -1.643067727298175740e+00  -3.945308514289248780e+00  3.064451217651367188e-01
-6.594578602375165133e-01  -1.566695457807266934e+00  2.067593087503042604e+00  -2.258098085523569054e+00  -1.671023824255225776e+00  -3.904607323825123988e+00  3.609459400177001953e-01
-6.403133855386036188e-01  -1.585425203098642655e+00  2.086257435171042562e+00  -2.240585340076468590e+00  -1.695206302960865941e+00  -3.867778838807636621e+00  4.079871177673339844e-01
-6.208311387653910884e-01  -1.607724740946018471e+00  2.108231045423880179e+00  -2.218852895256456570e+00  -1.722465089517665859e+00  -3.822003269070599174e+00  4.644799232482910156e-01
-6.037212809464405083e-01  -1.630644684303858227e+00  2.130687367109417529e+00  -2.194961260460680741e+00  -1.751461817010394384e+00  -3.773527861742636880e+00  5.167679786682128906e-01
-5.901577629682783765e-01  -1.653500347005792293e+00  2.153019598796680256e+00  -2.168983344216432130e+00  -1.783412960114267420e+00  -3.723777585601386608e+00  5.760729312896728516e-01
-5.793462270380409507e-01  -1.675708617903953979e+00  2.174538205016480319e+00  -2.141857598639032467e+00  -1.817050447063769170e+00  -3.673644534637924508e+00  6.309270858764648438e-01
-5.714888396889161726e-01  -1.691162024681553078e+00  2.189389314333455516e+00  -2.121859991492758724e+00  -1.840641793614857136e+00  -3.637682324685549862e+00  6.727991104125976562e-01
-5.583154303832040810e-01  -1.712092417382889309e+00  2.209437880011280608e+00  -2.093229287506834346e+00  -1.871236127599271271e+00  -3.587466465833762275e+00  7.244861125946044922e-01
-5.470194857121795096e-01  -1.726384063712917083e+00  2.223095555199642970e+00  -2.072581118288221447e+00  -1.890727203282970947e+00  -3.551998181655537046e+00  7.697420120239257812e-01
-5.313969799528051041e-01  -1.742610875558991523e+00  2.238566182653142445e+00  -2.047910470030046781e+00  -1.911011910943869907e+00  -3.510176445568074399e+00  8.128979206085205078e-01
-5.168967917656681621e-01  -1.755249895271889571e+00  2.250562783964504820e+00  -2.027785585600422102e+00  -1.925210475096697849e+00  -3.476192178801949417e+00  8.553919792175292969e-01
-4.948691189648553035e-01  -1.771342043080792905e+00  2.265729684738329475e+00  -2.000689504396410356e+00  -1.940926396675346055e+00  -3.430431011289748700e+00  9.130499362945556641e-01
-4.781651254949057517e-01  -1.781593272767569403e+00  2.275309708138442133e+00  -1.982394707816784063e+00  -1.949257863455883921e+00  -3.399164547716873930e+00  9.525921344757080078e-01
-4.557779649556428225e-01  -1.792419357026235005e+00  2.285309269207254079e+00  -1.961901583969257956e+00  -1.956244095398218974e+00  -3.363381046600473656e+00  1.004529953002929688e+00
-4.341635383578301699e-01  -1.800131512882845897e+00  2.292362385639428624e+00  -1.946111244465019929e+00  -1.959663471932405088e+00  -3.335112445291799066e+00  1.041439056396484375e+00
-4.097796338827546236e-01  -1.806609991763611589e+00  2.298221604812790808e+00  -1.931642262618193939e+00  -1.960301460303828236e+00  -3.308328605488586316e+00  1.078649044036865234e+00
-3.829288778388182379e-01  -1.811820483910597801e+00  2.302827096729890055e+00  -1.918645432510781568e+00  -1.957476706165703462e+00  -3.283111001452374111e+00  1.122757911682128906e+00
-3.424772711355297261e-01  -1.816864628650350255e+00  2.307018625992214744e+00  -1.903011736653193786e+00  -1.948076200931177837e+00  -3.250568613386674244e+00  1.172131061553955078e+00
-3.123152668434663326e-01  -1.818666548125774440e+00  2.308244403484502438e+00  -1.893810903506305543e+00  -1.938082133168041565e+00  -3.229314159775549253e+00  1.216690063476562500e+00
-2.817774725050794515e-01  -1.818778094848049420e+00  2.307806382419467894e+00  -1.886467342461218166e+00  -1.925909700348153564e+00  -3.209731068359511053e+00  1.257326126098632812e+00
-2.512642066233041760e-01  -1.816952407952562076e+00  2.305445069693693227e+00  -1.881306470241493223e+00  -1.911978682712553557e+00  -3.191664045460336663e+00  1.299081087112426758e+00
-2.210312911211911313e-01  -1.812948204595800306e+00  2.300951348984618505e+00  -1.878578122492930547e+00  -1.896398102666378982e+00  -3.174988420962861824e+00  1.336597919464111328e+00
-1.915720356535413060e-01  -1.807019695794687131e+00  2.294558840430156010e+00  -1.878090289901505727e+00  -1.879668721740478610e+00  -3.159669368391099908e+00  1.374490022659301758e+00
-1.633206220055676283e-01  -1.799505399539648387e+00  2.286614555116941006e+00  -1.879529161818854988e+00  -1.862174047466503168e+00  -3.145684739013149933e+00  1.415636062622070312e+00
-1.367415328796681706e-01  -1.790866232502597910e+00  2.277557571967715688e+00  -1.882547550751315413e+00  -1.844334270670901610e+00  -3.133046163082062296e+00  1.458997964859008789e+00
-1.074104958798436371e-01  -1.779484958655734417e+00  2.265715373509854302e+00  -1.887805349305391900e+00  -1.822688211461351848e+00  -3.119512471746337390e+00  1.501100063323974609e+00
-8.086013739405650824e-02  -1.767284199611235174e+00  2.253093624116765170e+00  -1.894500052486101538e+00  -1.801131078594564450e+00  -3.107536866608112458e+00  1.548444032669067383e+00
-6.035117859343142044e-02  -1.756131048925622551e+00  2.241564538572891507e+00  -1.901158835960963245e+00  -1.782905134145513770e+00  -3.098443673074012583e+00  1.593266963958740234e+00
-3.729577941351891468e-02  -1.741433414597472584e+00  2.226401284178940898e+00  -1.910449020270824860e+00  -1.760660588818688588e+00  -3.088326488469900433e+00  1.642514944076538086e+00
-1.938804948499406322e-02  -1.728377113088884975e+00  2.212949086648130503e+00  -1.919157063516511386e+00  -1.742270463147312931e+00  -3.080532448809900181e+00  1.680409908294677734e+00
3.671160397438200107e-04  -1.712311535791396722e+00  2.196444887182954275e+00  -1.930369612786336120e+00  -1.720925776410112462e+00  -3.071949893865312475e+00  1.724509954452514648e+00
1.240060180558131935e-02  -1.701668946564709906e+00  2.185539927914714298e+00  -1.938021795038999073e+00  -1.707395107222262176e+00  -3.066713694960375047e+00  1.761847019195556641e+00
2.871109067341881538e-02  -1.686244591127184833e+00  2.169757431492117306e+00  -1.949455939081659039e+00  -1.688532076492486489e+00  -3.059606408900100050e+00  1.807368993759155273e+00
3.843605656926881581e-02  -1.676483329814634438e+00  2.159793693236053969e+00  -1.956907605290570729e+00  -1.677018282363398782e+00  -3.055371872408137790e+00  1.843822002410888672e+00
4.934648663536880808e-02  -1.665003243460684068e+00  2.148081518873944162e+00  -1.965903118429709551e+00  -1.663879827054523197e+00  -3.050613422384675033e+00  1.879075050354003906e+00
5.714138006869381309e-02  -1.656464377600408433e+00  2.139380075227556688e+00  -1.972734654986659564e+00  -1.654356165149385660e+00  -3.047211319927212614e+00  1.914835929870605469e+00
6.246546761069381171e-02  -1.650449718269634047e+00  2.133261316673154440e+00  -1.977621512275536730e+00  -1.647780540802284754e+00  -3.044885434687912618e+00  1.939223051071166992e+00
6.888769969275630733e-02  -1.642977777962509656e+00  2.125660288288154121e+00  -1.983775709114075525e+00  -1.639821691767009426e+00  -3.042066553309512145e+00  1.970659971237182617e+00
7.618322389443130116e-02  -1.634293512066647303e+00  2.116837518341666780e+00  -1.990973824571675266e+00  -1.630772099571060174e+00  -3.038845714711224666e+00  2.008872032165527344e+00
1.258341591250431435e-01  -1.565970565532513348e+00  2.048017362268081953e+00  -2.052955883618564847e+00  -1.570645204720413801e+00  -3.015750357879593224e+00  2.819404125213623047e+00
1.257905861702184325e-01  -1.566036039995827522e+00  2.048082345645119595e+00  -2.052898834681052165e+00  -1.570700087531450961e+00  -3.015787205496593515e+00  2.889881134033203125e+00
1.271685756491686137e-01  -1.566879144825492176e+00  2.048453876998281853e+00  -2.054594470963891695e+00  -1.565192963544427940e+00  -3.019053745930202481e+00  2.972275972366333008e+00
1.348433982013060861e-01  -1.571561915592013747e+00  2.050382194709068795e+00  -2.061067023666740994e+00  -1.540287431193802625e+00  -3.037899579335215705e+00  3.047269105911254883e+00
1.511609128010810987e-01  -1.582415721016788623e+00  2.056070546501794549e+00  -2.052085776041979059e+00  -1.530427095737088905e+00  -3.073913912471192944e+00  3.124273061752319336e+00
1.552232097170685998e-01  -1.590505970443174988e+00  2.060580147150269603e+00  -2.040377726214865461e+00  -1.539219997328276079e+00  -3.098942064108044292e+00  3.176687002182006836e+00
1.516361071333189869e-01  -1.600732635333688592e+00  2.066310535031519180e+00  -2.023516585371740284e+00  -1.557114516222636524e+00  -3.129480734503271577e+00  3.234429121017456055e+00
1.361430782192689648e-01  -1.615016002527040584e+00  2.074387354167718467e+00  -1.998690465302039421e+00  -1.586059680786785719e+00  -3.170953350260560910e+00  3.307126045227050781e+00
1.014367472407933235e-01  -1.635318069268539176e+00  2.084631748777930671e+00  -1.963415164412239733e+00  -1.630005402159145689e+00  -3.229075926178335720e+00  3.400244951248168945e+00
7.140889596924449023e-02  -1.650062965883313026e+00  2.087278534116530970e+00  -1.936052852319939177e+00  -1.668425454495919169e+00  -3.272545848476674735e+00  3.472902059555053711e+00
5.613851695034455247e-02  -1.658218476701987854e+00  2.085986032422955105e+00  -1.918932378021289686e+00  -1.698727195988292138e+00  -3.300752457459910971e+00  3.517270088195800781e+00
4.620677274465734286e-02  -1.664271731364085127e+00  2.083001209875018134e+00  -1.901993527890551761e+00  -1.726205318461090599e+00  -3.328554227750675665e+00  3.570809125900268555e+00
3.872286515829514997e-02  -1.668891459187607396e+00  2.078167480316796656e+00  -1.880570113081101447e+00  -1.747814492102689243e+00  -3.361135030501934295e+00  3.625555992126464844e+00
3.324046442210804031e-02  -1.670930180789156339e+00  2.072831974671057509e+00  -1.860993206159301749e+00  -1.758602546110914489e+00  -3.389198291543099373e+00  3.673273086547851562e+00
2.624050346485784502e-02  -1.670736707269819377e+00  2.066943469473571326e+00  -1.844898859704264815e+00  -1.763921871554501308e+00  -3.412432497597624348e+00  3.708769083023071289e+00
1.214710246421013551e-02  -1.667610395939031598e+00  2.057504123108008898e+00  -1.826322924064251119e+00  -1.766808135299925198e+00  -3.440287917409587948e+00  3.759491920471191406e+00
-1.244927541736373655e-02  -1.659715875712656441e+00  2.042897571064994366e+00  -1.805537978001613197e+00  -1.765821956188614372e+00  -3.473192304285138476e+00  3.813966035842895508e+00
-3.484385903204056945e-02  -1.651319189625517936e+00  2.030141329573130093e+00  -1.791492855915750582e+00  -1.762719140287302366e+00  -3.496916074491938531e+00  3.857499122619628906e+00
-6.627869804192876302e-02  -1.638466271205405000e+00  2.012412477238354924e+00  -1.775766562602237641e+00  -1.759131855474463713e+00  -3.525408647303438059e+00  3.904251098632812500e+00
-1.021896844868805942e-01  -1.622974980042005022e+00  1.992287325848456803e+00  -1.761332987494537150e+00  -1.757636025862576723e+00  -3.553697472539100843e+00  3.950891971588134766e+00
-1.419401814325951250e-01  -1.605321005806879420e+00  1.970290506121870067e+00  -1.748419283101437571e+00  -1.758020644358490259e+00  -3.581496167626259108e+00  3.999288082122802734e+00
-1.850432616063972802e-01  -1.585698953790691590e+00  1.946716579633882560e+00  -1.737293188882037320e+00  -1.759533841222674866e+00  -3.608542459508882416e+00  4.045838117599487305e+00
-2.229090049742197266e-01  -1.567835076012066509e+00  1.925893669829246591e+00  -1.729608580726262446e+00  -1.761328144895399461e+00  -3.630375190266832419e+00  4.086264133453369141e+00
-2.620289262991697399e-01  -1.548301796308154010e+00  1.903639772092422078e+00  -1.723790277900524082e+00  -1.763393820135851442e+00  -3.651523065161182302e+00  4.129485130310058594e+00
-3.098105419025340979e-01  -1.522525122248966412e+00  1.874928743347833660e+00  -1.719845931672487005e+00  -1.764725957223511443e+00  -3.675990453768569921e+00  4.172964096069335938e+00
-3.495576612956732276e-01  -1.499465628287553365e+00  1.849717776498435384e+00  -1.719192927928487435e+00  -1.763727292678911596e+00  -3.695589201610957275e+00  4.217416048049926758e+00
-3.885124193499116529e-01  -1.475511384935990655e+00  1.823879827338611648e+00  -1.720641656905650407e+00  -1.760747690284411249e+00  -3.714378244020556608e+00  4.255203008651733398e+00
-4.335930152479239297e-01  -1.446288119584402843e+00  1.792749154551399826e+00  -1.724650164199125868e+00  -1.755169874892749782e+00  -3.735690366514866412e+00  4.300692081451416016e+00
-4.765302880421860010e-01  -1.417189747005340728e+00  1.762094489728912805e+00  -1.730626222846401774e+00  -1.748176273796762104e+00  -3.755609685328991532e+00  4.348093986511230469e+00
-5.036975480314627163e-01  -1.398077482138753602e+00  1.742106160114174074e+00  -1.735463939826978219e+00  -1.742937833679224724e+00  -3.768086405763678925e+00  4.385823965072631836e+00
-5.357281144690499985e-01  -1.374609229929364851e+00  1.717713174944925925e+00  -1.742314917682751485e+00  -1.735757606602850167e+00  -3.782809831243831411e+00  4.423205137252807617e+00
-5.708512317785476853e-01  -1.347360536771502026e+00  1.689559608851901373e+00  -1.751522457558262857e+00  -1.726190962212711177e+00  -3.799225434788130684e+00  4.471358060836791992e+00
-5.972924892784963191e-01  -1.325471945640852134e+00  1.667098383314889354e+00  -1.759808277174023772e+00  -1.717597901428811191e+00  -3.811921584359069470e+00  4.514864921569824219e+00
-6.258305654084068692e-01  -1.300100501499326988e+00  1.641235779873088774e+00  -1.770267426959286183e+00  -1.706869737710498214e+00  -3.826047767139032274e+00  4.558875083923339844e+00
-6.472212164255690681e-01  -1.279642578192563995e+00  1.620519589114900683e+00  -1.779363584467548165e+00  -1.697713900743410775e+00  -3.836995678178542590e+00  4.596605062484741211e+00
-6.665378610707435314e-01  -1.259966085118763068e+00  1.600665743101200356e+00  -1.788717965018337352e+00  -1.688411415200385512e+00  -3.847210194930516636e+00  4.637047052383422852e+00
-6.805066992203556708e-01  -1.244960044466401072e+00  1.585588495604600467e+00  -1.796202585483337444e+00  -1.681004269996161149e+00  -3.854833352468327590e+00  4.675396919250488281e+00
-6.991494070992665399e-01  -1.223877496452725921e+00  1.564455720122813531e+00  -1.807244449659897612e+00  -1.670115696523785331e+00  -3.865345998194703370e+00  4.716756105422973633e+00
-7.151619615501019211e-01  -1.204667936996762556e+00  1.545228891132001792e+00  -1.817872280791487327e+00  -1.659608338546884276e+00  -3.874763893446788288e+00  4.770008087158203125e+00
-7.287282943670181368e-01  -1.187468304641410732e+00  1.528068808563876502e+00  -1.827943955155500788e+00  -1.649688247668346541e+00  -3.883065382320465275e+00  4.815212965011596680e+00
-7.401529145851402092e-01  -1.172236883319984990e+00  1.512893642468888800e+00  -1.837403823794250712e+00  -1.640461775283358570e+00  -3.890355216658438309e+00  4.865121126174926758e+00
-7.482242410611767980e-01  -1.160966916458198384e+00  1.501685896881275184e+00  -1.844765156623989100e+00  -1.633300901688357953e+00  -3.895708370418601518e+00  4.901504993438720703e+00
-7.550857940070514474e-01  -1.150966837349498562e+00  1.491730827008536764e+00  -1.851563784887590103e+00  -1.626639251025696176e+00  -3.900413880361327301e+00  4.942274093627929688e+00
-7.974992521613124552e-01  -1.077441505149938195e+00  1.418443435375539297e+00  -1.911964407040121827e+00  -1.570629631005061810e+00  -3.939059777918896721e+00  5.770046949386596680e+00
-7.974572431279867146e-01  -1.077510874731450130e+00  1.418520094640089324e+00  -1.911899855089671973e+00  -1.570713670567261744e+00  -3.939032738012908652e+00  5.845366954803466797e+00
-7.950369518649109679e-01  -1.085231449109510748e+00  1.426800596077239414e+00  -1.907966034845707703e+00  -1.582148734325222961e+00  -3.930224240135833824e+00  5.942909955978393555e+00
-7.773103321289722700e-01  -1.125578237585436625e+00  1.470393524579539646e+00  -1.887834031607821039e+00  -1.633747598676769996e+00  -3.884327190401334118e+00  6.033246994018554688e+00
-7.299860117511851598e-01  -1.191904702573275188e+00  1.542274269227951855e+00  -1.856271425026134736e+00  -1.694652222892134574e+00  -3.808591301217034264e+00  6.128037929534912109e+00
-6.893180437720092257e-01  -1.250648943872912255e+00  1.605980179878739422e+00  -1.829703770050270961e+00  -1.747785454364418456e+00  -3.742000524524772054e+00  6.209948062896728516e+00
-6.502301564808234957e-01  -1.308735032794936970e+00  1.668865590053851822e+00  -1.802881659304482298e+00  -1.784574025319393797e+00  -3.679824033031872332e+00  6.279330015182495117e+00
-6.199374789275227116e-01  -1.349284758268250783e+00  1.712817940653101889e+00  -1.784783264433606575e+00  -1.797094130774819831e+00  -3.636989578522709543e+00  6.330522060394287109e+00
-5.883321536970109733e-01  -1.389344794224349755e+00  1.756405373342026843e+00  -1.768212121876019616e+00  -1.806303109982207999e+00  -3.593720695363209483e+00  6.376608133316040039e+00
-5.539057469079740059e-01  -1.435296474538287015e+00  1.806639619830276988e+00  -1.750631135363269308e+00  -1.821166483960322324e+00  -3.543155377977597276e+00  6.434371948242187500e+00
-5.192734787801365215e-01  -1.487460468153475546e+00  1.863781702845451971e+00  -1.732056139660581806e+00  -1.844759578140871881e+00  -3.485571530181684530e+00  6.493238925933837891e+00
-4.912710657791494739e-01  -1.531834475832850373e+00  1.912580306940239394e+00  -1.717537591582006584e+00  -1.867292505903535016e+00  -3.436305584144172087e+00  6.551938056945800781e+00
-4.552122083811491748e-01  -1.586282652764927192e+00  1.972759810506751865e+00  -1.701716908103481529e+00  -1.893549592590733965e+00  -3.375478317154097407e+00  6.621366977691650391e+00
-4.303476842389750701e-01  -1.621563788094162462e+00  2.011928861580202010e+00  -1.692856448256042867e+00  -1.908526732237373125e+00  -3.336023968195084954e+00  6.671046018600463867e+00
-4.010264996512491464e-01  -1.661924228537124293e+00  2.056863891597664473e+00  -1.684032180264317446e+00  -1.923581840064834125e+00  -3.290985527983809611e+00  6.725064992904663086e+00
-3.724014260063235326e-01  -1.701090216573899028e+00  2.100550247845752505e+00  -1.676771340895380824e+00  -1.936302446228335583e+00  -3.247383675935121783e+00  6.787094116210937500e+00
-3.443319060271869958e-01  -1.738243759376336683e+00  2.142153431201752500e+00  -1.671430580525131937e+00  -1.947281661065709102e+00  -3.205661006772122068e+00  6.839424133300781250e+00
-3.194015994269996384e-01  -1.768001897721649840e+00  2.175686116718614560e+00  -1.668494292534269618e+00  -1.955547276362860742e+00  -3.171623148910497125e+00  6.890905141830444336e+00
-2.900257692554104594e-01  -1.799873771641539832e+00  2.211961434852689479e+00  -1.666984129755119781e+00  -1.963533720067623278e+00  -3.134367485255734387e+00  6.942469120025634766e+00
-2.545780882794872468e-01  -1.836213804133178584e+00  2.253882273785714485e+00  -1.668049785187708522e+00  -1.970448199090048647e+00  -3.090541616941647529e+00  7.012915134429931641e+00
-2.360815717198248009e-01  -1.854183196409227463e+00  2.274908346809815018e+00  -1.670094827472272669e+00  -1.972328160863273894e+00  -3.068072576066722679e+00  7.058661937713623047e+00
-2.160201171716620294e-01  -1.870523452033566514e+00  2.294172035923890185e+00  -1.673116786033121528e+00  -1.971300148843148747e+00  -3.046944300855884968e+00  7.097594976425170898e+00
-1.879265597270247667e-01  -1.887879756679165411e+00  2.314939118356665659e+00  -1.677999472783998414e+00  -1.965127041305760436e+00  -3.023360544444360087e+00  7.141798973083496094e+00
-1.560813842651489480e-01  -1.902802276352039357e+00  2.333142605017552995e+00  -1.684209884880822017e+00  -1.954137811816597292e+00  -3.001676178124923045e+00  7.188193082809448242e+00
-1.037521518284245658e-01  -1.920587776144936143e+00  2.355471841198252481e+00  -1.696171963115743253e+00  -1.930543792542359860e+00  -2.972512337126449022e+00  7.262525081634521484e+00
-6.717331525836200967e-02  -1.929064342620497641e+00  2.366791731534127585e+00  -1.706240163382606312e+00  -1.910951848415647802e+00  -2.955300815174736417e+00  7.309572935104370117e+00
-3.054894919012429710e-02  -1.934416657061571954e+00  2.374862087995527560e+00  -1.718273044887654422e+00  -1.889068986204535783e+00  -2.939805467275398598e+00  7.356182098388671875e+00
-5.382624211121012081e-04  -1.936204353297597436e+00  2.378823343119077727e+00  -1.730007956247993306e+00  -1.869662898744386403e+00  -2.928066772133523177e+00  7.398355960845947266e+00
2.862803552145022981e-02  -1.935589333339096996e+00  2.380271153952765228e+00  -1.743230824973318605e+00  -1.849619013838435855e+00  -2.917262642769848480e+00  7.438699007034301758e+00
6.193149257571273214e-02  -1.932067952135422040e+00  2.379065777526953696e+00  -1.760476437676754102e+00  -1.825237036269585111e+00  -2.905507518923010846e+00  7.490272045135498047e+00
9.776637900615020582e-02  -1.924854558928045911e+00  2.374310276943599973e+00  -1.781762478007891559e+00  -1.797201219353859791e+00  -2.893399593440710849e+00  7.540199995040893555e+00
1.165220015791876979e-01  -1.919526050082470903e+00  2.370248606905288824e+00  -1.794297030501692092e+00  -1.781609876263797076e+00  -2.887180278731560801e+00  7.579401016235351562e+00
1.381862205872876892e-01  -1.911779089034395973e+00  2.364004204732664149e+00  -1.810310098068491413e+00  -1.762591102656971387e+00  -2.880045817080385540e+00  7.618016958236694336e+00
1.617704239061751870e-01  -1.901131394989845624e+00  2.355054757663012310e+00  -1.829963286180619875e+00  -1.740718046334084335e+00  -2.872341863238710769e+00  7.664809942245483398e+00
1.761175534363876582e-01  -1.893344916237670539e+00  2.348332269742998690e+00  -1.843259242662496078e+00  -1.726800233755222180e+00  -2.867689892330910428e+00  7.698122024536132812e+00
1.894319435479126512e-01  -1.885138149687620057e+00  2.341127028362024021e+00  -1.856565077359645599e+00  -1.713468700016196777e+00  -2.863402428105298103e+00  7.730406045913696289e+00
2.046739102084001449e-01  -1.874485209607106739e+00  2.331646818935171339e+00  -1.872927987888470369e+00  -1.697718731563384154e+00  -2.858531011920010023e+00  7.764045000076293945e+00
2.183866894357751054e-01  -1.863705917401182077e+00  2.321938569352770543e+00  -1.888668139400770940e+00  -1.683162532404433698e+00  -2.854185177069660018e+00  7.804390907287597656e+00
2.282486929834625644e-01  -1.855227157433757768e+00  2.314227053487270425e+00  -1.900618499434733266e+00  -1.672486392318083936e+00  -2.851071203122772069e+00  7.837167024612426758e+00
2.392108512619375849e-01  -1.845067323326469833e+00  2.304923401758621537e+00  -1.914552579444695368e+00  -1.660375562575095998e+00  -2.847627552303759746e+00  7.880043029785156250e+00
2.488295669026875934e-01  -1.835485002565881985e+00  2.296061250915347074e+00  -1.927351836536381313e+00  -1.649526918423646293e+00  -2.844640854899409987e+00  7.918767929077148438e+00
2.556665200046250863e-01  -1.828218807061344542e+00  2.289290313322885240e+00  -1.936779985090367973e+00  -1.641695732592934220e+00  -2.842539109206084547e+00  7.948722124099731445e+00
2.618083715893501084e-01  -1.821345957703981888e+00  2.282835359178484680e+00  -1.945506036233567215e+00  -1.634577576325546566e+00  -2.840671763641309688e+00  7.982350111007690430e+00
2.673124428612876358e-01  -1.814892164861369395e+00  2.276749971070273659e+00  -1.953554673036027367e+00  -1.628117339840583710e+00  -2.839013318837097177e+00  8.016704082489013672e+00
2.723397982631250991e-01  -1.808802610434518954e+00  2.270997774473286768e+00  -1.961079391874687161e+00  -1.622168569185796549e+00  -2.837510866737259718e+00  8.043692111968994141e+00
3.174602458338489086e-01  -1.742646839059482033e+00  2.206746975145894130e+00  -2.035072419522452769e+00  -1.570665465924381721e+00  -2.824120622866781005e+00  8.873434066772460938e+00
3.174203727255235918e-01  -1.742704959810467358e+00  2.206799670555982473e+00  -2.034999731408051460e+00  -1.570731693453879529e+00  -2.824151170693568247e+00  8.956838130950927734e+00
3.179180715105734967e-01  -1.742725037606108529e+00  2.206426435323246338e+00  -2.035946810178975497e+00  -1.567866308924994456e+00  -2.826081819675554385e+00  9.025103092193603516e+00
3.227044238167735557e-01  -1.742588477500182975e+00  2.202426574806793269e+00  -2.042920006025347845e+00  -1.544915571875443483e+00  -2.844343031396192600e+00  9.097414970397949219e+00
3.362681902120735478e-01  -1.744009205859082812e+00  2.196547867978839719e+00  -2.039087730785473340e+00  -1.529986276155593572e+00  -2.878737228104629509e+00  9.166579961776733398e+00
3.455787463264235471e-01  -1.746553040036634030e+00  2.192099760818102538e+00  -2.028481593769196678e+00  -1.536275167674707731e+00  -2.910578065879029452e+00  9.224725008010864258e+00
3.469351819018235972e-01  -1.749739099775998952e+00  2.187687568778230229e+00  -2.015389043283397186e+00  -1.553354008882232407e+00  -2.947825101558628091e+00  9.280334949493408203e+00
3.324333440553122188e-01  -1.754212425174447532e+00  2.180352142745526578e+00  -1.989669529481559174e+00  -1.585832985618615965e+00  -3.011099103813975830e+00  9.362565994262695312e+00
3.029727230889616152e-01  -1.757175208456658311e+00  2.171070417459326052e+00  -1.962311999702784249e+00  -1.617634606428879351e+00  -3.070855077126040555e+00  9.428997039794921875e+00
2.690335203413498633e-01  -1.757302088645834814e+00  2.156984122901258516e+00  -1.939501901586858423e+00  -1.642689843690430251e+00  -3.120862060244213865e+00  9.493087053298950195e+00
2.367078655771637230e-01  -1.752435719426559402e+00  2.137599150759470490e+00  -1.914816657440208125e+00  -1.655524793464902444e+00  -3.168946058643186348e+00  9.561224937438964844e+00
2.080871336380880621e-01  -1.743211740241034313e+00  2.115357056517481738e+00  -1.885757544623170467e+00  -1.652351184971174725e+00  -3.216415545713374513e+00  9.620378017425537109e+00
1.831851378004385467e-01  -1.731222776561871513e+00  2.092489336676194966e+00  -1.859234332658370015e+00  -1.642391865036898935e+00  -3.256874006767588980e+00  9.678735017776489258e+00
1.597226080493756584e-01  -1.717727336152283790e+00  2.069614622253444836e+00  -1.837108427698269431e+00  -1.629340673668161266e+00  -3.290634077276100911e+00  9.728518009185791016e+00
1.215259719488264167e-01  -1.693061550279145955e+00  2.032136611595019460e+00  -1.808130342229007148e+00  -1.608671221217249148e+00  -3.335485576314514589e+00  9.790163993835449219e+00
8.060614761263806827e-02  -1.664762793593144607e+00  1.992504007931106713e+00  -1.783393133518980989e+00  -1.595155372626797963e+00  -3.374933987042037842e+00  9.845021963119506836e+00
2.740607445780174345e-02  -1.626378319795869665e+00  1.941550713346732238e+00  -1.756411463791505589e+00  -1.582099458970799510e+00  -3.419501820916750034e+00  9.911456108093261719e+00
-2.733441849443707383e-02  -1.584746953497169208e+00  1.888254874666525751e+00  -1.731051860847980350e+00  -1.573515214168449639e+00  -3.462849182065811604e+00  9.972082138061523438e+00
-6.663699831827685216e-02  -1.553418008681207496e+00  1.849024076266662320e+00  -1.713279248624104412e+00  -1.571481032256976107e+00  -3.494121319849650575e+00  1.002382493019104004e+01
-1.361846900623753243e-01  -1.502686668661245228e+00  1.786988912856525502e+00  -1.686635669928730152e+00  -1.574414653880840120e+00  -3.543136375299756224e+00  1.010520100593566895e+01
-1.820166117399999450e-01  -1.472801082011107709e+00  1.751495126125242052e+00  -1.673124334274505465e+00  -1.578613007942127666e+00  -3.570499779732804413e+00  1.015255212783813477e+01
-2.291388126929483349e-01  -1.442942626947146145e+00  1.716880920234217456e+00  -1.661974914696568995e+00  -1.583857023768880268e+00  -3.596141881532240347e+00  1.019730401039123535e+01
-3.134034725708829683e-01  -1.386379726546885571e+00  1.653521830514018021e+00  -1.649886981275480835e+00  -1.593188186126493378e+00  -3.638989712152103095e+00  1.029086995124816895e+01
-3.720263880585719107e-01  -1.343388550513647139e+00  1.606892931634193111e+00  -1.647952343177955470e+00  -1.598774558404727486e+00  -3.667505512935818501e+00  1.035160398483276367e+01
-4.378907211405085320e-01  -1.301487622557485402e+00  1.561922339827668260e+00  -1.645675725638656495e+00  -1.608586073034313557e+00  -3.696219274343427230e+00  1.042228198051452637e+01
-4.869484091909050960e-01  -1.273754548035885392e+00  1.532466020463706613e+00  -1.644098208764306790e+00  -1.618086636583100812e+00  -3.715778152984221094e+00  1.047647404670715332e+01
-5.187860707453424425e-01  -1.254667359264809434e+00  1.512480827417918228e+00  -1.644907848500981373e+00  -1.624239053742101646e+00  -3.728427209567310996e+00  1.051653194427490234e+01
-5.417685136423671111e-01  -1.239246648214797020e+00  1.496529725707979708e+00  -1.647159608028021083e+00  -1.628182710699963565e+00  -3.737930264449524032e+00  1.055180597305297852e+01
-5.675078589900159898e-01  -1.219700924801070840e+00  1.476544617758254851e+00  -1.651774476302332317e+00  -1.631725116214189697e+00  -3.749257114872087016e+00  1.058931303024291992e+01
-5.903587294254535323e-01  -1.200105656669683718e+00  1.456730672971731089e+00  -1.657939134933744896e+00  -1.633921157957702874e+00  -3.759962733811061497e+00  1.062902092933654785e+01
-6.067136020139294317e-01  -1.184597476771821256e+00  1.441188548169155759e+00  -1.663633925228069188e+00  -1.634901779705714375e+00  -3.768040830947001041e+00  1.066574907302856445e+01
-6.283840594072280794e-01  -1.161591343726296799e+00  1.418304049570831893e+00  -1.672964054289707292e+00  -1.635275729800226507e+00  -3.779396477880951011e+00  1.070836400985717773e+01
-6.411249507671534786e-01  -1.146417536708909779e+00  1.403290629627893971e+00  -1.679620691171955116e+00  -1.634911587212289241e+00  -3.786480811799988189e+00  1.074491596221923828e+01
-6.552814421966424163e-01  -1.127805189957560295e+00  1.384943188220506549e+00  -1.688423219658156782e+00  -1.633866645279565155e+00  -3.794806085091188663e+00  1.078342700004577637e+01
-6.720531713603445922e-01  -1.102818551583923501e+00  1.360329079119606099e+00  -1.701541910921619660e+00  -1.631442882172464692e+00  -3.805441327155026698e+00  1.083746194839477539e+01
-6.820811648512208336e-01  -1.086072118662273489e+00  1.343845520491955270e+00  -1.711184944483107984e+00  -1.629151334184278710e+00  -3.812289113016628761e+00  1.087802290916442871e+01
-6.906069900106572845e-01  -1.070441866225786853e+00  1.328485741770318640e+00  -1.720850545640169926e+00  -1.626499887776466480e+00  -3.818522137028539376e+00  1.091865897178649902e+01
-6.977606551283805913e-01  -1.056062071120186907e+00  1.314323242136293146e+00  -1.730404602366661493e+00  -1.623595797924867412e+00  -3.824161801939002459e+00  1.096318411827087402e+01
-7.058552834146283317e-01  -1.038095206021874439e+00  1.296602729737768023e+00  -1.743242526707298623e+00  -1.619291637712429122e+00  -3.831120252877255439e+00  1.101318693161010742e+01
-7.105065769764955519e-01  -1.026826407473036440e+00  1.285425642912955801e+00  -1.751813449398811784e+00  -1.616199644555166515e+00  -3.835441196210602754e+00  1.105711102485656738e+01
-7.150278845222715063e-01  -1.014874731856711954e+00  1.273583378361880847e+00  -1.761337073172811074e+00  -1.612595016231566092e+00  -3.839945415455101596e+00  1.110032200813293457e+01
-7.176651470779802366e-01  -1.007566152557262562e+00  1.266322533774068226e+00  -1.767350328280922866e+00  -1.610274091735628410e+00  -3.842668493820788456e+00  1.113540005683898926e+01
-7.277768365614543100e-01  -9.418614537137237619e-01  1.201045908379643423e+00  -1.830160954179878452e+00  -1.570701668527014760e+00  -3.869463807025006474e+00  1.194332408905029297e+01
-7.277861795214661811e-01  -9.419185715307243356e-01  1.201113227948681139e+00  -1.830084799438866483e+00  -1.570749972217013735e+00  -3.869415141534268354e+00  1.202399110794067383e+01
-7.290880023896306739e-01  -9.451287570207753674e-01  1.204491247337893700e+00  -1.828925533126615655e+00  -1.574755398501203274e+00  -3.866985030625168740e+00  1.210181403160095215e+01
-7.351706845253325184e-01  -9.646746041318650100e-01  1.225208591772056099e+00  -1.822510556920816427e+00  -1.596915191459217453e+00  -3.852586360406005994e+00  1.216559696197509766e+01
-7.364546909731197744e-01  -1.022020789535350360e+00  1.287513378731755864e+00  -1.805677977680129054e+00  -1.646050251735328374e+00  -3.811997220578069001e+00  1.226371097564697266e+01
-7.305082093607202509e-01  -1.057560228438635619e+00  1.326741248537218310e+00  -1.793650034329340670e+00  -1.669239585870801790e+00  -3.787550010883231622e+00  1.231108808517456055e+01
-7.134067976685836143e-01  -1.120818335670207944e+00  1.397136614783768049e+00  -1.771621156430453148e+00  -1.701401128256350148e+00  -3.743505405080319370e+00  1.239359402656555176e+01
-6.829017269658841371e-01  -1.192666628251545902e+00  1.480785432195555362e+00  -1.762734684222866832e+00  -1.737187047450536426e+00  -3.682367361595443533e+00  1.249312090873718262e+01
-6.763275927960465950e-01  -1.239084710874321260e+00  1.542729201639292613e+00  -1.776851913220681922e+00  -1.789013865474684550e+00  -3.625258525778706442e+00  1.258982110023498535e+01
-6.710123623360715328e-01  -1.292702320396196924e+00  1.607156130145292350e+00  -1.767134387915281657e+00  -1.821559778792932960e+00  -3.583134765230282071e+00  1.266592097282409668e+01
-6.695770717601092770e-01  -1.380710754698657894e+00  1.709327425076204277e+00  -1.742099881763881086e+00  -1.870782395561523259e+00  -3.526866197631282063e+00  1.276715111732482910e+01
-6.721614196191083579e-01  -1.426372837709958930e+00  1.763775782641391565e+00  -1.735323171328530201e+00  -1.899248998591875903e+00  -3.496599591155920006e+00  1.282970094680786133e+01
-6.739974025560968585e-01  -1.464720480999122998e+00  1.809654620303791539e+00  -1.730266873555805773e+00  -1.921367981996814578e+00  -3.472381889210907957e+00  1.288794994354248047e+01
-6.749347259482192385e-01  -1.498084588121749050e+00  1.849295795262441588e+00  -1.724921655467481330e+00  -1.937448915559389917e+00  -3.452582273890732800e+00  1.293695712089538574e+01
-6.754606581395083964e-01  -1.531290245214137258e+00  1.888696467931091583e+00  -1.719613352694794095e+00  -1.950724933210839396e+00  -3.433468096108832857e+00  1.298165011405944824e+01
-6.749133937889348900e-01  -1.569676460674187979e+00  1.934254532317791764e+00  -1.713947740848920098e+00  -1.963352761291186965e+00  -3.411982619423644891e+00  1.304003095626831055e+01
-6.720421681334860509e-01  -1.607626502138000291e+00  1.979203274871229601e+00  -1.708828445014007436e+00  -1.973334526703876435e+00  -3.391429231086307006e+00  1.309574198722839355e+01
-6.681203042018353244e-01  -1.634116951847301991e+00  2.010591766923117252e+00  -1.705675348736168218e+00  -1.979299747559903011e+00  -3.377415638337232018e+00  1.313804697990417480e+01
-6.611719413496350839e-01  -1.664837373961164602e+00  2.047092088164754742e+00  -1.702626428971556471e+00  -1.985473590166126456e+00  -3.361387971217281834e+00  1.318129491806030273e+01
-6.535797421826359255e-01  -1.689376673477728019e+00  2.076373888971692061e+00  -1.700812431810218683e+00  -1.989737175181486961e+00  -3.348681264917544365e+00  1.322228407859802246e+01
-6.445164129733358394e-01  -1.712756339708626285e+00  2.104460875152592170e+00  -1.699709773807718705e+00  -1.993060261891249851e+00  -3.336598379620206778e+00  1.326167702674865723e+01
-6.319036708569987226e-01  -1.739064782788076968e+00  2.136379172432155027e+00  -1.699414793306781135e+00  -1.995575032033737983e+00  -3.322995828969519394e+00  1.331139993667602539e+01
-6.200799401708732006e-01  -1.759429713525904049e+00  2.161360348147780552e+00  -1.700078730857732978e+00  -1.996260106136823254e+00  -3.312410075023406897e+00  1.335222506523132324e+01
-6.017393006406850375e-01  -1.785320727530319118e+00  2.193576496296543166e+00  -1.702584381752384246e+00  -1.994858092203574351e+00  -3.298747619659969210e+00  1.341092109680175781e+01
-5.814662969666102299e-01  -1.808038613400146488e+00  2.222390662881042811e+00  -1.706837897326799691e+00  -1.990461384524912170e+00  -3.286384789046119526e+00  1.346510791778564453e+01
-5.563125606523486866e-01  -1.829854933589022181e+00  2.250837442929805032e+00  -1.713966207576662626e+00  -1.981798959260848925e+00  -3.273875897251595113e+00  1.352694797515869141e+01
-5.362791549075360820e-01  -1.843232995961610499e+00  2.268921539677392740e+00  -1.720874892263200451e+00  -1.972800100959748448e+00  -3.265589137292019828e+00  1.357418298721313477e+01
-5.139466157125864854e-01  -1.853740896961559415e+00  2.283851198713942932e+00  -1.729432965556927826e+00  -1.960594463742161508e+00  -3.258263227917857385e+00  1.362416005134582520e+01
-4.927443396905237805e-01  -1.859864805328021120e+00  2.293492433443217848e+00  -1.738353139362690314e+00  -1.947633281891373969e+00  -3.252882440969319777e+00  1.366653800010681152e+01
-4.644022636275986216e-01  -1.863925366435459807e+00  2.301625439056442790e+00  -1.751389358255615036e+00  -1.929131725433261835e+00  -3.247186582798932353e+00  1.370980811119079590e+01
-4.389528538124736201e-01  -1.864747693818409324e+00  2.305688796828980092e+00  -1.763929836915327343e+00  -1.911658506800524293e+00  -3.242984371315969394e+00  1.375008606910705566e+01
-4.071544686731112250e-01  -1.863060803566634505e+00  2.307648266082592325e+00  -1.780362669382689944e+00  -1.888649450651174178e+00  -3.238518486967269183e+00  1.380340600013732910e+01
-3.748230500995228809e-01  -1.858882375499985251e+00  2.306851680604404820e+00  -1.797737255236654619e+00  -1.863779626528599742e+00  -3.234676379541594038e+00  1.385153198242187500e+01
-3.374623133263847663e-01  -1.851570952689510996e+00  2.303028100538655920e+00  -1.818559052722015679e+00  -1.833119929022312355e+00  -3.230880473814694120e+00  1.389969897270202637e+01
-3.064492457564842454e-01  -1.843599124247461418e+00  2.297718871510117111e+00  -1.837061592214965344e+00  -1.806018956624487082e+00  -3.228148367577669209e+00  1.395291709899902344e+01
-2.769790189192091745e-01  -1.834205956415087435e+00  2.290786871095296107e+00  -1.856197614121377626e+00  -1.778942049296149186e+00  -3.225833663321768352e+00  1.399892497062683105e+01
-2.539944494737094161e-01  -1.825514870383551091e+00  2.284008287671230875e+00  -1.872286757803188095e+00  -1.756933206930061608e+00  -3.224187394364368853e+00  1.403816294670104980e+01
-2.327278038673590288e-01  -1.816351092685000168e+00  2.276624301683554563e+00  -1.888064104813000910e+00  -1.736017637695949745e+00  -3.222773212962493972e+00  1.407812690734863281e+01
-2.170595860389470388e-01  -1.808862217817937434e+00  2.270462973484379532e+00  -1.900300303704964833e+00  -1.720295603269074824e+00  -3.221785190138669375e+00  1.411504793167114258e+01
-1.992133408779599435e-01  -1.799531354559786855e+00  2.262648674160718798e+00  -1.914909459594090535e+00  -1.702046287144275638e+00  -3.220719927548781669e+00  1.414819812774658203e+01
-1.832480752344851638e-01  -1.790438731521887483e+00  2.254880943990782427e+00  -1.928601579962602841e+00  -1.685508695937237178e+00  -3.219809042677181932e+00  1.418838310241699219e+01
-1.691475321449722458e-01  -1.781777048310025258e+00  2.247374626448333856e+00  -1.941134758873040767e+00  -1.670774598481374440e+00  -3.219080396397207444e+00  1.423162412643432617e+01
-1.591320725514222545e-01  -1.775228709985300135e+00  2.241644630043596820e+00  -1.950322520850868102e+00  -1.660215032719611905e+00  -3.218570496562582317e+00  1.426047992706298828e+01
-1.480967123870602364e-01  -1.767575446165762898e+00  2.234892805906083524e+00  -1.960808818528644082e+00  -1.648462825596223702e+00  -3.218027095709206531e+00  1.430214500427246094e+01
-1.401753762942101744e-01  -1.761844886018774758e+00  2.229798920925682992e+00  -1.968538579663245969e+00  -1.640001580082198096e+00  -3.217644876287894196e+00  1.433685803413391113e+01
-7.393978385536570386e-02  -1.698018944450183199e+00  2.170238985531504738e+00  -2.043145984761137512e+00  -1.570607147471957177e+00  -3.215654872658203711e+00  1.515551209449768066e+01
-7.400191809487566275e-02  -1.698096310214708637e+00  2.170305698761804791e+00  -2.043051828340525233e+00  -1.570730124892268265e+00  -3.215656184594615219e+00  1.524864602088928223e+01
-7.120317104336315595e-02  -1.698244273967821627e+00  2.169537836382893659e+00  -2.041363427912838091e+00  -1.564384029601630033e+00  -3.218567194227254902e+00  1.533815002441406250e+01
-5.671881229642572464e-02  -1.698920097090311998e+00  2.165088087912781845e+00  -2.030760817592213385e+00  -1.535253229291430266e+00  -3.235083999001066246e+00  1.540936899185180664e+01
-3.788616729612570566e-02  -1.701662124683611665e+00  2.160962573216929528e+00  -2.009801741085824212e+00  -1.520196796154892560e+00  -3.258225399350928697e+00  1.547365307807922363e+01
-2.590934171050029988e-02  -1.706223291072772597e+00  2.156112016530240538e+00  -1.982800966290400702e+00  -1.526246639682305783e+00  -3.284502005216651810e+00  1.553544807434082031e+01
-2.632196101316353065e-02  -1.711563316501734988e+00  2.149485141277267530e+00  -1.952602406910176391e+00  -1.544800262377769684e+00  -3.312230798805163801e+00  1.559857797622680664e+01
-3.447792361149737417e-02  -1.716484058249669431e+00  2.142031821258278512e+00  -1.926499537008337981e+00  -1.565686739027531971e+00  -3.337493325884715034e+00  1.565422701835632324e+01
-4.648492502047218977e-02  -1.721547452512620424e+00  2.133570376274679603e+00  -1.902481658403763376e+00  -1.589218213067319141e+00  -3.363348180819727418e+00  1.571668100357055664e+01
-6.033211750724731814e-02  -1.726785669929881806e+00  2.124235009052490852e+00  -1.879592573689738089e+00  -1.614437155177544270e+00  -3.389445629530715820e+00  1.576622295379638672e+01
-7.781750315482227620e-02  -1.732969471100282988e+00  2.112094232927741899e+00  -1.853111920912287047e+00  -1.643840058559295159e+00  -3.419225625564365600e+00  1.583200311660766602e+01
-9.722000575194655880e-02  -1.739279618530545690e+00  2.098253023996367261e+00  -1.824975786585574689e+00  -1.673211393792506385e+00  -3.448518141126367453e+00  1.589384603500366211e+01
-1.221019908060974046e-01  -1.747229137680161415e+00  2.079802966255469343e+00  -1.786290161398300214e+00  -1.712658049699459895e+00  -3.483754116613006602e+00  1.597581911087036133e+01
-1.453310698582619409e-01  -1.755238185475949564e+00  2.060593713398990445e+00  -1.739380356099601066e+00  -1.766763549310599757e+00  -3.523160239868623478e+00  1.607057094573974609e+01
-1.571964093712239219e-01  -1.755913823680534058e+00  2.050139783244064873e+00  -1.714303658217163573e+00  -1.797835175728476287e+00  -3.544359765181637201e+00  1.612639212608337402e+01
-1.765839162407232266e-01  -1.752234136218033811e+00  2.039914930871518095e+00  -1.693460101825263742e+00  -1.827004908521891124e+00  -3.562301314762224891e+00  1.617182898521423340e+01
-2.043221485461739206e-01  -1.744982647868347669e+00  2.027776036369481005e+00  -1.673351965853201229e+00  -1.858090771318966716e+00  -3.580613608942474713e+00  1.622542309761047363e+01
-2.359459428319627960e-01  -1.734612927974173324e+00  2.013472384184030517e+00  -1.654672366777976578e+00  -1.888520929819154759e+00  -3.599439144564485105e+00  1.626827812194824219e+01
-2.584386972073033917e-01  -1.725499675721349213e+00  2.002249240841642575e+00  -1.643188917070787625e+00  -1.907016843162955055e+00  -3.612341246968185260e+00  1.630483913421630859e+01
-2.882690368535776315e-01  -1.710907237669961667e+00  1.985587501183943004e+00  -1.630221833427650147e+00  -1.926834020096279687e+00  -3.628945728863122611e+00  1.634254598617553711e+01
-3.264357851466765936e-01  -1.688390814973273812e+00  1.961281455834004817e+00  -1.617163399715749961e+00  -1.944897552746841285e+00  -3.649459715228971390e+00  1.638746595382690430e+01
-3.596446881093022796e-01  -1.665921672433486656e+00  1.937742345153818491e+00  -1.608748141486112004e+00  -1.955291665080004293e+00  -3.666851481516772537e+00  1.642761301994323730e+01
-3.935142816904626528e-01  -1.640618030451124199e+00  1.911701421831420333e+00  -1.602637128927824506e+00  -1.961845892821969528e+00  -3.684332893674483245e+00  1.647068810462951660e+01
-4.274683302012647346e-01  -1.613041987836111524e+00  1.883714003897669187e+00  -1.598714625941162204e+00  -1.964885115495157208e+00  -3.701728074594285545e+00  1.650758314132690430e+01
-4.544212971566885528e-01  -1.589671813280023827e+00  1.860222454060968644e+00  -1.597088972140812579e+00  -1.964968648502443571e+00  -3.715515176357360616e+00  1.654608201980590820e+01
-4.939263948962135942e-01  -1.553052785192598151e+00  1.823769566694892319e+00  -1.597079048750714492e+00  -1.961447594518393345e+00  -3.735817765208938823e+00  1.658937811851501465e+01
-5.192781269422255264e-01  -1.528064595704611506e+00  1.799067260305431404e+00  -1.598670081425211720e+00  -1.956850732206867782e+00  -3.749071302894764202e+00  1.662669992446899414e+01
-5.495282661373508404e-01  -1.496714381023336315e+00  1.768174527748353597e+00  -1.602310426127436571e+00  -1.948867174876430575e+00  -3.765199480284213251e+00  1.665927410125732422e+01
-5.723904542626119252e-01  -1.471909484830749015e+00  1.743813679095239877e+00  -1.606319584723124194e+00  -1.940931446392630377e+00  -3.777647423591275810e+00  1.669600892066955566e+01
-5.939932798056233310e-01  -1.447548849041298880e+00  1.719949790778500187e+00  -1.611100845111611335e+00  -1.931824487861242723e+00  -3.789633051073327152e+00  1.673120808601379395e+01
-6.145229950879738112e-01  -1.423472395133224211e+00  1.696432246700550373e+00  -1.616624716068471912e+00  -1.921637038400105801e+00  -3.801290207334464100e+00  1.675722813606262207e+01
-6.663799390627502817e-01  -1.358487218556937215e+00  1.633101902837425179e+00  -1.635223776383231353e+00  -1.888358639963168883e+00  -3.832074600856165247e+00  1.684722495079040527e+01
-6.835579023287365885e-01  -1.335545211410536837e+00  1.610738675703587752e+00  -1.642977167341992839e+00  -1.874792161745781449e+00  -3.842736595606128347e+00  1.688027596473693848e+01
-7.036470911028374076e-01  -1.307697727927425113e+00  1.583577490319562742e+00  -1.653127842760268251e+00  -1.857193949731005489e+00  -3.855532581321142516e+00  1.691921997070312500e+01
-7.221542589480378638e-01  -1.280946476980875381e+00  1.557464587062473704e+00  -1.663689158884441355e+00  -1.839097231908880303e+00  -3.867723855282893197e+00  1.695599699020385742e+01
-7.358465625477617067e-01  -1.260428732125174811e+00  1.537402707397486523e+00  -1.672353409441790006e+00  -1.824375592065193175e+00  -3.877044214514581810e+00  1.699517393112182617e+01
-7.515566379944473852e-01  -1.236027183617925296e+00  1.513569688002187164e+00  -1.683179611947849708e+00  -1.805993267188393148e+00  -3.888073921234919794e+00  1.703400611877441406e+01
-7.657628531773337244e-01  -1.212846327722425066e+00  1.490915669863600357e+00  -1.694011127828126462e+00  -1.787652123625881551e+00  -3.898507644692770668e+00  1.707053303718566895e+01
-7.786275264487443337e-01  -1.190757392526475833e+00  1.469291259438249675e+00  -1.704881058935324489e+00  -1.769324691982293807e+00  -3.908369780977743346e+00  1.711478710174560547e+01
-7.923617232809796462e-01  -1.165769765238987787e+00  1.444750003676837480e+00  -1.717870800884934823e+00  -1.747752119802419735e+00  -3.919438534865452795e+00  1.715695500373840332e+01
-8.025224533276915651e-01  -1.146227126535863228e+00  1.425539384601637316e+00  -1.728530503960460152e+00  -1.730349329797482127e+00  -3.928038785636001506e+00  1.720014595985412598e+01
-8.116009190857909061e-01  -1.127906820521325848e+00  1.407533058907248780e+00  -1.738925676772282714e+00  -1.713619160261494301e+00  -3.936064670331575144e+00  1.723815202713012695e+01
-8.196216570369792009e-01  -1.110975989235875261e+00  1.390820875992598182e+00  -1.748896056085410322e+00  -1.697828925370468589e+00  -3.943483570833635099e+00  1.728150391578674316e+01
-8.266572424657034901e-01  -1.095455202035726217e+00  1.375516974282723126e+00  -1.758342959128210481e+00  -1.683182685204818618e+00  -3.950250268073872917e+00  1.732110500335693359e+01
-8.328003582689653683e-01  -1.081389714746838315e+00  1.361600156248810478e+00  -1.767275856025712244e+00  -1.669803638013618752e+00  -3.956397459691672225e+00  1.735966205596923828e+01
-8.381325825080168102e-01  -1.068779170318562066e+00  1.349119794292435337e+00  -1.775581977865261507e+00  -1.657698785258394203e+00  -3.961881710834461501e+00  1.740154409408569336e+01
-8.435208025649565400e-01  -1.055525629591824277e+00  1.336001669652485013e+00  -1.784647941852924191e+00  -1.644855635176281083e+00  -3.967611468560589216e+00  1.745076012611389160e+01
-8.482298361897928629e-01  -1.043660328682800120e+00  1.324273131730410391e+00  -1.792946553399040965e+00  -1.633381108378893387e+00  -3.972721686493077442e+00  1.749696803092956543e+01
-8.659794568322753960e-01  -9.754750152790414575e-01  1.256383939830147511e+00  -1.851872912297572782e+00  -1.570618301276164530e+00  -4.007686897569046280e+00  1.830704903602600098e+01
-8.659874722176414963e-01  -9.755237598676913535e-01  1.256454654930972747e+00  -1.851826557398148054e+00  -1.570700748253837986e+00  -4.007652772009871356e+00  1.838061594963073730e+01
-8.710103138768428011e-01  -9.866341493834145382e-01  1.259734070332135136e+00  -1.858755555680440708e+00  -1.584765432251234785e+00  -3.999578298431870849e+00  1.848826193809509277e+01
-8.826206407284082900e-01  -1.029581647856453230e+00  1.276829109764860304e+00  -1.879618252089741759e+00  -1.633455897801034951e+00  -3.966926800342845727e+00  1.856364893913269043e+01
-8.717770634647097339e-01  -1.089525744840599941e+00  1.323394264236122719e+00  -1.878244877346991082e+00  -1.692820372729645584e+00  -3.909586114246282218e+00  1.865479803085327148e+01
-8.605377158846225782e-01  -1.135106019485961681e+00  1.380263554750410293e+00  -1.860630233758616470e+00  -1.748475231791733364e+00  -3.858188796243831931e+00  1.873296308517456055e+01
-8.447801102896219660e-01  -1.208532465992849581e+00  1.450364861057098054e+00  -1.855992943616364244e+00  -1.774419345482920463e+00  -3.806724184718831783e+00  1.882920193672180176e+01
-8.351763478870086743e-01  -1.274253967311185676e+00  1.504246175763547910e+00  -1.869700223596375110e+00  -1.800499563658730651e+00  -3.759702669291382193e+00  1.891242599487304688e+01
-8.308846728925836089e-01  -1.348403410369371613e+00  1.582084368792473050e+00  -1.866637687844611371e+00  -1.838837567788083049e+00  -3.703745315044782771e+00  1.900016212463378906e+01
-8.248408717596333872e-01  -1.396375313826645481e+00  1.635765609285710465e+00  -1.856480899377961791e+00  -1.859812121929758533e+00  -3.671710374440895208e+00  1.905953812599182129e+01
-8.191189140954948655e-01  -1.438104133182045885e+00  1.680720128393397905e+00  -1.847252448520537271e+00  -1.876307238413195577e+00  -3.649281019528619829e+00  1.910648798942565918e+01
-8.134685419498444148e-01  -1.487660042972485996e+00  1.733312215093447906e+00  -1.836174816809249322e+00  -1.895548859108771467e+00  -3.627610858502320124e+00  1.916202497482299805e+01
-8.073638574956190084e-01  -1.544884470814697153e+00  1.795305627217685718e+00  -1.821617224450813310e+00  -1.917082738468394609e+00  -3.604775398711770773e+00  1.922171902656555176e+01
-8.007544331615825683e-01  -1.608513154890573560e+00  1.865668155246260618e+00  -1.803629760332376541e+00  -1.938284769916208461e+00  -3.578836355315095474e+00  1.929295706748962402e+01
-7.929260418757699824e-01  -1.664904658665447457e+00  1.928757663941510714e+00  -1.786896950963488884e+00  -1.954001840095008546e+00  -3.555324770235895659e+00  1.936278510093688965e+01
-7.829016641247825703e-01  -1.713875145758482432e+00  1.984012872329586008e+00  -1.772205117600976543e+00  -1.966140063512096248e+00  -3.534256985466658119e+00  1.941451001167297363e+01
-7.741397783686450040e-01  -1.748262078628656013e+00  2.023064391038311260e+00  -1.761921295118913378e+00  -1.973806841947322255e+00  -3.519049451507045845e+00  1.945654392242431641e+01
-7.643931485396082692e-01  -1.781870385116857136e+00  2.061405578900424196e+00  -1.751982363501050521e+00  -1.980586631670586684e+00  -3.503891308221671164e+00  1.949679613113403320e+01
-7.538482400408339501e-01  -1.814442854415045048e+00  2.098742752517761545e+00  -1.742532579123325931e+00  -1.986498550367237215e+00  -3.488930173949796210e+00  1.953783893585205078e+01
-7.402903117083852180e-01  -1.852078560847159494e+00  2.142082811281873944e+00  -1.732011826520276188e+00  -1.992341586008414822e+00  -3.471304293364908755e+00  1.958152198791503906e+01
-7.258684025534236639e-01  -1.887978217182931573e+00  2.183612375590599175e+00  -1.722424814486951838e+00  -1.996650987737403682e+00  -3.454200256460708385e+00  1.962738013267517090e+01
-7.083186653032989000e-01  -1.927329575778966131e+00  2.229391366482661230e+00  -1.712521399155589208e+00  -1.999642809009404942e+00  -3.435128214766621113e+00  1.968322396278381348e+01
-6.829892552389491556e-01  -1.978389812476606835e+00  2.289490617187210919e+00  -1.701253378663376559e+00  -2.000463484726495267e+00  -3.409833906901095890e+00  1.977056598663330078e+01
-6.497334700921886252e-01  -2.031721756090806963e+00  2.353479658796874041e+00  -1.694025986332164280e+00  -1.996500080614820760e+00  -3.382704231720945920e+00  1.986144804954528809e+01
-6.260348100169386143e-01  -2.054374248546084303e+00  2.381274270814136340e+00  -1.693681688001277053e+00  -1.991933612711671131e+00  -3.370824838065420881e+00  1.990961909294128418e+01
-6.076032118305016994e-01  -2.067507897040195886e+00  2.397712788968723530e+00  -1.694617628064266412e+00  -1.987010776865121287e+00  -3.363619002354808707e+00  1.994408202171325684e+01
-5.723807960912274950e-01  -2.086164995249330190e+00  2.421885492032485931e+00  -1.698831898437241250e+00  -1.973778205333322155e+00  -3.352233238168058627e+00  2.000080609321594238e+01
-5.406453451355526241e-01  -2.097860021807168351e+00  2.437971144429224246e+00  -1.705210404962876680e+00  -1.958319948028909074e+00  -3.343556903487396426e+00  2.004722595214843750e+01
-5.137549395778027161e-01  -2.104724543730096542e+00  2.448204468993261163e+00  -1.712361819993050815e+00  -1.943317195692159771e+00  -3.337028802624421697e+00  2.008977699279785156e+01
-4.868796107979269649e-01  -2.109141090323547019e+00  2.455733317103898639e+00  -1.720962074455611557e+00  -1.926676409475084562e+00  -3.331135014833683794e+00  2.012809300422668457e+01
-4.602544787951385885e-01  -2.111361543419260300e+00  2.460838285048410956e+00  -1.730688811119522441e+00  -1.908389870773683938e+00  -3.325851838000521532e+00  2.016650295257568359e+01
-4.340308012151510297e-01  -2.111653092538198884e+00  2.463828321439073488e+00  -1.741264946464298191e+00  -1.888370222344833316e+00  -3.321097242170909070e+00  2.020813202857971191e+01
-3.985569049843142864e-01  -2.109352762856411267e+00  2.465086957806535750e+00  -1.756900799821949022e+00  -1.858229189467583531e+00  -3.315245397603733934e+00  2.025933194160461426e+01
-3.746726078906261748e-01  -2.106117641196862067e+00  2.464294403960272106e+00  -1.768347658707638104e+00  -1.835964647385069703e+00  -3.311614142149921669e+00  2.030009603500366211e+01
-3.521873661586765181e-01  -2.101806325186461599e+00  2.462293597497961173e+00  -1.780050338016287981e+00  -1.813508403649456646e+00  -3.308412322992333898e+00  2.034074997901916504e+01
-3.308961385633395480e-01  -2.096520756374249395e+00  2.459213959518883996e+00  -1.792210334073935485e+00  -1.791097586418332277e+00  -3.305552862600821928e+00  2.038194894790649414e+01
-3.108176125759136710e-01  -2.090421450835636463e+00  2.455259977321670561e+00  -1.804719437174750141e+00  -1.769045202095381519e+00  -3.302971621852097250e+00  2.042147493362426758e+01
-2.920615689773393697e-01  -2.083747917577936093e+00  2.450653888261186353e+00  -1.817265975110275988e+00  -1.747820941542433282e+00  -3.300639513933109725e+00  2.045924711227416992e+01
-2.780796536888017201e-01  -2.078150142426685498e+00  2.446637377124211810e+00  -1.827179733780301518e+00  -1.731695694213533088e+00  -3.298950720878347287e+00  2.049309301376342773e+01
-2.650916740575262054e-01  -2.072468459291023635e+00  2.442452213899986901e+00  -1.836839469730039198e+00  -1.716517732048083111e+00  -3.297434452219297096e+00  2.053023099899291992e+01
-2.502887411897143366e-01  -2.065402691038911165e+00  2.437135834743664020e+00  -1.848359621699867006e+00  -1.699014380078120112e+00  -3.295751080876571759e+00  2.056805300712585449e+01
-2.395467336267884662e-01  -2.059871615294722957e+00  2.432912435045864186e+00  -1.857053942369217836e+00  -1.686217500553406801e+00  -3.294560762995347059e+00  2.060219502449035645e+01
-2.275822281638264499e-01  -2.053181073437135851e+00  2.427737339112464809e+00  -1.867143037655692339e+00  -1.671923280432993764e+00  -3.293277775589447121e+00  2.064280700683593750e+01
-2.150360129652266750e-01  -2.045477354649735346e+00  2.421715981530441653e+00  -1.878163211937653898e+00  -1.656854041533093458e+00  -3.291974681245834589e+00  2.068670892715454102e+01
-2.059278629514880166e-01  -2.039358455921273183e+00  2.416899246354267561e+00  -1.886510258128566875e+00  -1.645840850353931017e+00  -3.291041062061922595e+00  2.072388100624084473e+01
-1.994387341230128285e-01  -2.034678534731185984e+00  2.413190126291794968e+00  -1.892655821628931534e+00  -1.637996975130955768e+00  -3.290382254151397401e+00  2.075510907173156738e+01
-1.933660636964873447e-01  -2.030147580064173951e+00  2.409577997361509460e+00  -1.898492226499168822e+00  -1.630665702745242918e+00  -3.289759737032247333e+00  2.079150509834289551e+01
-1.446219322170776422e-01  -1.973696412371012343e+00  2.360075281903646793e+00  -1.957239526079893821e+00  -1.570667917603525865e+00  -3.286294758635357027e+00  2.160775709152221680e+01
-1.446684973325673695e-01  -1.973743297585575540e+00  2.360120646899872110e+00  -1.957171474873144135e+00  -1.570753195044375161e+00  -3.286311643070007449e+00  2.169322299957275391e+01
-1.415822439117659926e-01  -1.973060725674337768e+00  2.358845676085447707e+00  -1.956337500483106062e+00  -1.566199162056125971e+00  -3.287784575712786150e+00  2.176752710342407227e+01
-1.243387490901923798e-01  -1.968781626730412349e+00  2.350992427858109579e+00  -1.950386465901169153e+00  -1.543397304130014192e+00  -3.296743470595339787e+00  2.183412694931030273e+01
-1.014130763803420265e-01  -1.964270755011036762e+00  2.340786988699171900e+00  -1.935928976307006444e+00  -1.528369403000302107e+00  -3.310314721597165999e+00  2.189041495323181152e+01
-8.155502165523031977e-02  -1.960764765775786067e+00  2.330199429664034483e+00  -1.916667349061656367e+00  -1.528082063229565080e+00  -3.324182534249402465e+00  2.193792104721069336e+01
-6.325288964206698950e-02  -1.956611723297211114e+00  2.315726104809058938e+00  -1.888804001130606203e+00  -1.539956745252240466e+00  -3.341463957089880310e+00  2.199154305458068848e+01
-5.331469885316675317e-02  -1.952282026005461191e+00  2.301049483377621385e+00  -1.862815729768481532e+00  -1.556721351496038963e+00  -3.356931374450816463e+00  2.203913998603820801e+01
-4.830189054497946444e-02  -1.947144947090398759e+00  2.283516989396222385e+00  -1.836152082421569354e+00  -1.577360264372414278e+00  -3.372932150170754539e+00  2.208960103988647461e+01
-4.710610258836567255e-02  -1.940516111696873658e+00  2.258900070521999481e+00  -1.804283550133956027e+00  -1.604545596294379095e+00  -3.391983651854044268e+00  2.214382600784301758e+01
-4.875076257931709733e-02  -1.934348220551049380e+00  2.234315930991812138e+00  -1.776207662902968387e+00  -1.629074653986229748e+00  -3.408558109183282170e+00  2.219210910797119141e+01
-5.329501790632917846e-02  -1.925066587607787483e+00  2.197562609715165038e+00  -1.737103671817068040e+00  -1.661450400832791274e+00  -3.430791418034109697e+00  2.225708413124084473e+01
-5.903144184960495977e-02  -1.915824507292000156e+00  2.162623407865041258e+00  -1.702537202249218673e+00  -1.688459472663554450e+00  -3.450175899031581395e+00  2.231361103057861328e+01
-6.749730974452106125e-02  -1.904955860770124687e+00  2.126009641444294829e+00  -1.669459122892293479e+00  -1.713473490285192469e+00  -3.469209813080571081e+00  2.236587309837341309e+01
-8.793611272391288480e-02  -1.880887791709087153e+00  2.066802990874009538e+00  -1.620562139862919970e+00  -1.749125880161567892e+00  -3.497971052039982709e+00  2.245669293403625488e+01
-1.086812174993525559e-01  -1.856746237419700130e+00  2.023880673452234547e+00  -1.586267333720632777e+00  -1.771809802121229183e+00  -3.518065335932696769e+00  2.252324795722961426e+01
-1.353694101614628664e-01  -1.831078545061900265e+00  1.986509235776086513e+00  -1.559411378669520509e+00  -1.788370594706753636e+00  -3.535056458714260330e+00  2.257372307777404785e+01
-1.692472624177963070e-01  -1.800815415958775922e+00  1.948568951067558785e+00  -1.536588751709582645e+00  -1.805932549821232413e+00  -3.552292156589622607e+00  2.263548398017883301e+01
-2.022641871668362512e-01  -1.771228770815175935e+00  1.915131972259159099e+00  -1.519562603632683029e+00  -1.823815669871644118e+00  -3.567814565581961972e+00  2.267962098121643066e+01
-2.322018865290242928e-01  -1.743265161815050313e+00  1.885802450368647243e+00  -1.506863045327532902e+00  -1.839765452203192098e+00  -3.581379650005512616e+00  2.271936202049255371e+01
-2.574571013917861251e-01  -1.718307835761162750e+00  1.860922170939661058e+00  -1.497780072565283227e+00  -1.852240494523867298e+00  -3.592632850079301221e+00  2.275492501258850098e+01
-2.970275814374083723e-01  -1.676859766267162044e+00  1.821033557863149355e+00  -1.486488635863746133e+00  -1.869203244738205427e+00  -3.610075235328988441e+00  2.279655504226684570e+01
-3.310795721253096957e-01  -1.639329340796361834e+00  1.785647171042123560e+00  -1.479508588063183083e+00  -1.880927467148193699e+00  -3.625015468106663974e+00  2.283856606483459473e+01
-3.655492946149969669e-01  -1.599909435942712399e+00  1.748833300277208735e+00  -1.474785543529270271e+00  -1.890033215655691379e+00  -3.640124901100552535e+00  2.288073110580444336e+01
-4.598844898813698734e-01  -1.485432811834150435e+00  1.642648226928121069e+00  -1.472767520834590727e+00  -1.900775090916955179e+00  -3.682297213352541121e+00  2.298833203315734863e+01
-5.040787650169065159e-01  -1.428539537981087904e+00  1.589897653067183114e+00  -1.477172010862091156e+00  -1.898415359688505610e+00  -3.702827751333716222e+00  2.304870200157165527e+01
-5.348134328035030194e-01  -1.389842079112736606e+00  1.554026060051107549e+00  -1.481003640216965067e+00  -1.895293882171730893e+00  -3.717045487605691534e+00  2.308416604995727539e+01
-5.649347425051782778e-01  -1.352860729626011782e+00  1.519759356824594398e+00  -1.485404670745465339e+00  -1.890957080440442084e+00  -3.730842424319138928e+00  2.312878894805908203e+01
-5.940331963032043916e-01  -1.317010366785211772e+00  1.486516852819244505e+00  -1.491220760475400198e+00  -1.884509130788529774e+00  -3.744289492090913996e+00  2.316636800765991211e+01
-6.217948745800043753e-01  -1.282013159093486898e+00  1.453980049191319068e+00  -1.498696607332762554e+00  -1.875724702431116775e+00  -3.757420665506600699e+00  2.320708012580871582e+01
-6.479788803687185350e-01  -1.248022669880562319e+00  1.422244538294231475e+00  -1.507624004916547023e+00  -1.864928199689867228e+00  -3.770183603807376826e+00  2.324965000152587891e+01
-6.768581618600926220e-01  -1.209134810339175914e+00  1.385755529782868756e+00  -1.519682723188910956e+00  -1.850076067164367011e+00  -3.784814318402748512e+00  2.329208612442016602e+01
-6.985424612273689604e-01  -1.178581166680800152e+00  1.356955887691993823e+00  -1.530471680093661746e+00  -1.836505576697017084e+00  -3.796383321314035442e+00  2.333453893661499023e+01
-7.178557051420320079e-01  -1.149926447261124807e+00  1.329837310390717953e+00  -1.541708927062872547e+00  -1.822259995173779679e+00  -3.807335404731622575e+00  2.337406206130981445e+01
-7.347503556145476011e-01  -1.123114629565024281e+00  1.304412867384781016e+00  -1.553215810997222945e+00  -1.807517261938191844e+00  -3.817658627926586945e+00  2.341532897949218750e+01
-7.493930801605337422e-01  -1.098111290062973922e+00  1.280570274514206019e+00  -1.564842213243700542e+00  -1.792530271539117592e+00  -3.827348235858888614e+00  2.345439100265502930e+01
-7.619978218229839229e-01  -1.074570995037299248e+00  1.257984821662067709e+00  -1.576621941382388314e+00  -1.777310198444842726e+00  -3.836491247340561017e+00  2.349778604507446289e+01
-7.766460591794839274e-01  -1.043696172873874062e+00  1.228120199642417809e+00  -1.593327864685736728e+00  -1.755806424537104782e+00  -3.848535895091181658e+00  2.354774713516235352e+01
-7.867183941108812917e-01  -1.019017758810724317e+00  1.204059077777866804e+00  -1.607880521195664159e+00  -1.737295712845954299e+00  -3.858183406753697753e+00  2.359588408470153809e+01
-7.935349669759439450e-01  -9.997365083332248048e-01  1.185180022369341835e+00  -1.620016823447638643e+00  -1.721963093857367788e+00  -3.865749079771184427e+00  2.364051604270935059e+01
-7.990750525989085418e-01  -9.817597531708370795e-01  1.167462909862891252e+00  -1.631990456720327387e+00  -1.706917183197230514e+00  -3.872837001447933858e+00  2.368246293067932129e+01
-8.042317849346076741e-01  -9.620159600858873006e-01  1.147973665887766614e+00  -1.645904298473929828e+00  -1.689710544365381040e+00  -3.880683781327970649e+00  2.372891902923583984e+01
-8.081082156982066778e-01  -9.444405016240624562e-01  1.130547940024479558e+00  -1.659005475851817124e+00  -1.673808117634656867e+00  -3.887702379981348599e+00  2.377541303634643555e+01
-8.111013991250324295e-01  -9.290637883626375881e-01  1.115241538418654699e+00  -1.671123064328781993e+00  -1.659391779619268981e+00  -3.893869719134634977e+00  2.382597208023071289e+01
-8.133808849733608071e-01  -9.157894162402753224e-01  1.102006665302643462e+00  -1.682024849327120819e+00  -1.646589991182031198e+00  -3.899194918020024048e+00  2.387260413169860840e+01
-8.152318862428735713e-01  -9.039216001731507077e-01  1.090152325229118091e+00  -1.692023900218783794e+00  -1.635037949305433003e+00  -3.903962803432561302e+00  2.392035508155822754e+01
-7.958864337869506755e-01  -8.371357622846851143e-01  1.023031117494581643e+00  -1.756871185487622000e+00  -1.570628986343868050e+00  -3.937550915616468306e+00  2.473779797554016113e+01
-7.959043088357766749e-01  -8.372013835698091100e-01  1.023110593099044285e+00  -1.756800460810450382e+00  -1.570708390084405437e+00  -3.937508507295393922e+00  2.481975102424621582e+01
-8.023357342453518726e-01  -8.392600584015212917e-01  1.029954182940219676e+00  -1.754577539845348255e+00  -1.578724152456253194e+00  -3.933990921945544006e+00  2.491230702400207520e+01
-8.386239450031851561e-01  -8.595666191136466239e-01  1.079348615591907201e+00  -1.739771726210860514e+00  -1.620651966870553906e+00  -3.909195497801131403e+00  2.500767803192138672e+01
-8.637995084313097038e-01  -9.100212789091735033e-01  1.150385366600531700e+00  -1.725081104549597733e+00  -1.634571872977739204e+00  -3.874779195525669184e+00  2.509610605239868164e+01
-8.810124448469949243e-01  -9.601830821390002768e-01  1.208966958137119185e+00  -1.729132897375471600e+00  -1.658286377711014836e+00  -3.846944832605756925e+00  2.516812109947204590e+01
-9.000405534427962095e-01  -1.000125788966538920e+00  1.259367924650719228e+00  -1.750081527905734902e+00  -1.689710619627266652e+00  -3.817080684496182208e+00  2.524005413055419922e+01
-9.198079179884608436e-01  -1.058026543789114982e+00  1.326647815259557106e+00  -1.786065648993311328e+00  -1.703054469068916887e+00  -3.753504287272882323e+00  2.534581613540649414e+01
-9.487147382441882826e-01  -1.119752840040916908e+00  1.383070560725482290e+00  -1.838399013862410669e+00  -1.717458347317954548e+00  -3.698260752970195409e+00  2.544380402565002441e+01
-9.562739638265504993e-01  -1.184343443357967374e+00  1.437521509337719827e+00  -1.886812399443172694e+00  -1.741221474834308225e+00  -3.665511621362420147e+00  2.553507494926452637e+01
-9.577635188617126261e-01  -1.236839032980679320e+00  1.489620027083194742e+00  -1.901244888177060943e+00  -1.759009306917395321e+00  -3.642270955777682229e+00  2.560244894027709961e+01
-9.601359863426779384e-01  -1.288251084004020441e+00  1.545317698289232267e+00  -1.903091274017598700e+00  -1.781198532866802964e+00  -3.620765995452419617e+00  2.566205501556396484e+01
-9.641158473310511567e-01  -1.326460715802081580e+00  1.587452406463607080e+00  -1.901894659812385591e+00  -1.802708540756512434e+00  -3.606737728117144215e+00  2.570743894577026367e+01
-9.710388583639257831e-01  -1.371511023137593099e+00  1.637716265169307128e+00  -1.898436481962384903e+00  -1.830830842720452267e+00  -3.592135129482256328e+00  2.576994013786315918e+01
-9.807723663097753786e-01  -1.423703660115421599e+00  1.697221760062144424e+00  -1.890557742419109566e+00  -1.863732922422091320e+00  -3.576949778896093779e+00  2.583125090599060059e+01
-9.906595954363002221e-01  -1.481236235710174043e+00  1.764325666333268927e+00  -1.878186198637458837e+00  -1.896958916490277147e+00  -3.561785848947381261e+00  2.590838599205017090e+01
-9.978803725109983702e-01  -1.537025722555835472e+00  1.830419566521731545e+00  -1.863519210256834313e+00  -1.926251033470869345e+00  -3.548438535282030681e+00  2.597824692726135254e+01
-9.999224394844468122e-01  -1.596761595704947467e+00  1.902473572409793867e+00  -1.845448276573972812e+00  -1.955561483468017059e+00  -3.535545528909830537e+00  2.605311894416809082e+01
-1.000654581800533904e+00  -1.647505279607383244e+00  1.964508511717831363e+00  -1.828214651841533644e+00  -1.978958741414263756e+00  -3.525309513979643317e+00  2.612882614135742188e+01
-9.983202024426329757e-01  -1.700639574255280451e+00  2.030371851591356247e+00  -1.808827673462133134e+00  -2.002068254165452643e+00  -3.515452323798881284e+00  2.620708012580871582e+01
-9.949017850245081007e-01  -1.730975508815131292e+00  2.068499781897568557e+00  -1.797313430419870350e+00  -2.014658124323352340e+00  -3.510229233829444073e+00  2.625854301452636719e+01
-9.903828717048828167e-01  -1.759890942120133417e+00  2.105301884256805867e+00  -1.786107109492733436e+00  -2.026187243516464065e+00  -3.505461983994444086e+00  2.630414605140686035e+01
-9.850803698415946386e-01  -1.787122050919096594e+00  2.140502033602993404e+00  -1.775363133648208525e+00  -2.036344425198489461e+00  -3.501120268664843938e+00  2.635243201255798340e+01
-9.777627100504444613e-01  -1.816489190543610022e+00  2.179152117193606131e+00  -1.763757596149244655e+00  -2.045885643393777542e+00  -3.496617812040781814e+00  2.640695691108703613e+01
-9.694714122157446212e-01  -1.839112079559459545e+00  2.209621670697418327e+00  -1.755190893321806556e+00  -2.051035122140065781e+00  -3.493293219998669485e+00  2.645753097534179688e+01
-9.575531004780826194e-01  -1.858634999742708516e+00  2.236846578633793658e+00  -1.748666306815568561e+00  -2.051975718741854138e+00  -3.490583137630632216e+00  2.650080013275146484e+01
-9.439739604117951544e-01  -1.871930040358821046e+00  2.256340032603706192e+00  -1.745597279984081318e+00  -2.048871152973566367e+00  -3.488832595605845022e+00  2.654646897315979004e+01
-9.233511665708711291e-01  -1.883884636945211355e+00  2.275404665244118885e+00  -1.745350459963493250e+00  -2.040445276000816044e+00  -3.487320100853857685e+00  2.659394693374633789e+01
-8.985775548234213872e-01  -1.891597747960233278e+00  2.289874444265881159e+00  -1.748702070602991654e+00  -2.027377881487391065e+00  -3.486402660322345248e+00  2.664240002632141113e+01
-8.703857838602830910e-01  -1.895522589939195868e+00  2.300230843201580999e+00  -1.755209082844816137e+00  -2.010484025664703189e+00  -3.486014638557482836e+00  2.668484711647033691e+01
-8.445834238897580448e-01  -1.896184980924372709e+00  2.306008284988755985e+00  -1.762712019421453391e+00  -1.993979705884703968e+00  -3.486025608106196216e+00  2.672455811500549316e+01
-8.109587976073209248e-01  -1.894076159795634595e+00  2.309819790375918114e+00  -1.773889396535054175e+00  -1.971440545556754742e+00  -3.486417526999982641e+00  2.677435302734375000e+01
-7.750140306737449691e-01  -1.889129476661497442e+00  2.310599066969793114e+00  -1.787010381810240744e+00  -1.945922325938116870e+00  -3.487169839855383202e+00  2.682472395896911621e+01
-7.438897052777457830e-01  -1.883113305764059220e+00  2.309191419926282407e+00  -1.799161176088304614e+00  -1.922553875027628756e+00  -3.487990081322193348e+00  2.686606693267822266e+01
-7.124523718900466207e-01  -1.875699099748484144e+00  2.306174324621117933e+00  -1.812054015591076706e+00  -1.897816234821766201e+00  -3.489035245629642290e+00  2.690330195426940918e+01
-6.814620062953844482e-01  -1.867259208673497817e+00  2.301832888631956564e+00  -1.825367636805813376e+00  -1.872280692961865611e+00  -3.490201279169978577e+00  2.694340395927429199e+01
-6.457631983626477279e-01  -1.856194491900659216e+00  2.295270496300158669e+00  -1.841569508303861014e+00  -1.841573893483039903e+00  -3.491743260016216155e+00  2.699381899833679199e+01
-6.123814272586471930e-01  -1.844367073519096678e+00  2.287624827438918373e+00  -1.857875773654836138e+00  -1.811567719043340574e+00  -3.493446123128066461e+00  2.703496599197387695e+01
-5.915180097762844369e-01  -1.836037317999484664e+00  2.281947990340231769e+00  -1.868895121757661926e+00  -1.792210520756765568e+00  -3.494619603094104576e+00  2.706717896461486816e+01
-5.670742225990332841e-01  -1.825188624257709336e+00  2.274287498667547425e+00  -1.882743066132288590e+00  -1.768881451036365071e+00  -3.496103263297591468e+00  2.711036491394042969e+01
-5.318567784615586547e-01  -1.807330273539121457e+00  2.261189883343254436e+00  -1.904712318678537741e+00  -1.734143502549939875e+00  -3.498469338111513949e+00  2.717334699630737305e+01
-5.123296014534970411e-01  -1.796216893680209203e+00  2.252797853787006588e+00  -1.917986309037363668e+00  -1.714369633622977673e+00  -3.499904990563649676e+00  2.721191906929016113e+01
-4.980921212621716165e-01  -1.787541365708609220e+00  2.246126966778318135e+00  -1.928180754004014119e+00  -1.699733931830353484e+00  -3.501010497836002600e+00  2.724478793144226074e+01
-4.820142413165466877e-01  -1.777107465060609570e+00  2.237997403205802982e+00  -1.940215741674839123e+00  -1.683049416257328623e+00  -3.502333731367826886e+00  2.728707313537597656e+01
-4.677650034220715014e-01  -1.767270539968484044e+00  2.230227712285101305e+00  -1.951389048936810866e+00  -1.668170191930803625e+00  -3.503567190050578262e+00  2.732384204864501953e+01
-4.552695982912462469e-01  -1.758119441815834350e+00  2.222897924209917164e+00  -1.961715767893462470e+00  -1.654960289153879494e+00  -3.504687428709603481e+00  2.736757802963256836e+01
-4.443792974116593797e-01  -1.749701447387583819e+00  2.216078303179516595e+00  -1.971125922094014271e+00  -1.643354932834816928e+00  -3.505704437239366200e+00  2.740289211273193359e+01
-4.367455726665481208e-01  -1.743527777846895610e+00  2.211023964825240995e+00  -1.977971486520914368e+00  -1.635220482496979599e+00  -3.506434113101029482e+00  2.743743109703063965e+01
-4.278941225557479910e-01  -1.736201133961783327e+00  2.205002501951755178e+00  -1.986056166419176705e+00  -1.625779338406704078e+00  -3.507310831048242150e+00  2.748291993141174316e+01
-3.746927272644775542e-01  -1.678750094209943811e+00  2.153703224465738586e+00  -2.045843577921897527e+00  -1.570641978053851417e+00  -3.516385719642483476e+00  2.829337596893310547e+01
-3.747453290218771826e-01  -1.678813102541777624e+00  2.153758890419775973e+00  -2.045776817820535776e+00  -1.570711151114739579e+00  -3.516333481174658271e+00  2.838577294349670410e+01
-3.694231705267512211e-01  -1.679150235318665807e+00  2.152658238985249994e+00  -2.041087202233561548e+00  -1.562059891334200756e+00  -3.518595252856783873e+00  2.848082304000854492e+01
-3.417004245541379603e-01  -1.680569101892665174e+00  2.145778903687524775e+00  -2.014464974376012130e+00  -1.517900585729812235e+00  -3.528763008889621133e+00  2.855774807929992676e+01
-3.194732652363256875e-01  -1.682937402570079399e+00  2.140898001456124078e+00  -1.990077644016774450e+00  -1.487607894180775325e+00  -3.530401429111158063e+00  2.860763192176818848e+01
-3.067317693045374938e-01  -1.686693652197670090e+00  2.136877664085123030e+00  -1.962500874090075342e+00  -1.468349805404876030e+00  -3.529549520030170751e+00  2.865853095054626465e+01
-3.135027211636405298e-01  -1.693251959948206320e+00  2.131792516124761505e+00  -1.921390852584801578e+00  -1.463807981632101018e+00  -3.530918501838396395e+00  2.871630001068115234e+01
-3.371493670162770684e-01  -1.699643411134942994e+00  2.126051526230813948e+00  -1.881565685442176949e+00  -1.474319028151851896e+00  -3.535965337458833346e+00  2.877423810958862305e+01
-3.830700889051783520e-01  -1.707743467762592005e+00  2.116153366950250359e+00  -1.826751358478987619e+00  -1.501819539998791697e+00  -3.547260692407459004e+00  2.884993505477905273e+01
-4.478249929729525292e-01  -1.715034564257035044e+00  2.101435411472465375e+00  -1.765330034523625358e+00  -1.548699169972742595e+00  -3.564414314621448199e+00  2.892843914031982422e+01
-5.202578175503145275e-01  -1.715716159198997559e+00  2.078406605284651931e+00  -1.718939259148024590e+00  -1.594118199643405731e+00  -3.582981312459248002e+00  2.900197601318359375e+01
-5.702248493711419286e-01  -1.711539349195934534e+00  2.058622819316415331e+00  -1.691735224446199837e+00  -1.623725907401567525e+00  -3.596885682135500417e+00  2.904971194267272949e+01
-6.273939694879935303e-01  -1.702355313752271115e+00  2.033024679886526798e+00  -1.661243985996649464e+00  -1.659724173066841502e+00  -3.614557162114650168e+00  2.910240197181701660e+01
-6.777161410443568457e-01  -1.691888125025033496e+00  2.009621002544164980e+00  -1.635868541420199662e+00  -1.693280366858214592e+00  -3.630709937410863120e+00  2.915336894989013672e+01
-7.392575792603572893e-01  -1.677743501990246244e+00  1.981367479622775818e+00  -1.607231043612087795e+00  -1.735318186936552820e+00  -3.650250200819950663e+00  2.920703291893005371e+01
-7.934848393574327474e-01  -1.664022423743858781e+00  1.956443669098462124e+00  -1.584003493623324488e+00  -1.772964108323265009e+00  -3.667402544027464018e+00  2.925529503822326660e+01
-8.561860474794826814e-01  -1.645578075901434012e+00  1.925954336530164568e+00  -1.559268667095275340e+00  -1.815585933653373729e+00  -3.687619283095639133e+00  2.931215190887451172e+01
-8.987056342842976164e-01  -1.630034421215084350e+00  1.902428388251141911e+00  -1.543730352494199209e+00  -1.842814165100611135e+00  -3.702221466744013867e+00  2.935299205780029297e+01
-9.454806242465458865e-01  -1.607739554424735040e+00  1.871076958090863940e+00  -1.527736187233347920e+00  -1.870225778627609969e+00  -3.720094795034253110e+00  2.939538598060607910e+01
-9.737138086628576161e-01  -1.590345957549210709e+00  1.847910774669927036e+00  -1.518734080233435257e+00  -1.885158524164733507e+00  -3.732257863806214715e+00  2.943396711349487305e+01
-1.011130382199542765e+00  -1.560673200911122827e+00  1.810041883228876713e+00  -1.508025228626959979e+00  -1.902637447674070614e+00  -3.750838646639090612e+00  2.947503805160522461e+01
-1.037633561423717765e+00  -1.533042977392997663e+00  1.776037335912876713e+00  -1.501861697134110329e+00  -1.912949698126194420e+00  -3.766513754029839234e+00  2.951507592201232910e+01
-1.059981868481379763e+00  -1.503378819849584325e+00  1.740418613791153035e+00  -1.498201215210860582e+00  -1.919645039117106933e+00  -3.782179599821189342e+00  2.955623102188110352e+01
-1.078441774942717757e+00  -1.472270910696547475e+00  1.703783539306215289e+00  -1.496904288741122357e+00  -1.922942955641195439e+00  -3.797677994670440427e+00  2.960155797004699707e+01
-1.095908477978767337e+00  -1.433626795071623938e+00  1.659159798057328494e+00  -1.498283224289599147e+00  -1.922746828424244825e+00  -3.816041828404777903e+00  2.964541602134704590e+01
-1.106845832268970042e+00  -1.400960656088262368e+00  1.621963004339741055e+00  -1.501629747501137757e+00  -1.919516353104144812e+00  -3.831008272292091732e+00  2.968850207328796387e+01
-1.117201464183956716e+00  -1.355320654548324733e+00  1.570870573844203477e+00  -1.509057108253902157e+00  -1.910776461548069349e+00  -3.851246618631419594e+00  2.974041199684143066e+01
-1.121962714832994479e+00  -1.317189426716374179e+00  1.528826995927865084e+00  -1.517445081969651000e+00  -1.900012839410918808e+00  -3.867716153839580784e+00  2.979017710685729980e+01
-1.123356174400932161e+00  -1.286458784360574370e+00  1.495339278825852602e+00  -1.525549620757150393e+00  -1.889232308097531288e+00  -3.880781153473630951e+00  2.983343291282653809e+01
-1.122320540298269442e+00  -1.250949447602160980e+00  1.457044297281240297e+00  -1.536385759792015193e+00  -1.874476278137944263e+00  -3.895706199310730256e+00  2.987753701210021973e+01
-1.119416044254443854e+00  -1.222393103464049169e+00  1.426544714444053064e+00  -1.546256110529828476e+00  -1.860802264909969139e+00  -3.907612144505595353e+00  2.991515898704528809e+01
-1.114967648179693072e+00  -1.194976077488162147e+00  1.397499670990841381e+00  -1.556612340660517901e+00  -1.846169631560906410e+00  -3.919006349056918026e+00  2.995666408538818359e+01
-1.109289178939818932e+00  -1.168930690398724437e+00  1.370145348633092119e+00  -1.567183395818616987e+00  -1.830937136287343669e+00  -3.929791546255980705e+00  2.999768209457397461e+01
-1.104039128671418624e+00  -1.149200998364637627e+00  1.349569149294129744e+00  -1.575699234959778039e+00  -1.818592906271681464e+00  -3.937954811877419914e+00  3.003217411041259766e+01
-1.095272850969806200e+00  -1.121565701395099701e+00  1.320989232006342995e+00  -1.588394682712944928e+00  -1.800057566548218801e+00  -3.949395035115582431e+00  3.008267903327941895e+01
-1.085543664945832099e+00  -1.095644832509236721e+00  1.294403438581242405e+00  -1.601201114812582205e+00  -1.781492929053281493e+00  -3.960115049434730139e+00  3.012543392181396484e+01
-1.078549599936656556e+00  -1.078928288388961931e+00  1.277372074896718779e+00  -1.609919900905444123e+00  -1.768970690026781867e+00  -3.967004936405555071e+00  3.016045808792114258e+01
-1.069438076968606488e+00  -1.058618298808648994e+00  1.256783724396544066e+00  -1.620899645220944763e+00  -1.753314406469931086e+00  -3.975331858053404943e+00  3.019572091102600098e+01
-1.062021075132144610e+00  -1.042915823525098595e+00  1.240936560151481238e+00  -1.629694331395143081e+00  -1.740846484918030512e+00  -3.981742889451290068e+00  3.023283505439758301e+01
-1.054585456457957093e+00  -1.027805319408198415e+00  1.225742279217805653e+00  -1.638429986265018456e+00  -1.728544036041530063e+00  -3.987907439544414956e+00  3.026585698127746582e+01
-1.045335677072832148e+00  -1.009880412028422825e+00  1.207795314214368254e+00  -1.649156376308393845e+00  -1.713516327374918546e+00  -3.995228582509003701e+00  3.029949903488159180e+01
-1.038051505218994919e+00  -9.964651850477483919e-01  1.194393964759005833e+00  -1.657468954857105103e+00  -1.701947830256231420e+00  -4.000715595528202329e+00  3.033414793014526367e+01
-1.030964031801869574e+00  -9.839724601035735319e-01  1.181949528494806501e+00  -1.665445403879978414e+00  -1.690966371674505808e+00  -4.005843865093877909e+00  3.036804294586181641e+01
-1.022426114507144490e+00  -9.696766411948738451e-01  1.167729488136632021e+00  -1.674875464769467470e+00  -1.678147891071518849e+00  -4.011728282785362865e+00  3.040630793571472168e+01
-1.015800734915332626e+00  -9.592335730442984598e-01  1.157379443396719054e+00  -1.681977300781094087e+00  -1.668605325802406725e+00  -4.016019340382488423e+00  3.044073605537414551e+01
-1.006197798977594537e+00  -9.451738396398861042e-01  1.143467798015419312e+00  -1.691908612791406696e+00  -1.655463263901943982e+00  -4.021795961932614460e+00  3.048413610458374023e+01
-1.000071684216469414e+00  -9.368115800673733062e-01  1.135201540740994552e+00  -1.698040216289509630e+00  -1.647505904166732371e+00  -4.025220050427900986e+00  3.052241611480712891e+01
-9.926914966567199627e-01  -9.271254899030729746e-01  1.125633588429931997e+00  -1.705316205883885772e+00  -1.638245575746045013e+00  -4.029182566660212572e+00  3.055999612808227539e+01
-9.255338506681987099e-01  -8.550603899305535549e-01  1.054148949625431486e+00  -1.770026304938132178e+00  -1.570629149840433669e+00  -4.067274193695424422e+00  3.137843394279479980e+01
-9.255994158581977160e-01  -8.551369250171525493e-01  1.054236729695144037e+00  -1.769997189781518543e+00  -1.570712295087494326e+00  -4.067247808624300021e+00  3.146018290519714355e+01
-9.284440708030974321e-01  -8.566776474535231500e-01  1.054905001306693846e+00  -1.773424469190146624e+00  -1.573863549401973927e+00  -4.064856351384062094e+00  3.154076004028320312e+01
-9.390915755509219309e-01  -8.656004349007755394e-01  1.060339709214356496e+00  -1.789895696288596127e+00  -1.586432953276872837e+00  -4.053389870906775272e+00  3.160922312736511230e+01
-9.409398196322102947e-01  -8.825690464049884554e-01  1.074342056482056718e+00  -1.808900644377269273e+00  -1.591531001184986138e+00  -4.039612246714000321e+00  3.165929698944091797e+01
-9.375419804658227108e-01  -9.077974976330676071e-01  1.097159056285044398e+00  -1.830398941316342842e+00  -1.597324664582885134e+00  -4.023751444096888008e+00  3.170629811286926270e+01
-9.336755098829350175e-01  -9.377458738642907576e-01  1.125515107212782029e+00  -1.852907540347590754e+00  -1.612041201323535233e+00  -4.007086151200574875e+00  3.175252199172973633e+01
-9.305629109177218083e-01  -9.651989467372263931e-01  1.152433752859469918e+00  -1.871753115591966221e+00  -1.630441274353938041e+00  -3.992743866072862247e+00  3.179259109497070312e+01
-9.281103833342712051e-01  -1.013223344433816564e+00  1.202147139911232010e+00  -1.899545979372865290e+00  -1.664632779943136853e+00  -3.969223491830812467e+00  3.185475993156433105e+01
-9.318940889499955915e-01  -1.058098373459190000e+00  1.252227406983182245e+00  -1.920593260805553371e+00  -1.694621388736710088e+00  -3.948504319797562889e+00  3.191009092330932617e+01
-9.457161611431850190e-01  -1.121488002656578331e+00  1.329857264740794465e+00  -1.950583029085894538e+00  -1.736123917577046427e+00  -3.919932617326563395e+00  3.198775410652160645e+01
-9.529449314685223271e-01  -1.155975106966415922e+00  1.372726010920819473e+00  -1.963396438642995179e+00  -1.755245451693545178e+00  -3.906111758782775389e+00  3.203469109535217285e+01
-9.616827659107372028e-01  -1.208974072487492890e+00  1.437319979923156632e+00  -1.974830373593380983e+00  -1.779642056102495928e+00  -3.887381835518750162e+00  3.208903503417968750e+01
-9.698689207663111489e-01  -1.273865653350032545e+00  1.514937037492406713e+00  -1.978379781869730181e+00  -1.803893806024422730e+00  -3.867063391375124670e+00  3.215174007415771484e+01
-9.765745771959863930e-01  -1.340387813981557485e+00  1.593660559091044204e+00  -1.974492740364743426e+00  -1.824250657453799107e+00  -3.848232039515175007e+00  3.221622490882873535e+01
-9.813958087602472347e-01  -1.406290837406018568e+00  1.671287579090831699e+00  -1.965787055613556156e+00  -1.840299099793135440e+00  -3.831173033270425243e+00  3.227725505828857422e+01
-9.832479087625589642e-01  -1.454536874096870491e+00  1.728023111666606715e+00  -1.957288140824843481e+00  -1.849548829394457528e+00  -3.819579964890388091e+00  3.232635998725891113e+01
-9.832042678584969053e-01  -1.501492345354392910e+00  1.783218606409919138e+00  -1.947738325281717309e+00  -1.857024895566482314e+00  -3.808919020906688324e+00  3.237362813949584961e+01
-9.812953015111594013e-01  -1.547176283211769032e+00  1.836880189709469535e+00  -1.937459868115792183e+00  -1.863227654186395910e+00  -3.799043062802863524e+00  3.241977405548095703e+01
-9.778921242184592799e-01  -1.591353589818393033e+00  1.888801442550969600e+00  -1.926794238700405337e+00  -1.868401656644646636e+00  -3.789945198166575935e+00  3.247081208229064941e+01
-9.699689787633722915e-01  -1.661001222348915007e+00  1.970900116597831930e+00  -1.908902051549992152e+00  -1.874652167715609608e+00  -3.776499306613213314e+00  3.255249214172363281e+01
-9.627371404542843791e-01  -1.706399393375065188e+00  2.024844146343744100e+00  -1.896767739857517121e+00  -1.876685139194293583e+00  -3.768341355426225281e+00  3.260671901702880859e+01
-9.552486926805849876e-01  -1.742312855817790052e+00  2.067741857542444439e+00  -1.887281106575503742e+00  -1.876435897428043731e+00  -3.762215841834650298e+00  3.265870594978332520e+01
-9.458113363284601505e-01  -1.774773404489465634e+00  2.106767231493969827e+00  -1.879276451062553477e+00  -1.873627406955181485e+00  -3.756939333934200764e+00  3.270306491851806641e+01
-9.333195328179471062e-01  -1.803375895459026879e+00  2.141632420464894881e+00  -1.873461745181153049e+00  -1.867214816785193854e+00  -3.752532803577388609e+00  3.274670100212097168e+01
-9.178351277445591094e-01  -1.827982602675191970e+00  2.172210282109519941e+00  -1.870175195978378113e+00  -1.857238158617844803e+00  -3.748883724779363824e+00  3.279624509811401367e+01
-8.997783316628975570e-01  -1.848877637087769088e+00  2.198811788155845104e+00  -1.869161706343078322e+00  -1.844478639758833083e+00  -3.745861451177401769e+00  3.284728598594665527e+01
-8.757195948233089666e-01  -1.869059419764532493e+00  2.225317924693845040e+00  -1.870491474728741110e+00  -1.826873675495032323e+00  -3.742994179051277293e+00  3.289897203445434570e+01
-8.528116335954836202e-01  -1.883108605144833803e+00  2.244454587331758066e+00  -1.873653793941915779e+00  -1.809660780394844792e+00  -3.741032862531902037e+00  3.294673490524291992e+01
-8.283262739052847934e-01  -1.894462120387109039e+00  2.260609666596445688e+00  -1.878305536872829862e+00  -1.790445051429681911e+00  -3.739484545622327349e+00  3.299664592742919922e+01
-8.073041983973849867e-01  -1.902137420475522589e+00  2.272082832052533252e+00  -1.883097796603992791e+00  -1.773143208743794830e+00  -3.738459922598639906e+00  3.304210996627807617e+01
-7.821934901599600920e-01  -1.909495167375409252e+00  2.283717127997757945e+00  -1.889694283205507475e+00  -1.751656419345308358e+00  -3.737506835125090188e+00  3.308606791496276855e+01
-7.619779536563475730e-01  -1.914275113529070538e+00  2.291843356823358047e+00  -1.895676730283394562e+00  -1.733734994630284021e+00  -3.736896768578252370e+00  3.313017702102661133e+01
-7.392303348705597799e-01  -1.918622839845586014e+00  2.299938559778732738e+00  -1.903099984368932240e+00  -1.712988797224096693e+00  -3.736330947880539544e+00  3.317615413665771484e+01
-7.185926130003856827e-01  -1.921706154324036575e+00  2.306414917246532692e+00  -1.910504012660981132e+00  -1.693642770574357748e+00  -3.735919416362138978e+00  3.321961593627929688e+01
-7.002876310671730664e-01  -1.923874588846663514e+00  2.311565758320995645e+00  -1.917705811285195239e+00  -1.676110295816795492e+00  -3.735600546908688369e+00  3.326919794082641602e+01
-6.868302051002359576e-01  -1.925194124267401108e+00  2.315038868400495442e+00  -1.923405505834184126e+00  -1.663004821005607425e+00  -3.735438342392150890e+00  3.330978012084960938e+01
-6.727009117080102740e-01  -1.926329343973851138e+00  2.318407912799832715e+00  -1.929820169982598088e+00  -1.648990544976493666e+00  -3.735371544761525442e+00  3.336172008514404297e+01
-6.621371799951107917e-01  -1.927040135670626597e+00  2.320790252963633282e+00  -1.934863623651221332e+00  -1.638432711123643415e+00  -3.735437398845752099e+00  3.339697813987731934e+01
-5.954522816042331357e-01  -1.909461870109051773e+00  2.323210043797807600e+00  -1.984630212401486737e+00  -1.570607692787264753e+00  -3.737154218656085547e+00  3.422110009193420410e+01
-5.954950138461825304e-01  -1.909480477002091448e+00  2.323215743664445387e+00  -1.984610525569360462e+00  -1.570664868967664773e+00  -3.737135436572109892e+00  3.428188991546630859e+01
-5.957886722499843302e-01  -1.909379148420303096e+00  2.322982467614107094e+00  -1.984364983398421600e+00  -1.570923438562227048e+00  -3.737180271936122011e+00  3.433038210868835449e+01
-6.002356587205710525e-01  -1.907574049183840437e+00  2.318859011478032528e+00  -1.980461410627558649e+00  -1.574619959224289545e+00  -3.737768696750920938e+00  3.437514305114746094e+01
-6.119363704957461181e-01  -1.903033934458139953e+00  2.308438150310207604e+00  -1.970062868400183298e+00  -1.584293381401554512e+00  -3.739443583219980383e+00  3.442155313491821289e+01
-6.269110229746850393e-01  -1.897554815007602258e+00  2.295696089674457596e+00  -1.956761507832483815e+00  -1.596653123799029572e+00  -3.741451878608177850e+00  3.446633005142211914e+01
-6.498131150374977238e-01  -1.889335455107278072e+00  2.276688496447608401e+00  -1.936524119733658900e+00  -1.615531004399706205e+00  -3.744292718995190228e+00  3.451087403297424316e+01
-6.874839314522844802e-01  -1.875159856271891634e+00  2.245220928368047097e+00  -1.903954774995597177e+00  -1.646488864038442301e+00  -3.748890874622514247e+00  3.457131600379943848e+01
-7.200235986443317415e-01  -1.861675869012828777e+00  2.216665919913848981e+00  -1.876443739415821987e+00  -1.673289345671353345e+00  -3.753038820134852571e+00  3.462283992767333984e+01
-7.491653182776278896e-01  -1.848275277019628682e+00  2.189369581204871906e+00  -1.852205370619697256e+00  -1.697509222407777685e+00  -3.756958387532268517e+00  3.466693711280822754e+01
-8.051922353085902984e-01  -1.818075335222028244e+00  2.131602541390799743e+00  -1.807512624507423560e+00  -1.744481052749730310e+00  -3.764915791962920366e+00  3.473928403854370117e+01
-8.445113531643038129e-01  -1.792619440472978276e+00  2.086485853594410855e+00  -1.778406638370435999e+00  -1.777126949879583862e+00  -3.770759954627045829e+00  3.478508400917053223e+01
-8.839278183934204947e-01  -1.763081673377453029e+00  2.037000937753823848e+00  -1.750975846315173889e+00  -1.808711652834332995e+00  -3.776877298624945922e+00  3.482825613021850586e+01
-9.159244783031574855e-01  -1.735736833283253233e+00  1.993188029724873189e+00  -1.729740608344473962e+00  -1.833183727290933263e+00  -3.782156276929221406e+00  3.486890602111816406e+01
-9.405464111837442687e-01  -1.712171919443052914e+00  1.956744675786900700e+00  -1.713862409002922860e+00  -1.851004397708685190e+00  -3.786516239872646850e+00  3.490396213531494141e+01
-9.696904635968071062e-01  -1.680705193984578294e+00  1.909683521799053096e+00  -1.695386748580323122e+00  -1.870643755015247933e+00  -3.792154100128009020e+00  3.494623804092407227e+01
-1.001622550179540383e+00  -1.640183189967977739e+00  1.851225015057488932e+00  -1.675280795807660539e+00  -1.889891541369747685e+00  -3.799201108902158452e+00  3.498732805252075195e+01
-1.025311640733090002e+00  -1.603866814300801913e+00  1.800626260841204029e+00  -1.660243945747411409e+00  -1.902171496740086454e+00  -3.805349099192557816e+00  3.502742910385131836e+01
-1.046082065734852407e+00  -1.565262856542739556e+00  1.748427122942956657e+00  -1.646607770867349885e+00  -1.911075301437223928e+00  -3.811771335466421107e+00  3.506688094139099121e+01
-1.063731640802002332e+00  -1.524716627871739227e+00  1.695015521427219340e+00  -1.634378196977062991e+00  -1.916685266092073903e+00  -3.818441149582859850e+00  3.510732197761535645e+01
-1.078154988034555117e+00  -1.482652001687801757e+00  1.640907002806683224e+00  -1.623584147866375282e+00  -1.919109000941508825e+00  -3.825346507525559048e+00  3.515093493461608887e+01
-1.089365667851266650e+00  -1.439648608716613154e+00  1.586694996816707004e+00  -1.614252490121150352e+00  -1.918576540834333599e+00  -3.832444951553656054e+00  3.519024395942687988e+01
-1.097443707734640839e+00  -1.396349037442051966e+00  1.533113019960319789e+00  -1.606350777223937598e+00  -1.915363930290959082e+00  -3.839672655162917891e+00  3.522922801971435547e+01
-1.102596639898315800e+00  -1.353283876644152173e+00  1.480821059725957234e+00  -1.599787177277763206e+00  -1.909757475121732995e+00  -3.846943691922456665e+00  3.527135896682739258e+01
-1.105082557035418134e+00  -1.311050927211427464e+00  1.430331308514257493e+00  -1.594460141818487386e+00  -1.902078124707958118e+00  -3.854190036580106948e+00  3.531387996673583984e+01
-1.104945394460606245e+00  -1.262024826087277951e+00  1.372667603684195825e+00  -1.589555978531675073e+00  -1.890656108692520654e+00  -3.862795395458142877e+00  3.535753297805786133e+01
-1.101818909953919956e+00  -1.215163683065664912e+00  1.318460996206158420e+00  -1.586180212713163229e+00  -1.877342807419920767e+00  -3.871241314779428677e+00  3.540355801582336426e+01
-1.096193254325720012e+00  -1.170784109176528531e+00  1.267955598986008070e+00  -1.584134116040063489e+00  -1.862613341265971556e+00  -3.879425451218377674e+00  3.545355296134948730e+01
-1.089909116596357030e+00  -1.135727414679653435e+00  1.228643789995046198e+00  -1.583281939030451113e+00  -1.849480209518184814e+00  -3.886032774887265617e+00  3.549193096160888672e+01
-1.083934368280044858e+00  -1.108810941771902314e+00  1.198873729117820197e+00  -1.583105396533875719e+00  -1.838447124364122942e+00  -3.891213621946253198e+00  3.552926206588745117e+01
-1.077197952299257189e+00  -1.082871010144690338e+00  1.170509304049994981e+00  -1.583338677894399638e+00  -1.827027303830196736e+00  -3.896300219868802373e+00  3.556187796592712402e+01
-1.067957055962544644e+00  -1.051992532349965259e+00  1.137147181608257895e+00  -1.584185074143338312e+00  -1.812480520015784968e+00  -3.902494290754255246e+00  3.560009598731994629e+01
-1.058110425254007225e+00  -1.023034083961801954e+00  1.106189880015308269e+00  -1.585588526292339040e+00  -1.797904078280610385e+00  -3.908496719887203596e+00  3.563612508773803711e+01
-1.050026986404906992e+00  -1.001410044328351567e+00  1.083286410331357530e+00  -1.586968279202814358e+00  -1.786401847202609972e+00  -3.913111203750403888e+00  3.567004704475402832e+01
-1.039714714749407243e+00  -9.761005141136767094e-01  1.056664201966794892e+00  -1.589015128759301732e+00  -1.772246640337122869e+00  -3.918665687417227872e+00  3.570769500732421875e+01
-1.031199275286770245e+00  -9.567490517755885548e-01  1.036557877825520002e+00  -1.590951198404127354e+00  -1.761002775267773046e+00  -3.923024856615928257e+00  3.574042201042175293e+01
-1.022489352576869237e+00  -9.380911263464764005e-01  1.017344881060306960e+00  -1.593116156374801307e+00  -1.749847046311447940e+00  -3.927325962057405917e+00  3.577547812461853027e+01
-1.013623903521006397e+00  -9.200722554774518613e-01  9.989403067972828509e-01  -1.595476796674489606e+00  -1.738750013182410292e+00  -3.931572078259268466e+00  3.580694007873535156e+01
-1.004708854334494639e+00  -9.027489140464268758e-01  9.813756644283957442e-01  -1.597970588389266311e+00  -1.727817890908335485e+00  -3.935736918519779692e+00  3.584014701843261719e+01
-9.958679027979568943e-01  -8.861847998220762079e-01  9.647129817375708072e-01  -1.600556511796430215e+00  -1.717123450840622567e+00  -3.939781511010728821e+00  3.587318801879882812e+01
-9.871893778965690203e-01  -8.705022467757137505e-01  9.490305367551954419e-01  -1.603190140138742947e+00  -1.706746192800709494e+00  -3.943672273839279541e+00  3.590040111541748047e+01
