fgashi/en/graphics/results/traj_results/case1/target_pozita_q1.txt
q1     q2   q3   q4  q5   q6   t1
-1.039966677170962583e+00  -1.135240655705659130e+00  1.545155514022187981e+00  -2.097060233617099811e+00  -1.570045191072087398e+00  -3.570278084149519859e+00  0.000000000000000000e+00
-1.039973992840002026e+00  -1.135237568790596896e+00  1.545151483756785904e+00  -2.097071158205523034e+00  -1.570057098972373666e+00  -3.570271790073494600e+00  7.762694358825683594e-02
-1.043231323627452412e+00  -1.136998593965088844e+00  1.543328700268211229e+00  -2.099380675028671206e+00  -1.576543566706710919e+00  -3.568967951625920065e+00  1.619551181793212891e-01
-1.058538905975130007e+00  -1.147819441489289716e+00  1.535018364393661905e+00  -2.111256942936597270e+00  -1.608582260884688253e+00  -3.561252726680457670e+00  2.388510704040527344e-01
-1.068432447463894874e+00  -1.169972343487730271e+00  1.538777879365587076e+00  -2.120468029141296284e+00  -1.630205075216592192e+00  -3.547877412534045316e+00  3.064451217651367188e-01
-1.067965939891569072e+00  -1.191289596024343922e+00  1.553313238564699494e+00  -2.126574489989033978e+00  -1.635170935515713353e+00  -3.536320313730520581e+00  3.609459400177001953e-01
-1.063506218080230603e+00  -1.210636406630207773e+00  1.569539221142999708e+00  -2.128857754746471542e+00  -1.641769176451152390e+00  -3.526105721685058203e+00  4.079871177673339844e-01
-1.053138519165268683e+00  -1.233919897825348500e+00  1.589764106293049428e+00  -2.124646568945234293e+00  -1.659089865557550780e+00  -3.513713099255707739e+00  4.644799232482910156e-01
-1.040798933148480820e+00  -1.254848646684362024e+00  1.608798663107524396e+00  -2.116011471311171732e+00  -1.682210999052102807e+00  -3.502978482576970531e+00  5.167679786682128906e-01
-1.022400666979767614e+00  -1.283834747535276932e+00  1.636628901634223920e+00  -2.100035625270596285e+00  -1.717346280894354038e+00  -3.488849098078520505e+00  5.760729312896728516e-01
-1.005548327443568368e+00  -1.309201587137490463e+00  1.662093620874948829e+00  -2.083182745852596440e+00  -1.747540184730492996e+00  -3.476818340291445431e+00  6.309270858764648438e-01
-9.921865109924548065e-01  -1.327167508416341235e+00  1.680746214186398690e+00  -2.069454744617909014e+00  -1.768827386095006560e+00  -3.468477062150832957e+00  6.727991104125976562e-01
-9.737280850342173721e-01  -1.348525814902666653e+00  1.703642798571523898e+00  -2.051225510377822303e+00  -1.794211185639117190e+00  -3.458720368238358045e+00  7.244861125946044922e-01
-9.527879583237170991e-01  -1.369513305764868960e+00  1.726843572595598841e+00  -2.031533958121997330e+00  -1.818976521849808847e+00  -3.449333028526770928e+00  7.697420120239257812e-01
-9.338533776718804802e-01  -1.386483317089830081e+00  1.746064053979161201e+00  -2.014477965426921813e+00  -1.838596434137647506e+00  -3.441852052659820416e+00  8.128979206085205078e-01
-9.099139746660673822e-01  -1.405942689985840488e+00  1.768630169576623778e+00  -1.993683441573847581e+00  -1.860238178047387336e+00  -3.433292812769457303e+00  8.553919792175292969e-01
-8.811003527815168823e-01  -1.427021891449964386e+00  1.793671746576623649e+00  -1.969675760814397769e+00  -1.882009740337203141e+00  -3.423939588873219364e+00  9.130499362945556641e-01
-8.602458951308031843e-01  -1.440838266691015335e+00  1.810482350885386005e+00  -1.953039066935010837e+00  -1.894922136249753919e+00  -3.417766150564407468e+00  9.525921344757080078e-01
-8.352249005419034589e-01  -1.455867609661140705e+00  1.829224176109873534e+00  -1.933945110398424205e+00  -1.907319198090268841e+00  -3.410930739509057563e+00  1.004529953002929688e+00
-8.145273108677164586e-01  -1.466991841302766275e+00  1.843536589736485931e+00  -1.918963003383936439e+00  -1.915075962151082223e+00  -3.405646137287257957e+00  1.041439056396484375e+00
-7.940012962710545352e-01  -1.476832518129779004e+00  1.856600763025860745e+00  -1.904946699668923493e+00  -1.920557623559956184e+00  -3.400744076822207695e+00  1.078649044036865234e+00
-7.735706318996671271e-01  -1.485354731124118643e+00  1.868276111119460792e+00  -1.892088562396311069e+00  -1.923839545793521566e+00  -3.396263145776682091e+00  1.122757911682128906e+00
-7.490876103201538072e-01  -1.493669360194056495e+00  1.880372980816660933e+00  -1.878319738289286889e+00  -1.924948162019345155e+00  -3.391457376928720180e+00  1.172131061553955078e+00
-7.242812316369411363e-01  -1.499764389555942046e+00  1.890132920430748431e+00  -1.866674533267024927e+00  -1.922891706103195375e+00  -3.387255700834957306e+00  1.216690063476562500e+00
-7.021692030593280620e-01  -1.502881774618956001e+00  1.896298524429335997e+00  -1.858834500801300749e+00  -1.918345659993781815e+00  -3.384191990393094596e+00  1.257326126098632812e+00
-6.777582761132148192e-01  -1.503946095637706648e+00  1.900403651024036078e+00  -1.852990843881375582e+00  -1.911036132136719523e+00  -3.381520131684094377e+00  1.299081087112426758e+00
-6.512917743540524995e-01  -1.502763582600319836e+00  1.902227860837836237e+00  -1.849429232932251033e+00  -1.901327003001719973e+00  -3.379234326636181951e+00  1.336597919464111328e+00
-6.234284312604394529e-01  -1.499453517199244246e+00  1.901856126187112750e+00  -1.848046514396964213e+00  -1.889731566069169588e+00  -3.377309497662531967e+00  1.374490022659301758e+00
-5.949332840869008265e-01  -1.494363179200494329e+00  1.899586248164576219e+00  -1.848528272234037928e+00  -1.876713790461844944e+00  -3.375721966687469600e+00  1.415636062622070312e+00
-5.665616735063254694e-01  -1.487978667870420324e+00  1.895785466234125138e+00  -1.850552384292337038e+00  -1.862620277716144912e+00  -3.374432481166256714e+00  1.458997964859008789e+00
-5.388350909055388271e-01  -1.480637924598370070e+00  1.890790256815250814e+00  -1.853806901008525188e+00  -1.847609261197558084e+00  -3.373399367530206749e+00  1.501100063323974609e+00
-5.068615438178136756e-01  -1.470882980684707242e+00  1.883536746622676006e+00  -1.859023466564648785e+00  -1.828437029910958245e+00  -3.372456951061219232e+00  1.548444032669067383e+00
-4.760871077742896418e-01  -1.459859176331344877e+00  1.874933731708324558e+00  -1.865617491393233962e+00  -1.807520132976395466e+00  -3.371790106305044166e+00  1.593266963958740234e+00
-4.465076298474146554e-01  -1.447433150590619277e+00  1.864926560506486197e+00  -1.873586112943998572e+00  -1.784954337673419822e+00  -3.371362331663493972e+00  1.642514944076538086e+00
-4.231080059836020979e-01  -1.436210435560369980e+00  1.855649341471959701e+00  -1.881113840289437178e+00  -1.765457104575283154e+00  -3.371125790305506964e+00  1.680409908294677734e+00
-4.011287291171266034e-01  -1.424491571489794772e+00  1.845793094178846516e+00  -1.889234426995665572e+00  -1.745929593055897122e+00  -3.370997583394857333e+00  1.724509954452514648e+00
-3.808975785512895840e-01  -1.412696919127608197e+00  1.835699905640307605e+00  -1.897694186749816936e+00  -1.726945581012998332e+00  -3.370942066102156964e+00  1.761847019195556641e+00
-3.591263552895904709e-01  -1.398885815564957724e+00  1.823660805177272692e+00  -1.907902504413954148e+00  -1.705507452000898816e+00  -3.370957230288430750e+00  1.807368993759155273e+00
-3.461570650930774207e-01  -1.390085454560032296e+00  1.815920566838485684e+00  -1.914545139527216833e+00  -1.692302375771461698e+00  -3.371013859839802507e+00  1.843822002410888672e+00
-3.317196470741903269e-01  -1.379705777093921171e+00  1.806707420522188912e+00  -1.922547764077165766e+00  -1.677193772094875079e+00  -3.371132317673039225e+00  1.879075050354003906e+00
-3.214635515491286455e-01  -1.371910208462771230e+00  1.799756263985724303e+00  -1.928661791524465485e+00  -1.666275368863375128e+00  -3.371239566036877022e+00  1.914835929870605469e+00
-3.144988071605032687e-01  -1.366376605266508726e+00  1.794797317186448637e+00  -1.933055530801329525e+00  -1.658750833090749666e+00  -3.371328616087403418e+00  1.939223051071166992e+00
-3.061164048706910279e-01  -1.359489122884707690e+00  1.788577729568686436e+00  -1.938595880185578935e+00  -1.649575423438311539e+00  -3.371439834077463615e+00  1.970659971237182617e+00
-2.965975434760403928e-01  -1.351464266749644594e+00  1.781277808734737178e+00  -1.945118500983941345e+00  -1.639091507451724716e+00  -3.371576310317525582e+00  2.008872032165527344e+00
-2.337961531921877167e-01  -1.285445390621347883e+00  1.718723148990571659e+00  -2.004206781547825500e+00  -1.570645002621365194e+00  -3.375547586242706011e+00  2.819404125213623047e+00
-2.338506072334425312e-01  -1.285494535285509166e+00  1.718790979999934354e+00  -2.004132114687465105e+00  -1.570733172472163375e+00  -3.375529503136119214e+00  2.889881134033203125e+00
-2.324339846819922784e-01  -1.287109102068210831e+00  1.720424114242296909e+00  -2.002327398688226623e+00  -1.566461586384274796e+00  -3.376907818014146301e+00  2.972275972366333008e+00
-2.259536526745424823e-01  -1.298977363221609949e+00  1.732429852564159045e+00  -1.989202094209988836e+00  -1.540081051259663880e+00  -3.387454534105788895e+00  3.047269105911254883e+00
-2.387118937252772355e-01  -1.325328022871932632e+00  1.758583274921846407e+00  -1.960982641074850541e+00  -1.521658810411413931e+00  -3.409781563276364835e+00  3.124273061752319336e+00
-2.521268417801145745e-01  -1.347856865929720982e+00  1.780718076525596327e+00  -1.937763335575976242e+00  -1.523324495081226360e+00  -3.428704028003091153e+00  3.176687002182006836e+00
-2.667759019044542157e-01  -1.372026532628748186e+00  1.804454067904633696e+00  -1.913356027499350631e+00  -1.533246707708626033e+00  -3.448698770835214589e+00  3.234429121017456055e+00
-2.942379190631321251e-01  -1.405779873055974960e+00  1.837594106000896232e+00  -1.882290378187613911e+00  -1.556477086885212913e+00  -3.475771162959087945e+00  3.307126045227050781e+00
-3.448555646454813939e-01  -1.454684261159016501e+00  1.884751246070970998e+00  -1.842503718302638482e+00  -1.609256656063548618e+00  -3.514223914745075561e+00  3.400244951248168945e+00
-3.827537073579225790e-01  -1.491560009684739896e+00  1.917396695514395955e+00  -1.814949957885801268e+00  -1.662588808147273056e+00  -3.543519054778375477e+00  3.472902059555053711e+00
-4.105836848250241644e-01  -1.510620491382240971e+00  1.933107310814970781e+00  -1.801989635719989380e+00  -1.689972084138208430e+00  -3.559746631529165484e+00  3.517270088195800781e+00
-4.586069572171886932e-01  -1.534927891852877480e+00  1.952713420010183221e+00  -1.785647693840927808e+00  -1.725305982816095707e+00  -3.582606032647927208e+00  3.570809125900268555e+00
-5.106864863757145656e-01  -1.556976355860101080e+00  1.971106507538595620e+00  -1.769179443986140576e+00  -1.763509814923780894e+00  -3.605832297778489348e+00  3.625555992126464844e+00
-5.566218851321007577e-01  -1.574263461613899295e+00  1.986018977369945704e+00  -1.754858892573865958e+00  -1.799211226545033071e+00  -3.625894232614523816e+00  3.673273086547851562e+00
-5.875245907559367708e-01  -1.584605309294136788e+00  1.995035278402445877e+00  -1.745828572655690358e+00  -1.822737870983381470e+00  -3.639310998401700914e+00  3.708769083023071289e+00
-6.342591684458120938e-01  -1.597925989730086371e+00  2.006761532316907903e+00  -1.733523992272004044e+00  -1.855227547645654340e+00  -3.659692402921763232e+00  3.759491920471191406e+00
-6.892576267908108179e-01  -1.610112437453789624e+00  2.017614156482832932e+00  -1.721077263538679958e+00  -1.887099449518480299e+00  -3.684174667043578211e+00  3.813966035842895508e+00
-7.363673586926360315e-01  -1.617480145221188437e+00  2.024389457959420380e+00  -1.712331606800117534e+00  -1.908454710655966835e+00  -3.705657498026514673e+00  3.857499122619628906e+00
-7.827929854699640089e-01  -1.622045839760374975e+00  2.028774037306645628e+00  -1.705418154394154229e+00  -1.924169735142365667e+00  -3.727314673135703416e+00  3.904251098632812500e+00
-8.277994197042524149e-01  -1.623977465626250449e+00  2.030870698846957811e+00  -1.700230312705929059e+00  -1.934770806669003917e+00  -3.748987158780590079e+00  3.950891971588134766e+00
-8.704068170515135705e-01  -1.623455370611825543e+00  2.030769830912232621e+00  -1.696778414641116228e+00  -1.940929597508414872e+00  -3.770547127379728636e+00  3.999288082122802734e+00
-9.032781063260504339e-01  -1.621166728324825890e+00  2.028970954022193851e+00  -1.695354018263941498e+00  -1.943011365587777206e+00  -3.788282479195141050e+00  4.045838117599487305e+00
-9.330387648428626335e-01  -1.617043289324575639e+00  2.025445321730918735e+00  -1.695473386495505608e+00  -1.942325740771914333e+00  -3.805742535067565768e+00  4.086264133453369141e+00
-9.637903422441631562e-01  -1.609274869827651777e+00  2.018475650309342839e+00  -1.698274116825276181e+00  -1.937600975379739410e+00  -3.826162046825414720e+00  4.129485130310058594e+00
-9.851061519310988501e-01  -1.600129982081489821e+00  2.010079416984844158e+00  -1.703272936480400901e+00  -1.930390083045215199e+00  -3.842631549195450802e+00  4.172964096069335938e+00
-1.005850307165736979e+00  -1.586316033268166059e+00  1.997157208916531701e+00  -1.712177533666737972e+00  -1.918362614539240951e+00  -3.861634481331250868e+00  4.217416048049926758e+00
-1.019529681508489105e+00  -1.572966506546765508e+00  1.984515412542403823e+00  -1.721515506811737595e+00  -1.906031759969716077e+00  -3.876789207811425442e+00  4.255203008651733398e+00
-1.030226235252177602e+00  -1.558395543530577854e+00  1.970618278267314949e+00  -1.732175329927637009e+00  -1.891988835510216127e+00  -3.891303280435662870e+00  4.300692081451416016e+00
-1.039395371654702416e+00  -1.539810494254428619e+00  1.952847861750038660e+00  -1.746295229518672443e+00  -1.873356990930279409e+00  -3.907749875756499236e+00  4.348093986511230469e+00
-1.044256580874900919e+00  -1.523771621004454069e+00  1.937473078952987038e+00  -1.758803831435947984e+00  -1.856782052455430154e+00  -3.920636034613000476e+00  4.385823965072631836e+00
-1.046875072573175913e+00  -1.507563303402392307e+00  1.921922553621037366e+00  -1.771680013680283494e+00  -1.839552157697792900e+00  -3.932709934764275772e+00  4.423205137252807617e+00
-1.047441743415026494e+00  -1.488283986201667908e+00  1.903399329389248607e+00  -1.787322132964943577e+00  -1.818234114965455284e+00  -3.946152156004185230e+00  4.471358060836791992e+00
-1.046095262671927095e+00  -1.472389734858079891e+00  1.888109309354149445e+00  -1.800398974020357201e+00  -1.800088117016005462e+00  -3.956513711401823841e+00  4.514864921569824219e+00
-1.042591344095813888e+00  -1.453170054235418007e+00  1.869634340045301713e+00  -1.816395751359182853e+00  -1.777911473602880044e+00  -3.968143537451911840e+00  4.558875083923339844e+00
-1.039363835787177059e+00  -1.440249314362267441e+00  1.857198538883775285e+00  -1.827240371745482150e+00  -1.762976821933367688e+00  -3.975485625040398929e+00  4.596605062484741211e+00
-1.034640212516002578e+00  -1.424174400209041735e+00  1.841704790609348663e+00  -1.840855476857655049e+00  -1.744482842997842731e+00  -3.984159224975083902e+00  4.637047052383422852e+00
-1.029354839245577580e+00  -1.408453024541491239e+00  1.826525004346510883e+00  -1.854286363802440718e+00  -1.726520689695129285e+00  -3.992211891178756744e+00  4.675396919250488281e+00
-1.023689009872740030e+00  -1.393400641933653539e+00  1.811981683533323562e+00  -1.867232858161752773e+00  -1.709447215144066945e+00  -3.999635046790505299e+00  4.716756105422973633e+00
-1.015287239269989428e+00  -1.373879761150879730e+00  1.793120104762397915e+00  -1.884208235924301533e+00  -1.687569659821130053e+00  -4.008956050987617203e+00  4.770008087158203125e+00
-1.007823495278540094e+00  -1.358827347253791729e+00  1.778563366399925627e+00  -1.897417646355103571e+00  -1.670979829350204504e+00  -4.015904574859916920e+00  4.815212965011596680e+00
-1.000133651995377626e+00  -1.345338632556853931e+00  1.765499231043600403e+00  -1.909387975799539561e+00  -1.656424014910004239e+00  -4.021965203863967275e+00  4.865121126174926758e+00
-9.949000143902013704e-01  -1.337156259637403366e+00  1.757578160709051929e+00  -1.916667838515639488e+00  -1.647762904705704301e+00  -4.025567326736267049e+00  4.901504993438720703e+00
-9.883502549136267135e-01  -1.327805155647491020e+00  1.748548941762974707e+00  -1.925020282522112325e+00  -1.638064571486916421e+00  -4.029615509976615328e+00  4.942274093627929688e+00
-9.222926178697647970e-01  -1.254579597548971748e+00  1.676939383869787692e+00  -1.993283202313215874e+00  -1.570601539448975181e+00  -4.064064188695171609e+00  5.770046949386596680e+00
-9.223435237583252899e-01  -1.254643421933295144e+00  1.676998307169649927e+00  -1.993208918676715236e+00  -1.570679829730364574e+00  -4.064028638856445497e+00  5.845366954803466797e+00
-9.255544309761098987e-01  -1.251171499650006069e+00  1.672481621948750607e+00  -1.995060593446487118e+00  -1.579204866660541384e+00  -4.059474692033107956e+00  5.942909955978393555e+00
-9.406300709841737273e-01  -1.231500401373669895e+00  1.643829633342226870e+00  -2.005538267999288138e+00  -1.628005229881290816e+00  -4.026763935799182903e+00  6.033246994018554688e+00
-9.366145093180477943e-01  -1.227318264975319373e+00  1.619429073150476128e+00  -2.003027347470037078e+00  -1.662178872891889370e+00  -3.975261473570320891e+00  6.128037929534912109e+00
-9.350038434580980606e-01  -1.211025158574882354e+00  1.591691497067327710e+00  -1.991917584309713440e+00  -1.701350316762951564e+00  -3.931302778159895706e+00  6.209948062896728516e+00
-9.432675084053894210e-01  -1.188129894494894145e+00  1.563362720898503255e+00  -1.995883480053626258e+00  -1.732543651326537315e+00  -3.895066356683308140e+00  6.279330015182495117e+00
-9.462578514560382459e-01  -1.175108749928631902e+00  1.545770466426765744e+00  -2.001787088723851582e+00  -1.745882347475376406e+00  -3.862289575590433177e+00  6.330522060394287109e+00
-9.426569583350508097e-01  -1.172094604004019658e+00  1.538681299391915225e+00  -2.000528128383690429e+00  -1.752939816157701003e+00  -3.834138060585533303e+00  6.376608133316040039e+00
-9.354571287915511846e-01  -1.173519216102970830e+00  1.535712808947264918e+00  -1.991715471595839837e+00  -1.767472838484174247e+00  -3.801563651758708140e+00  6.434371948242187500e+00
-9.271341730907645129e-01  -1.177768866653732260e+00  1.536025895913828210e+00  -1.978403595842525675e+00  -1.789932951242086290e+00  -3.769360989704495069e+00  6.493238925933837891e+00
-9.177783254172640071e-01  -1.184319204749268550e+00  1.538901706117378421e+00  -1.962654466507387063e+00  -1.815836664252522326e+00  -3.738038599103532089e+00  6.551938056945800781e+00
-9.053061620779390140e-01  -1.195480914849220255e+00  1.545843945545465781e+00  -1.939286813516638119e+00  -1.847402829719960948e+00  -3.699750001838856939e+00  6.621366977691650391e+00
-8.965126964746010785e-01  -1.204561510487183185e+00  1.552406259618228201e+00  -1.921380169113251490e+00  -1.865997826137048676e+00  -3.675224984233681713e+00  6.671046018600463867e+00
-8.854951994758506473e-01  -1.216418656165657808e+00  1.561575867254803018e+00  -1.898433553033489041e+00  -1.884971205947257644e+00  -3.647463343044919259e+00  6.725064992904663086e+00
-8.721671958992258666e-01  -1.230782105291744699e+00  1.573097036097077739e+00  -1.870820074961902613e+00  -1.903462366945069206e+00  -3.617180899077794720e+00  6.787094116210937500e+00
-8.587802798046633157e-01  -1.243071436688980569e+00  1.583179323807540007e+00  -1.846730428939578061e+00  -1.917606263453706106e+00  -3.592241738487469416e+00  6.839424133300781250e+00
-8.457144868122377090e-01  -1.253000656647191846e+00  1.591376069325664888e+00  -1.826796376615216211e+00  -1.928477329745781788e+00  -3.572158723915744627e+00  6.890905141830444336e+00
-8.312633207802146984e-01  -1.262187720749789577e+00  1.598951878820802364e+00  -1.807730993463228408e+00  -1.937910776759094844e+00  -3.553307666809606857e+00  6.942469120025634766e+00
-8.074749729925132513e-01  -1.274255560364251139e+00  1.608824065150789684e+00  -1.781193037962165882e+00  -1.948727587317780063e+00  -3.527374564496444709e+00  7.012915134429931641e+00
-7.906423515713756345e-01  -1.281047929347254311e+00  1.614334502968502338e+00  -1.765119893648803284e+00  -1.953448401638668841e+00  -3.511627787430744885e+00  7.058661937713623047e+00
-7.761124184896885936e-01  -1.285856015494866611e+00  1.618145760788552323e+00  -1.752878124616665367e+00  -1.955669087833992847e+00  -3.499488083437194863e+00  7.097594976425170898e+00
-7.612261948452756499e-01  -1.289778672320439412e+00  1.621167080985414843e+00  -1.741846800667651962e+00  -1.956312603647607062e+00  -3.488218056771307918e+00  7.141798973083496094e+00
-7.429945242161135610e-01  -1.293321218737290224e+00  1.623692785881364564e+00  -1.730193214725489703e+00  -1.955124609966244265e+00  -3.475808306371033218e+00  7.188193082809448242e+00
-7.147950978960260215e-01  -1.296060781514800198e+00  1.624993106891052363e+00  -1.716112613763953298e+00  -1.949314611246320439e+00  -3.459417187163720708e+00  7.262525081634521484e+00
-6.946268389637015872e-01  -1.295688542910877317e+00  1.623812637301552897e+00  -1.709327235584965798e+00  -1.942141743514557817e+00  -3.449988813018683764e+00  7.309572935104370117e+00
-6.719436024222771309e-01  -1.293086503683316124e+00  1.620472023660777694e+00  -1.705074609010654108e+00  -1.931404314580870363e+00  -3.441731608018708588e+00  7.356182098388671875e+00
-6.505302326705892924e-01  -1.288850411622791903e+00  1.615688366255677799e+00  -1.703826494307153716e+00  -1.919687065878132870e+00  -3.435588738028883427e+00  7.398355960845947266e+00
-6.222594510117147593e-01  -1.281232944425754638e+00  1.607491544560702756e+00  -1.705205312029978160e+00  -1.903070177441946065e+00  -3.428977329144421216e+00  7.438699007034301758e+00
-5.921322764826282281e-01  -1.271390656546092401e+00  1.597120573746114935e+00  -1.709367121585142257e+00  -1.884332966463372117e+00  -3.423144099232183990e+00  7.490272045135498047e+00
-5.609820012768160780e-01  -1.259976405455180526e+00  1.585219983648902264e+00  -1.715630321997794638e+00  -1.863600607648161045e+00  -3.418055957416846535e+00  7.540199995040893555e+00
-5.346156432076547560e-01  -1.249483151926768620e+00  1.574374083248351930e+00  -1.722159861779058332e+00  -1.844734253842110761e+00  -3.414310535485546527e+00  7.579401016235351562e+00
-5.082482625908673057e-01  -1.238095537347967401e+00  1.562702259843764097e+00  -1.729777928909983942e+00  -1.824569314017623789e+00  -3.410937297412071967e+00  7.618016958236694336e+00
-4.772797708971925346e-01  -1.223435809434906041e+00  1.547750601350089461e+00  -1.740178461920784514e+00  -1.799286008268036419e+00  -3.407349547254134414e+00  7.664809942245483398e+00
-4.574027666796052216e-01  -1.213244097676994038e+00  1.537336917967189187e+00  -1.747740808420473968e+00  -1.782228141406548616e+00  -3.405228439253334294e+00  7.698122024536132812e+00
-4.383818818197431355e-01  -1.202805279012282291e+00  1.526725565406114704e+00  -1.755669776512984726e+00  -1.765305475373261324e+00  -3.403298530843396286e+00  7.730406045913696289e+00
-4.203526381179436555e-01  -1.192277279763231945e+00  1.516054161371615194e+00  -1.763838014905633855e+00  -1.748765464985436502e+00  -3.401548090848446115e+00  7.764045000076293945e+00
-3.993525648608562406e-01  -1.179294412644043888e+00  1.502847641625752573e+00  -1.774223029161918319e+00  -1.728990116032674607e+00  -3.399597243628546206e+00  7.804390907287597656e+00
-3.839662829897179108e-01  -1.169228236856493908e+00  1.492657017659089647e+00  -1.782435222510443396e+00  -1.714139547550037612e+00  -3.398215038180121272e+00  7.837167024612426758e+00
-3.633182223449678006e-01  -1.155030389369630761e+00  1.478251134510652598e+00  -1.794231850837682885e+00  -1.693749024214650234e+00  -3.396419537323858595e+00  7.880043029785156250e+00
-3.512314260472297889e-01  -1.146268687297992805e+00  1.469376301783777983e+00  -1.801659641426859082e+00  -1.681579732615451128e+00  -3.395396460873220779e+00  7.918767929077148438e+00
-3.403208225343670179e-01  -1.138024432806542308e+00  1.461038252722428155e+00  -1.808755678169010395e+00  -1.670455399139763486e+00  -3.394482484243770859e+00  7.948722124099731445e+00
-3.282500448574170449e-01  -1.128468460946265850e+00  1.451373284547103459e+00  -1.817095216800570512e+00  -1.657960666831288954e+00  -3.393479183150858614e+00  7.982350111007690430e+00
-3.197000217614922590e-01  -1.121435275027778289e+00  1.444258981197328318e+00  -1.823291621463472012e+00  -1.649024093494900534e+00  -3.392783072793058796e+00  8.016704082489013672e+00
-3.137191697499170928e-01  -1.116398032356316072e+00  1.439186566603840589e+00  -1.827737023477009615e+00  -1.642743611008038229e+00  -3.392294442246321484e+00  8.043692111968994141e+00
-2.462915080061947037e-01  -1.044990528849481848e+00  1.367787873742088323e+00  -1.893805007701652166e+00  -1.570620335994881600e+00  -3.387979308187892169e+00  8.873434066772460938e+00
-2.463436018107572067e-01  -1.045046936309805830e+00  1.367846137628975001e+00  -1.893746089893716622e+00  -1.570685448229280468e+00  -3.387995035110680675e+00  8.956838130950927734e+00
-2.451742199804218814e-01  -1.046621585155484979e+00  1.369693948609787215e+00  -1.892783584323039392e+00  -1.567671149218331728e+00  -3.389247362834254318e+00  9.025103092193603516e+00
-2.395362789749952981e-01  -1.061514865360834392e+00  1.386941197979099760e+00  -1.883766453885238334e+00  -1.545964476602544657e+00  -3.401182906702640452e+00  9.097414970397949219e+00
-2.490140235688720338e-01  -1.087779521650032777e+00  1.417051870633162292e+00  -1.867779987442265366e+00  -1.534835258644505984e+00  -3.420580926171691516e+00  9.166579961776733398e+00
-2.667458257911938801e-01  -1.121971520062119865e+00  1.455472235194462227e+00  -1.848877237670602192e+00  -1.542889562240755907e+00  -3.444171990992593635e+00  9.224725008010864258e+00
-2.847211061677299426e-01  -1.156148984632444865e+00  1.493349684431212188e+00  -1.830066308538377484e+00  -1.560478156470642475e+00  -3.470831979563431702e+00  9.280334949493408203e+00
-3.256306710322149911e-01  -1.209940518319053027e+00  1.552639909696862164e+00  -1.798711155992615218e+00  -1.596544901448041287e+00  -3.518426297277404302e+00  9.362565994262695312e+00
-3.752748337330142903e-01  -1.256428967410027298e+00  1.603887221510474692e+00  -1.771338069078715272e+00  -1.635685954079615811e+00  -3.558527190623630432e+00  9.428997039794921875e+00
-4.375092266188005397e-01  -1.303312948920179792e+00  1.655817108597162024e+00  -1.746050813841364402e+00  -1.676402395496765507e+00  -3.595779518257280927e+00  9.493087053298950195e+00
-5.140590312924651073e-01  -1.353007879323801177e+00  1.711257129696474699e+00  -1.721482532595513426e+00  -1.722417203194041235e+00  -3.635215754832854529e+00  9.561224937438964844e+00
-5.799986795100515735e-01  -1.389573460847241648e+00  1.752337882391749702e+00  -1.703709402369650405e+00  -1.762914357023641188e+00  -3.665136931188355263e+00  9.620378017425537109e+00
-6.475364770604272735e-01  -1.423650170618067534e+00  1.791162779638612479e+00  -1.687864167751688349e+00  -1.804946639018064403e+00  -3.694289914556289744e+00  9.678735017776489258e+00
-7.151558275064147097e-01  -1.454793636935329815e+00  1.827319490289899928e+00  -1.674685667937851896e+00  -1.844487333468702417e+00  -3.722720614888377355e+00  9.728518009185791016e+00
-7.823027516271263693e-01  -1.483038686819501351e+00  1.860836753054924575e+00  -1.664413694785615405e+00  -1.878492154606902886e+00  -3.751021849999679247e+00  9.790163993835449219e+00
-8.472200332563044611e-01  -1.508404562975162122e+00  1.891610515904724510e+00  -1.657275372321027618e+00  -1.905199967883042689e+00  -3.779645858828953209e+00  9.845021963119506836e+00
-9.166360536218647326e-01  -1.533743998637973505e+00  1.923263603552961998e+00  -1.652896913258465439e+00  -1.926707987905444952e+00  -3.812372807976615263e+00  9.911456108093261719e+00
-9.796403948791265748e-01  -1.555389759856909748e+00  1.951255134893536969e+00  -1.651840609952678562e+00  -1.940557239424606450e+00  -3.844259334261401762e+00  9.972082138061523438e+00
-1.029300670361962489e+00  -1.571721304944331266e+00  1.972949579301262135e+00  -1.652928203379165240e+00  -1.948585643609044737e+00  -3.870958216012862607e+00  1.002382493019104004e+01
-1.090669787617178699e+00  -1.590731810104330179e+00  1.999177235677549680e+00  -1.657795883224929767e+00  -1.955043978567269747e+00  -3.906654177889873125e+00  1.010520100593566895e+01
-1.121312401374801482e+00  -1.599234283825481384e+00  2.011764539883999614e+00  -1.663057543246690528e+00  -1.955595234521083192e+00  -3.926652564701285542e+00  1.015255212783813477e+01
-1.142906098961015360e+00  -1.604418507889132428e+00  2.020216930203749595e+00  -1.668975798818838285e+00  -1.953615699774269743e+00  -3.942526956289224671e+00  1.019730401039123535e+01
-1.179493476352202919e+00  -1.607507773853518174e+00  2.030565752086562092e+00  -1.690829341851898704e+00  -1.937138303872320222e+00  -3.978065734977963785e+00  1.029086995124816895e+01
-1.193058402807457341e+00  -1.600945892086130584e+00  2.028381555818899784e+00  -1.710932444306937583e+00  -1.916771182409457097e+00  -3.999929847470129474e+00  1.035160398483276367e+01
-1.198906659501432159e+00  -1.584778970457381142e+00  2.016127073607837161e+00  -1.728634864549389860e+00  -1.890739027452881693e+00  -4.019704944380817935e+00  1.042228198051452637e+01
-1.198566372354204823e+00  -1.565964591643881576e+00  2.000203647078137692e+00  -1.742985757074663411e+00  -1.865113886132343524e+00  -4.035252417661467916e+00  1.047647404670715332e+01
-1.195851468895329894e+00  -1.552134078118094784e+00  1.988182861886524933e+00  -1.754294224094662624e+00  -1.845971499334305932e+00  -4.045545470042519298e+00  1.051653194427490234e+01
-1.191493130707955039e+00  -1.538929013621106456e+00  1.976614290286512698e+00  -1.766853447136226052e+00  -1.826544653086943804e+00  -4.055218675431458308e+00  1.055180597305297852e+01
-1.187021662224429619e+00  -1.528857737686381668e+00  1.967766283840875374e+00  -1.777604433124551520e+00  -1.810935903275494141e+00  -4.062570739540721121e+00  1.058931303024291992e+01
-1.180479410685742359e+00  -1.516716899034557642e+00  1.957061746004885805e+00  -1.791538291888615575e+00  -1.791525997010194438e+00  -4.071323642561232248e+00  1.062902092933654785e+01
-1.173151861218042491e+00  -1.505065235341256802e+00  1.946697686011198414e+00  -1.805750424268579124e+00  -1.772511116428543865e+00  -4.079537898240257476e+00  1.066574907302856445e+01
-1.165304393641654279e+00  -1.493773257712843971e+00  1.936579161133686000e+00  -1.820376586747864067e+00  -1.753985913845256484e+00  -4.087276627744369506e+00  1.070836400985717773e+01
-1.157054340634753764e+00  -1.482789859044657099e+00  1.926641140743846847e+00  -1.835394994525902490e+00  -1.736066792263568637e+00  -4.094589672050069851e+00  1.074491596221923828e+01
-1.148469480374766150e+00  -1.472164643322118494e+00  1.916936765692696554e+00  -1.850671151678536575e+00  -1.718903475388056101e+00  -4.101475035926483770e+00  1.078342700004577637e+01
-1.137898861667241412e+00  -1.459964724661517721e+00  1.905752777803797926e+00  -1.868932810423499902e+00  -1.699510487778017165e+00  -4.109147844123871351e+00  1.083746194839477539e+01
-1.129107946895942405e+00  -1.450418835780879157e+00  1.896952357819721158e+00  -1.883788110703237706e+00  -1.684523377096842189e+00  -4.115024343857921707e+00  1.087802290916442871e+01
-1.118782866093615880e+00  -1.439822854160917487e+00  1.887182358970683538e+00  -1.900763806922824983e+00  -1.668148461165229968e+00  -4.121478484528532604e+00  1.091865897178649902e+01
-1.110392772965727914e+00  -1.431762301417491834e+00  1.879769216922269948e+00  -1.913978298994759797e+00  -1.655941194858267629e+00  -4.126371490232822126e+00  1.096318411827087402e+01
-1.100807553059103050e+00  -1.423051029985616722e+00  1.871789971629306493e+00  -1.928492368599172835e+00  -1.643036823438642102e+00  -4.131617392115234821e+00  1.101318693161010742e+01
-1.091948043562664949e+00  -1.415384953317415651e+00  1.864772260898632794e+00  -1.941530084599373041e+00  -1.631920455496240763e+00  -4.136176482720934189e+00  1.105711102485656738e+01
-1.085115443554126813e+00  -1.409714762947153588e+00  1.859585264589831866e+00  -1.951254574709620826e+00  -1.623881276957754416e+00  -4.139492324323644112e+00  1.110032200813293457e+01
-1.078699523807151728e+00  -1.404515481098941088e+00  1.854849391651519852e+00  -1.960223569737422622e+00  -1.616606080245267307e+00  -4.142511463089231682e+00  1.113540005683898926e+01
-1.025954741356045474e+00  -1.364371263445727678e+00  1.820689581119377287e+00  -2.027241303244606385e+00  -1.570699417218769156e+00  -4.167674336285921655e+00  1.194332408905029297e+01
-1.025991974297784992e+00  -1.364421986339355186e+00  1.820719518567690542e+00  -2.027175065697480960e+00  -1.570743389241158638e+00  -4.167628597364783971e+00  1.202399110794067383e+01
-1.025470661359234370e+00  -1.363751770597968260e+00  1.819395592842937504e+00  -2.028112069337964840e+00  -1.573555640665535549e+00  -4.165371962299721176e+00  1.210181403160095215e+01
-1.020908231679971578e+00  -1.358277309642667241e+00  1.809165448565451584e+00  -2.035722092909216130e+00  -1.594414036847222604e+00  -4.147586409530008567e+00  1.216559696197509766e+01
-1.007435734033384378e+00  -1.344052714282467420e+00  1.783078625164840503e+00  -2.056300455171930608e+00  -1.644723235169323061e+00  -4.092716453561745737e+00  1.226371097564697266e+01
-9.994104415594220470e-01  -1.338496307987792733e+00  1.770390184568412906e+00  -2.069838420165742932e+00  -1.668551412224701380e+00  -4.059483389810658593e+00  1.231108808517456055e+01
-9.779369935225732391e-01  -1.339123341994305605e+00  1.759289155213437539e+00  -2.093122983361858758e+00  -1.703818954887498904e+00  -3.994011762274707777e+00  1.239359402656555176e+01
-9.363552525073730592e-01  -1.339154194039916312e+00  1.749348672631899859e+00  -2.110073850938796625e+00  -1.735452871054361523e+00  -3.916201228037083482e+00  1.249312090873718262e+01
-9.010022944948730128e-01  -1.313074300033878927e+00  1.715947424199750770e+00  -2.135957645067257715e+00  -1.776330684881155975e+00  -3.836600214155795552e+00  1.258982110023498535e+01
-8.839619489126482321e-01  -1.290586947751581448e+00  1.689539005611925937e+00  -2.147923936978704873e+00  -1.762614914017595957e+00  -3.771378826134695217e+00  1.266592097282409668e+01
-8.548861704527626060e-01  -1.293698189437229473e+00  1.689910366579600698e+00  -2.135268756467091578e+00  -1.752716428917572955e+00  -3.698460200956894539e+00  1.276715111732482910e+01
-8.313989261576875123e-01  -1.303802254521716719e+00  1.699011259484737968e+00  -2.120257504555604022e+00  -1.773789049555997366e+00  -3.654301796873194341e+00  1.282970094680786133e+01
-8.106938973958124350e-01  -1.314582097715931042e+00  1.709396010666550225e+00  -2.103031054133704281e+00  -1.802883506574833206e+00  -3.613186419410518990e+00  1.288794994354248047e+01
-7.961526006551364887e-01  -1.323984622171106906e+00  1.718911068949912746e+00  -2.088031411049816377e+00  -1.823333295793894138e+00  -3.583804830141094300e+00  1.293695712089538574e+01
-7.839324887567986622e-01  -1.333111596927466280e+00  1.728378028710800374e+00  -2.074161510899979355e+00  -1.838891198088543177e+00  -3.560068422313669156e+00  1.298165011405944824e+01
-7.635564417822111594e-01  -1.350255473049376320e+00  1.746452152024637883e+00  -2.049240368040867288e+00  -1.861577589826850954e+00  -3.523084826493694255e+00  1.304003095626831055e+01
-7.440978121669123979e-01  -1.367146895242012050e+00  1.764569318454575653e+00  -2.025177663854704768e+00  -1.879468833306173536e+00  -3.491689721829019266e+00  1.309574198722839355e+01
-7.289194876316624772e-01  -1.379611094400988947e+00  1.778067184348875562e+00  -2.007384600934254415e+00  -1.891547277642722236e+00  -3.470033034330569865e+00  1.313804697990417480e+01
-7.126713212516255780e-01  -1.392075974436149721e+00  1.791670518593962980e+00  -1.989472802824403530e+00  -1.903072290815810419e+00  -3.449171227228782222e+00  1.318129491806030273e+01
-6.920482998753003656e-01  -1.406728734430048533e+00  1.807838030014500275e+00  -1.968153916184416374e+00  -1.915847141983347157e+00  -3.425183622930019656e+00  1.322228407859802246e+01
-6.777809174238882406e-01  -1.416183941462223927e+00  1.818368244440750292e+00  -1.954194425087242060e+00  -1.923478568270432731e+00  -3.409844757743719867e+00  1.326167702674865723e+01
-6.559026430174013100e-01  -1.429664406054238057e+00  1.833489942089125524e+00  -1.933955490825280066e+00  -1.933240210255869229e+00  -3.387968773738870176e+00  1.331139993667602539e+01
-6.337424284776398409e-01  -1.442036446686575601e+00  1.847582655055463041e+00  -1.914978016329505373e+00  -1.940639403954946829e+00  -3.367527040065894983e+00  1.335222506523132324e+01
-6.076847127864528630e-01  -1.454819744624963107e+00  1.862340353183963515e+00  -1.894758052588655595e+00  -1.946001730764406190e+00  -3.345533020465157659e+00  1.341092109680175781e+01
-5.815252886367030527e-01  -1.465538709288150443e+00  1.874983516135963368e+00  -1.876935498245869027e+00  -1.947745158744767835e+00  -3.325666043712044662e+00  1.346510791778564453e+01
-5.514205802460283579e-01  -1.475117559059796690e+00  1.886667979368225945e+00  -1.859704614508207676e+00  -1.945419831852229997e+00  -3.305463221162157073e+00  1.352694797515869141e+01
-5.322813638285035509e-01  -1.479595019022855951e+00  1.892435287069476058e+00  -1.850660597611907932e+00  -1.941695681157404429e+00  -3.294065009647769493e+00  1.357418298721313477e+01
-5.027354399374157623e-01  -1.483360427851282637e+00  1.897993530782538407e+00  -1.840840735449944532e+00  -1.932665259548992154e+00  -3.279697071119256790e+00  1.362416005134582520e+01
-4.787117553807780368e-01  -1.483686234130596304e+00  1.899619635042175902e+00  -1.836352987226769429e+00  -1.923096125170017601e+00  -3.270484207882956795e+00  1.366653800010681152e+01
-4.526422214549779000e-01  -1.481923526342271202e+00  1.899129210905526222e+00  -1.834115562765157748e+00  -1.911216798170617182e+00  -3.262096030710344152e+00  1.370980811119079590e+01
-4.252079434517401779e-01  -1.478227628165322827e+00  1.896660916956165011e+00  -1.833992733618769577e+00  -1.897417166009941702e+00  -3.254468242892819330e+00  1.375008606910705566e+01
-3.856240962119912297e-01  -1.470325384986447936e+00  1.890315278821017131e+00  -1.836922890578719603e+00  -1.875408477807841479e+00  -3.244967294901031973e+00  1.380340600013732910e+01
-3.517156048912406519e-01  -1.461609597434497587e+00  1.882736271243329540e+00  -1.841829639237344551e+00  -1.854459560384040806e+00  -3.237845503967732075e+00  1.385153198242187500e+01
-3.187206896759917640e-01  -1.451612597340472988e+00  1.873745803053694203e+00  -1.848365226900744673e+00  -1.831949496135040434e+00  -3.231636075687081888e+00  1.389969897270202637e+01
-2.820179458258662564e-01  -1.438463297758885595e+00  1.861651545642708072e+00  -1.857737470666993573e+00  -1.803968820838877996e+00  -3.225336417500056729e+00  1.395291709899902344e+01
-2.572667347922656944e-01  -1.428080643595036392e+00  1.851973263251933233e+00  -1.865572242013566751e+00  -1.783281252021353680e+00  -3.221334487211806596e+00  1.399892497062683105e+01
-2.340403111631905730e-01  -1.417103432504086769e+00  1.841681904493881916e+00  -1.874149726718917108e+00  -1.762542496084129162e+00  -3.217712143600281127e+00  1.403816294670104980e+01
-2.084491141711160012e-01  -1.403631885796599477e+00  1.828934255751953231e+00  -1.884983540291056414e+00  -1.738356129601879019e+00  -3.213855191099468822e+00  1.407812690734863281e+01
-1.929207377745791874e-01  -1.394690376327974768e+00  1.820451063276991022e+00  -1.892313225107919550e+00  -1.723028907672492060e+00  -3.211565717320943758e+00  1.411504793167114258e+01
-1.786119150512543996e-01  -1.385941448432112644e+00  1.812128972573752606e+00  -1.899638892301307891e+00  -1.708497799402055151e+00  -3.209489940364843363e+00  1.414819812774658203e+01
-1.624294167979662973e-01  -1.375396746832825201e+00  1.802083019263038821e+00  -1.908573279682471480e+00  -1.691677102153380297e+00  -3.207180595856605976e+00  1.418838310241699219e+01
-1.454550923596400480e-01  -1.363515672340787965e+00  1.790717912485636276e+00  -1.918759480963171171e+00  -1.673573841653142935e+00  -3.204785728942706413e+00  1.423162412643432617e+01
-1.379005275422526822e-01  -1.357973316464362590e+00  1.785390529238433999e+00  -1.923578525261120831e+00  -1.665418597900218067e+00  -3.203731110047744135e+00  1.426047992706298828e+01
-1.245319991649633806e-01  -1.347767512837462434e+00  1.775542006961069674e+00  -1.932584651068221859e+00  -1.650886911733167928e+00  -3.201872560382118760e+00  1.430214500427246094e+01
-1.164754170023885038e-01  -1.341405134542950961e+00  1.769408309275394942e+00  -1.938217859895921436e+00  -1.642075823681856228e+00  -3.200759685317144054e+00  1.433685803413391113e+01
-5.031103057274854962e-02  -1.274658162254848293e+00  1.704266592398840707e+00  -2.000506396038666423e+00  -1.570606699156208208e+00  -3.192024570736580191e+00  1.515551209449768066e+01
-5.038807178482684890e-02  -1.274734449989711749e+00  1.704328009069315808e+00  -2.000457026777128888e+00  -1.570672849884532596e+00  -3.192031424905666270e+00  1.524864602088928223e+01
-4.786382609591566251e-02  -1.278677392790765310e+00  1.708156689785540916e+00  -1.998951674730605532e+00  -1.561663268772832680e+00  -3.195946641980029312e+00  1.533815002441406250e+01
-4.005337108270268232e-02  -1.297274876070902749e+00  1.726369277259553581e+00  -1.991059344907731621e+00  -1.527119470032094917e+00  -3.213987614829791895e+00  1.540936899185180664e+01
-4.236911928001418914e-02  -1.323949720598839974e+00  1.752986812526528659e+00  -1.974424770551793884e+00  -1.508159290607419045e+00  -3.237636368247827079e+00  1.547365307807922363e+01
-5.408214697641255952e-02  -1.355380978667604097e+00  1.784678517641041129e+00  -1.950788326470156875e+00  -1.508782176735131486e+00  -3.264070920183336000e+00  1.553544807434082031e+01
-7.294659110968382265e-02  -1.390226691264139447e+00  1.819763680209816492e+00  -1.923588810445932218e+00  -1.521757929460104464e+00  -3.292334769957950158e+00  1.559857797622680664e+01
-9.156153135923261743e-02  -1.418445460114977408e+00  1.847770649093404050e+00  -1.903565097402282191e+00  -1.536847314677215692e+00  -3.314506571671923751e+00  1.565422701835632324e+01
-1.228111213434424087e-01  -1.458045373181803939e+00  1.887041764944653810e+00  -1.879707827484081939e+00  -1.562455919085678602e+00  -3.344820521808861358e+00  1.571668100357055664e+01
-1.561468885255656858e-01  -1.493934327714352861e+00  1.922633270984103637e+00  -1.861367275678281530e+00  -1.588256170659068545e+00  -3.371622460297661661e+00  1.576622295379638672e+01
-1.984348851982353779e-01  -1.535422137779228535e+00  1.963094015409928561e+00  -1.842574969800581108e+00  -1.619491992757907894e+00  -3.401948866049458786e+00  1.583200311660766602e+01
-2.370394993997457789e-01  -1.571680270495450671e+00  1.997278689104441174e+00  -1.827804935196293279e+00  -1.648207799826206355e+00  -3.427967638693372621e+00  1.589384603500366211e+01
-2.943416376117085065e-01  -1.624269604572136316e+00  2.046372802649628397e+00  -1.807342752869119273e+00  -1.699367771952299933e+00  -3.467254376085485035e+00  1.597581911087036133e+01
-3.450225182405191049e-01  -1.667466380868471987e+00  2.089099432866328598e+00  -1.785394190886819388e+00  -1.769476464521137160e+00  -3.506727533767046268e+00  1.607057094573974609e+01
-3.667772281831780390e-01  -1.684033150922083166e+00  2.106819249132653393e+00  -1.771111347535657465e+00  -1.808510462108063876e+00  -3.524946633718947453e+00  1.612639212608337402e+01
-3.939390147042907131e-01  -1.698710679424269898e+00  2.123662946651678762e+00  -1.755498825476995428e+00  -1.847096552741627207e+00  -3.542829687274497985e+00  1.617182898521423340e+01
-4.338175712791532135e-01  -1.714046240923357445e+00  2.141947295541303919e+00  -1.738337575844507654e+00  -1.888746318853765871e+00  -3.564032241294608383e+00  1.622542309761047363e+01
-4.642490592262156213e-01  -1.723528083926282761e+00  2.153326761226690866e+00  -1.727567490393006722e+00  -1.915028141087928404e+00  -3.579492350878794582e+00  1.626827812194824219e+01
-4.947640093295291308e-01  -1.731426757592272381e+00  2.162917059968991307e+00  -1.718179140968668861e+00  -1.937478374519404412e+00  -3.595243753843956114e+00  1.630483913421630859e+01
-5.253200778101270174e-01  -1.737331443350957016e+00  2.170379723312716447e+00  -1.710434329925018204e+00  -1.955511461293440334e+00  -3.611450632764958257e+00  1.634254598617553711e+01
-5.559338651477379045e-01  -1.740861934283994827e+00  2.175393403848040919e+00  -1.704682134685280737e+00  -1.969089695066827517e+00  -3.628066057663609456e+00  1.638746595382690430e+01
-5.864356091236864188e-01  -1.741882663100084550e+00  2.177784110266003825e+00  -1.701171632232695075e+00  -1.978513076264690085e+00  -3.644982073680772316e+00  1.642761301994323730e+01
-6.224263649175583168e-01  -1.739829753147271951e+00  2.177268971311340451e+00  -1.699958591781969730e+00  -1.984818831670928319e+00  -3.665412079342832641e+00  1.647068810462951660e+01
-6.457327882251071571e-01  -1.736579717744372253e+00  2.174984631801740065e+00  -1.700898276108320673e+00  -1.986241767285129356e+00  -3.679005920247934824e+00  1.650758314132690430e+01
-6.736460352999085188e-01  -1.730577115314084757e+00  2.170115032142877709e+00  -1.703915102612496568e+00  -1.985131220221866499e+00  -3.695808239815860929e+00  1.654608201980590820e+01
-6.997473799213480561e-01  -1.722632879728997146e+00  2.163193940287424510e+00  -1.708816783812357798e+00  -1.981044574197729169e+00  -3.712306084613899770e+00  1.658937811851501465e+01
-7.234848913000835324e-01  -1.712882690786322826e+00  2.154359185928683473e+00  -1.715503424991620562e+00  -1.974197222956067144e+00  -3.728441402161598361e+00  1.662669992446899414e+01
-7.405812533363729244e-01  -1.704009077501134506e+00  2.146130740598533038e+00  -1.721957284712996028e+00  -1.967007932502229828e+00  -3.741025727117811783e+00  1.665927410125732422e+01
-7.595683221934610430e-01  -1.691909009400483832e+00  2.134767206858857236e+00  -1.731101638986299207e+00  -1.956267062458691974e+00  -3.756232581396188763e+00  1.669600892066955566e+01
-7.729984904534834556e-01  -1.681520114099194885e+00  2.124944229021231479e+00  -1.739153710720398038e+00  -1.946385540568479122e+00  -3.768001723790451507e+00  1.673120808601379395e+01
-7.822328209576472346e-01  -1.673294490424444447e+00  2.117106798373205478e+00  -1.745657478331537504e+00  -1.938178750037167219e+00  -3.776666575394150627e+00  1.675722813606262207e+01
-8.127371996352170669e-01  -1.637359752485943787e+00  2.082618005839957931e+00  -1.774688463190116750e+00  -1.899657110164955753e+00  -3.810103397092024835e+00  1.684722495079040527e+01
-8.208482096452929255e-01  -1.624704999435043540e+00  2.070398067127371178e+00  -1.785141578966168652e+00  -1.885375029916668055e+00  -3.820690397450251297e+00  1.688027596473693848e+01
-8.296183869936051281e-01  -1.608770391399293231e+00  2.055000773340081466e+00  -1.798398423213980024e+00  -1.866997480495980355e+00  -3.833333571934996797e+00  1.691921997070312500e+01
-8.356169488420306379e-01  -1.596059821940143841e+00  2.042670882623069062e+00  -1.809099191741978530e+00  -1.852030051954730361e+00  -3.842963174999548315e+00  1.695599699020385742e+01
-8.419875985567930599e-01  -1.580256245577431606e+00  2.027330266384520741e+00  -1.822506600896167228e+00  -1.833040881758518204e+00  -3.854483481869685590e+00  1.699517393112182617e+01
-8.471980517117785325e-01  -1.564711289100194413e+00  2.012232102253470600e+00  -1.835769785850317248e+00  -1.813916041510819532e+00  -3.865393859688211364e+00  1.703400611877441406e+01
-8.513670987090797837e-01  -1.549349552935393781e+00  1.997306374093707149e+00  -1.848926262042631663e+00  -1.794748279882744768e+00  -3.875716340716849118e+00  1.707053303718566895e+01
-8.546319970051037274e-01  -1.534198574380693181e+00  1.982583731510494829e+00  -1.861893689369395588e+00  -1.775650829760682115e+00  -3.885510806620224855e+00  1.711478710174560547e+01
-8.570923429027033080e-01  -1.519308519789655421e+00  1.968129453598908896e+00  -1.874676993948646953e+00  -1.756829998185956754e+00  -3.894740979474811127e+00  1.715695500373840332e+01
-8.591761280736420758e-01  -1.501925276793130593e+00  1.951280283022734707e+00  -1.889626953680510368e+00  -1.734976365821069066e+00  -3.905052434363312841e+00  1.720014595985412598e+01
-8.603083105515523243e-01  -1.487954312217105723e+00  1.937737866024821898e+00  -1.901707951555813736e+00  -1.717578508378468705e+00  -3.913032165104475268e+00  1.723815202713012695e+01
-8.609877761159658860e-01  -1.474626391821506566e+00  1.924821041120534204e+00  -1.913266056194199649e+00  -1.701159457970743638e+00  -3.920434453180675405e+00  1.728150391578674316e+01
-8.612779016980276481e-01  -1.462107828822143851e+00  1.912689767630521231e+00  -1.924150963179547702e+00  -1.685942307141381491e+00  -3.927201228674524813e+00  1.732110500335693359e+01
-8.612842181383051354e-01  -1.450544373560443745e+00  1.901464276964311750e+00  -1.934280677261657644e+00  -1.672074257277507137e+00  -3.933328888256038880e+00  1.735966205596923828e+01
-8.611068146078304508e-01  -1.440023648494518582e+00  1.891216675847424256e+00  -1.943581351428731452e+00  -1.659618499913181999e+00  -3.938810961846213488e+00  1.740154409408569336e+01
-8.607470287657923436e-01  -1.428722180978431844e+00  1.880223705525285283e+00  -1.953616352886093921e+00  -1.646474859436807492e+00  -3.944539986350537930e+00  1.745076012611389160e+01
-8.603599105894295107e-01  -1.418262635766794233e+00  1.870070221438073332e+00  -1.962976718487066563e+00  -1.634444022022795373e+00  -3.949741099215389184e+00  1.749696803092956543e+01
-8.432683148174966448e-01  -1.352930717658750837e+00  1.806371838185567569e+00  -2.024336132199755056e+00  -1.570611923103877317e+00  -3.984950529722480983e+00  1.830704903602600098e+01
-8.432734179528820206e-01  -1.352978688431374366e+00  1.806430410658655283e+00  -2.024273374053357166e+00  -1.570685751038453759e+00  -3.984922145154920159e+00  1.838061594963073730e+01
-8.448798669817048079e-01  -1.351291892140309869e+00  1.809015930910067738e+00  -2.017603301052658615e+00  -1.584350080924341597e+00  -3.975940891696683188e+00  1.848826193809509277e+01
-8.455346683762448023e-01  -1.346968801245835401e+00  1.816817543792067502e+00  -1.998461910620283888e+00  -1.623347702957744332e+00  -3.944215378385457882e+00  1.856364893913269043e+01
-8.180164660119704223e-01  -1.350649842697974279e+00  1.820365456718256780e+00  -1.996033185543481636e+00  -1.655333323349692520e+00  -3.876416664161519865e+00  1.865479803085327148e+01
-7.944520105186834158e-01  -1.356538323162336468e+00  1.801352760738996750e+00  -2.007827625290895313e+00  -1.689734180256483143e+00  -3.823462896029169666e+00  1.873296308517456055e+01
-7.626149369396451050e-01  -1.367993328231435157e+00  1.787285362156332269e+00  -1.991306700950470798e+00  -1.741236671954684567e+00  -3.761453132389669385e+00  1.882920193672180176e+01
-7.396826784853454129e-01  -1.381458846507722882e+00  1.789418569287706928e+00  -1.957945356783144852e+00  -1.790125543891225135e+00  -3.699532477149293452e+00  1.891242599487304688e+01
-7.313044117184439585e-01  -1.397145617197871559e+00  1.791152353000056152e+00  -1.930263058485919281e+00  -1.822233332713915743e+00  -3.633515986004068665e+00  1.900016212463378906e+01
-7.197510577615693350e-01  -1.403290996950996572e+00  1.788393925922385108e+00  -1.924448109767419091e+00  -1.830022838181315947e+00  -3.595301158954931076e+00  1.905953812599182129e+01
-7.059070776375691025e-01  -1.407393706781007836e+00  1.786024322711771362e+00  -1.917956426589555896e+00  -1.838040293232616307e+00  -3.567811785464818364e+00  1.910648798942565918e+01
-6.905254072562323486e-01  -1.412352782678659935e+00  1.784477195555471241e+00  -1.903588022831256943e+00  -1.853640649609818780e+00  -3.540324533179130650e+00  1.916202497482299805e+01
-6.791686275554962293e-01  -1.417167065193961406e+00  1.783269238883171681e+00  -1.885721804739231899e+00  -1.873446600234808912e+00  -3.514590883537568544e+00  1.922171902656555176e+01
-6.667865750637833600e-01  -1.422034380161086631e+00  1.780968835031806918e+00  -1.861874014919531639e+00  -1.898944004291308829e+00  -3.481370637068955887e+00  1.929295706748962402e+01
-6.519195355913955936e-01  -1.425350571801029531e+00  1.777780493142818941e+00  -1.836014836525293070e+00  -1.921542383784071717e+00  -3.447255979802256398e+00  1.936278510093688965e+01
-6.363114969163596868e-01  -1.426597790798577847e+00  1.774324481183956692e+00  -1.814704829750843018e+00  -1.937184955131208142e+00  -3.420194148360105935e+00  1.941451001167297363e+01
-6.232368593629473708e-01  -1.426749695457266043e+00  1.771297817037542188e+00  -1.799381404342405233e+00  -1.946913792303032409e+00  -3.400835531928368738e+00  1.945654392242431641e+01
-6.090914259000488329e-01  -1.426302297176754053e+00  1.767829149392103005e+00  -1.784234176353416856e+00  -1.955452157935496871e+00  -3.381604480955243908e+00  1.949679613113403320e+01
-5.941626844441483257e-01  -1.425198577084904272e+00  1.763867864457477452e+00  -1.769481834043929780e+00  -1.962979247811599492e+00  -3.362626551958356469e+00  1.953783893585205078e+01
-5.787966295330226885e-01  -1.423397107230466752e+00  1.759394984025465902e+00  -1.755232444483617371e+00  -1.969525770250335484e+00  -3.343981162991206180e+00  1.958152198791503906e+01
-5.600468968793723690e-01  -1.420317854807754188e+00  1.753359573241265679e+00  -1.739004337944142442e+00  -1.975977128919879533e+00  -3.322193269743018540e+00  1.962738013267517090e+01
-5.381570603941341346e-01  -1.415573556187541548e+00  1.745437382461229703e+00  -1.721500692191192172e+00  -1.981412464253820005e+00  -3.297886525168205907e+00  1.968322396278381348e+01
-5.050877498485348838e-01  -1.406013995280341433e+00  1.731532579168318264e+00  -1.697591268428404021e+00  -1.985613114508657517e+00  -3.262728953044180980e+00  1.977056598663330078e+01
-4.694247146729342290e-01  -1.394402575383154819e+00  1.716367853899740226e+00  -1.678078104443230245e+00  -1.981559008997506588e+00  -3.231546467648131138e+00  1.986144804954528809e+01
-4.404484084655475584e-01  -1.387030561597917711e+00  1.707318465957889941e+00  -1.669582174125517682e+00  -1.969824720498143833e+00  -3.216418465846243802e+00  1.990961909294128418e+01
-4.119524859534848815e-01  -1.379754792959918319e+00  1.698818215846177537e+00  -1.664163463662418074e+00  -1.955608719526043870e+00  -3.204900322817756386e+00  1.994408202171325684e+01
-3.702976024540962641e-01  -1.366903974864518645e+00  1.684494200191239521e+00  -1.660103212430366959e+00  -1.932703174200981699e+00  -3.190396761183343699e+00  2.000080609321594238e+01
-3.407623161750077401e-01  -1.355737257402231499e+00  1.672364901679214810e+00  -1.659887735274290677e+00  -1.915305430831057087e+00  -3.181043193661968527e+00  2.004722595214843750e+01
-3.060841803137197559e-01  -1.340440596196382117e+00  1.656007973645326814e+00  -1.662405497855816705e+00  -1.893399174891557735e+00  -3.170813820999506039e+00  2.008977699279785156e+01
-2.779274804806703969e-01  -1.326314695829407420e+00  1.641115618855676139e+00  -1.666678007947892226e+00  -1.874190169555307151e+00  -3.163094253561230751e+00  2.012809300422668457e+01
-2.506286321220585478e-01  -1.311268624931244631e+00  1.625353587007763778e+00  -1.672601216748770270e+00  -1.854342832901807903e+00  -3.156024338401381080e+00  2.016650295257568359e+01
-2.243955855096215757e-01  -1.295604776575657979e+00  1.609099394401650507e+00  -1.679830484533894719e+00  -1.834192751911345454e+00  -3.149560006170268878e+00  2.020813202857971191e+01
-1.945349796799211717e-01  -1.276418198547034422e+00  1.589245251328337716e+00  -1.689883522962208673e+00  -1.810001006570209015e+00  -3.142604452806993631e+00  2.025933194160461426e+01
-1.713237146182962078e-01  -1.260459609124834124e+00  1.572806010930762000e+00  -1.699044861182633426e+00  -1.790290938635409113e+00  -3.137458356849743168e+00  2.030009603500366211e+01
-1.497414568911583643e-01  -1.244563710385970801e+00  1.556507991778674160e+00  -1.708809108879446370e+00  -1.771197808122247253e+00  -3.132835064015130566e+00  2.034074997901916504e+01
-1.257766294686950559e-01  -1.225203340851071410e+00  1.536768937253674139e+00  -1.721449277571196035e+00  -1.749030329661222183e+00  -3.127855060173117874e+00  2.038194894790649414e+01
-1.108618345227450064e-01  -1.212178579685696533e+00  1.523513085451049243e+00  -1.730358546658585794e+00  -1.734761133057735272e+00  -3.124836706110493356e+00  2.042147493362426758e+01
-9.342966507155736622e-02  -1.195923337264671815e+00  1.507054931207186144e+00  -1.741828834526923941e+00  -1.717637112727197213e+00  -3.121367081838668067e+00  2.045924711227416992e+01
-8.053674874939442674e-02  -1.183211124850546803e+00  1.494207736356298888e+00  -1.751072946093099603e+00  -1.704624363028472089e+00  -3.118837686168918211e+00  2.049309301376342773e+01
-6.574157887396836486e-02  -1.167909265330822954e+00  1.478832224041124910e+00  -1.762384576010848747e+00  -1.689397336305597186e+00  -3.115993037363118390e+00  2.053023099899291992e+01
-5.244316830763029458e-02  -1.153519773670123705e+00  1.464420066026624667e+00  -1.773255575135911144e+00  -1.675459096818572746e+00  -3.113486304415518102e+00  2.056805300712585449e+01
-4.284834711958040998e-02  -1.142806052822798790e+00  1.453723781914500357e+00  -1.781492618710974085e+00  -1.665313171280260462e+00  -3.111709455905180555e+00  2.060219502449035645e+01
-3.215595292699191532e-02  -1.130552513610211918e+00  1.441469030892874592e+00  -1.791060300872484135e+00  -1.653896427000184133e+00  -3.109752034238554952e+00  2.064280700683593750e+01
-2.106814831977921187e-02  -1.117375845640612653e+00  1.428314194504561208e+00  -1.801550535057833358e+00  -1.641909398669096909e+00  -3.107736943947454922e+00  2.068670892715454102e+01
-1.455846842304175937e-02  -1.109396029978549691e+00  1.420360940135211081e+00  -1.808033915221358257e+00  -1.634823757921121334e+00  -3.106566643829455021e+00  2.072388100624084473e+01
-8.645056478416179857e-03  -1.102034525264474318e+00  1.413002344178698522e+00  -1.814097392250097585e+00  -1.628396970026746438e+00  -3.105516927814579553e+00  2.075510907173156738e+01
-1.863227039353709813e-03  -1.093421675081774680e+00  1.404396936828923970e+00  -1.821247946375535776e+00  -1.620982024417721767e+00  -3.104313823443841880e+00  2.079150509834289551e+01
4.503338390647204648e-02  -1.025024032719347389e+00  1.336334649218686277e+00  -1.882212885556985071e+00  -1.570677065758225410e+00  -3.096547028512215860e+00  2.160775709152221680e+01
4.499246037624526906e-02  -1.025091083296317152e+00  1.336393874195011211e+00  -1.882156753951935713e+00  -1.570752090875764395e+00  -3.096583389784225648e+00  2.169322299957275391e+01
4.580660496774512785e-02  -1.026855494555274362e+00  1.338169644429061389e+00  -1.881938613064360943e+00  -1.567671006285316082e+00  -3.098220601183566458e+00  2.176752710342407227e+01
5.116636734457013364e-02  -1.044066252880632817e+00  1.355597415032573805e+00  -1.879335942651436220e+00  -1.542838762653153672e+00  -3.113943356626677428e+00  2.183412694931030273e+01
4.991245612297046108e-02  -1.070333199106130451e+00  1.382984045871561207e+00  -1.870291257891549819e+00  -1.526813141039329302e+00  -3.136747404623987379e+00  2.189041495323181152e+01
4.256380792989489237e-02  -1.098758163756670569e+00  1.413085684975361245e+00  -1.858426931071925914e+00  -1.523305890567701937e+00  -3.160305740766151672e+00  2.193792104721069336e+01
2.800753363059538259e-02  -1.136239752134049041e+00  1.453286145658673645e+00  -1.841745471295938685e+00  -1.529493249918139952e+00  -3.189968817871964291e+00  2.199154305458068848e+01
1.114998823965773767e-02  -1.171644723978284119e+00  1.491540155555448610e+00  -1.826120923357976267e+00  -1.542064774994841514e+00  -3.216894532644126059e+00  2.203913998603820801e+01
-9.659311328341857461e-03  -1.209768689597822799e+00  1.532891068143561242e+00  -1.811031515128313174e+00  -1.559775535028753879e+00  -3.245087872521565941e+00  2.208960103988647461e+01
-3.888735635630524712e-02  -1.257095684275011394e+00  1.584539714215448702e+00  -1.795441147360776313e+00  -1.585178576263690076e+00  -3.279238469618427132e+00  2.214382600784301758e+01
-6.813025632355618200e-02  -1.299400404163524314e+00  1.630927886402798732e+00  -1.783821389040777028e+00  -1.609306020026590289e+00  -3.309171493190287805e+00  2.219210910797119141e+01
-1.136561332096164278e-01  -1.357370115903400176e+00  1.694776515006911177e+00  -1.770334468776014525e+00  -1.642354414421715703e+00  -3.349482221675398108e+00  2.225708413124084473e+01
-1.597279227328680662e-01  -1.408850458693351015e+00  1.751649028935073904e+00  -1.759835542618139570e+00  -1.670790991815266580e+00  -3.384664219485948422e+00  2.231361103057861328e+01
-2.021726403522308146e-01  -1.452930841369550308e+00  1.800468845425048814e+00  -1.749497966728053022e+00  -1.695780446837980904e+00  -3.414241454072321602e+00  2.236587309837341309e+01
-2.833953544084160114e-01  -1.538791532936791384e+00  1.897780983576598857e+00  -1.721262360341390796e+00  -1.755600190312483377e+00  -3.471117873976396595e+00  2.245669293403625488e+01
-3.327424614055161101e-01  -1.590364823200042466e+00  1.960682308776973803e+00  -1.699213478513992293e+00  -1.803130963074396576e+00  -3.507115061035644743e+00  2.252324795722961426e+01
-3.794682829721782724e-01  -1.622563407415054115e+00  2.001883888427223646e+00  -1.684469037856404228e+00  -1.837766359018345952e+00  -3.532640992252460421e+00  2.257372307777404785e+01
-4.517410884603414445e-01  -1.657728258013989375e+00  2.047689704275536204e+00  -1.669246568913966833e+00  -1.878471437502369668e+00  -3.565629143998410910e+00  2.263548398017883301e+01
-5.064654735473137492e-01  -1.680711393548648402e+00  2.077661796822986684e+00  -1.660493510661816607e+00  -1.904655121104335436e+00  -3.590668390516285058e+00  2.267962098121643066e+01
-5.510898744111401015e-01  -1.698043358179898377e+00  2.100452483650298685e+00  -1.654874086903104669e+00  -1.923260057841098103e+00  -3.612013623102384940e+00  2.271936202049255371e+01
-5.863195774258898041e-01  -1.710434688141560855e+00  2.117048032361448673e+00  -1.651780345945179640e+00  -1.935627417608710488e+00  -3.629402338828523256e+00  2.275492501258850098e+01
-6.299256396316010864e-01  -1.723718939199510913e+00  2.135401493444885723e+00  -1.650030657705154447e+00  -1.947623460320709654e+00  -3.651483092671611530e+00  2.279655504226684570e+01
-6.811702004159716495e-01  -1.736161322043113131e+00  2.153611284033998707e+00  -1.651199783069937865e+00  -1.956948175230909470e+00  -3.678238618474797050e+00  2.283856606483459473e+01
-7.222019422629202268e-01  -1.743620942627774895e+00  2.165596976371123805e+00  -1.654774800620050001e+00  -1.960773032491633927e+00  -3.700441011945660108e+00  2.288073110580444336e+01
-8.173269798067703817e-01  -1.751721304900659248e+00  2.183985649642448124e+00  -1.673313317015960422e+00  -1.956326057706021970e+00  -3.756226319995418450e+00  2.298833203315734863e+01
-8.652570363520588614e-01  -1.749766891843735017e+00  2.187368710248348336e+00  -1.690614048397019786e+00  -1.944547259738635070e+00  -3.788800754230281953e+00  2.304870200157165527e+01
-8.851495194974337011e-01  -1.747861331400610396e+00  2.188007016566498208e+00  -1.701140786149668571e+00  -1.936224397603585778e+00  -3.804498649907506191e+00  2.308416604995727539e+01
-9.100556584657226722e-01  -1.743751888467884648e+00  2.187604173750974823e+00  -1.718893735600445893e+00  -1.921046987728748157e+00  -3.827257308300518801e+00  2.312878894805908203e+01
-9.272536357404970175e-01  -1.738502140622497194e+00  2.185273428984686461e+00  -1.734717629705357922e+00  -1.906476371945309722e+00  -3.845509568045756055e+00  2.316636800765991211e+01
-9.418693103474460315e-01  -1.731575453110409057e+00  2.181025707432175054e+00  -1.751012519441218274e+00  -1.890648142757997086e+00  -3.863108271575880437e+00  2.320708012580871582e+01
-9.542216210411957888e-01  -1.723200161951033316e+00  2.175146012461063094e+00  -1.767481838299556074e+00  -1.873958700702422320e+00  -3.879997259808618537e+00  2.324965000152587891e+01
-9.645019093002957788e-01  -1.713739421546308428e+00  2.168018234042623504e+00  -1.783978293004246041e+00  -1.856782628485647457e+00  -3.896110003019806811e+00  2.329208612442016602e+01
-9.743100061245364429e-01  -1.701305881975009093e+00  2.158243216582413027e+00  -1.803552449440770644e+00  -1.835893494697947048e+00  -3.914338381177643100e+00  2.333453893661499023e+01
-9.805666383838840261e-01  -1.690395620892772399e+00  2.149352602066564089e+00  -1.819452013598535700e+00  -1.818577388412658813e+00  -3.928523961514503782e+00  2.337406206130981445e+01
-9.852460501006596871e-01  -1.679175016243222629e+00  2.139989802816025133e+00  -1.834793005855075876e+00  -1.801535343187246063e+00  -3.941796052695337949e+00  2.341532897949218750e+01
-9.885744861847705067e-01  -1.667798009864497111e+00  2.130300150046824825e+00  -1.849556999585512784e+00  -1.784898933688183753e+00  -3.954178820708563080e+00  2.345439100265502930e+01
-9.907530129161088439e-01  -1.656143349818822053e+00  2.120138105339512080e+00  -1.864040291317312636e+00  -1.768401876677608620e+00  -3.965883668791164496e+00  2.349778604507446289e+01
-9.920396422013055826e-01  -1.641800209314721037e+00  2.107386962284795828e+00  -1.881262348462238165e+00  -1.748794809942646467e+00  -3.979229575348449899e+00  2.354774713516235352e+01
-9.921765268815043726e-01  -1.627244858159383689e+00  2.094243347368994534e+00  -1.898149839398602268e+00  -1.729602219024559240e+00  -3.991745689077786707e+00  2.359588408470153809e+01
-9.914581218193916357e-01  -1.612621529769183049e+00  2.080983640558542902e+00  -1.914516789326089707e+00  -1.711067329137597071e+00  -4.003401349427900158e+00  2.364051604270935059e+01
-9.903627270987671594e-01  -1.600616044078321032e+00  2.070076762589653896e+00  -1.927507808105991316e+00  -1.696404200290360542e+00  -4.012393918692087169e+00  2.368246293067932129e+01
-9.886212086689800671e-01  -1.586728423306171365e+00  2.057481597796529726e+00  -1.942097059854237528e+00  -1.680032286923447415e+00  -4.022194598542611743e+00  2.372891902923583984e+01
-9.867131008751055532e-01  -1.573687527218821991e+00  2.045590358540106735e+00  -1.955374168294749637e+00  -1.665161135359172206e+00  -4.030892313672559624e+00  2.377541303634643555e+01
-9.848206716513674408e-01  -1.561644608278158763e+00  2.034556571597006425e+00  -1.967373599530947814e+00  -1.651844714925010393e+00  -4.038533520304785185e+00  2.382597208023071289e+01
-9.829675691229793344e-01  -1.550706286625659125e+00  2.024479588347368519e+00  -1.978021145526010827e+00  -1.640110237055123044e+00  -4.045153297182174867e+00  2.387260413169860840e+01
-9.811550050822175351e-01  -1.540658017450246220e+00  2.015151572236643318e+00  -1.987676044138733999e+00  -1.629530865144685592e+00  -4.051069342568688114e+00  2.392035508155822754e+01
-9.502659468561382994e-01  -1.475407130098659536e+00  1.951938606929732423e+00  -2.047453967902085559e+00  -1.570608579272785299e+00  -4.091955191306938744e+00  2.473779797554016113e+01
-9.502864155023154069e-01  -1.475468501683483424e+00  1.952008350378682033e+00  -2.047398432374283317e+00  -1.570671164136186349e+00  -4.091893752072987667e+00  2.481975102424621582e+01
-9.463408684453806785e-01  -1.472624922502183686e+00  1.945984439881145889e+00  -2.044739865451155936e+00  -1.579124364872537711e+00  -4.084105023074462437e+00  2.491230702400207520e+01
-9.152713745861795758e-01  -1.457856286366571830e+00  1.911923795138207538e+00  -2.023230175642583006e+00  -1.630747021015547915e+00  -4.029149096317537371e+00  2.500767803192138672e+01
-8.697254469261421761e-01  -1.457478764335233379e+00  1.896324894550929230e+00  -1.991696794537320514e+00  -1.682385299823412339e+00  -3.958343602006212159e+00  2.509610605239868164e+01
-8.207696416520287030e-01  -1.464010675122217719e+00  1.892023070882654423e+00  -1.977667758838695278e+00  -1.735525949775361454e+00  -3.884732651785362645e+00  2.516812109947204590e+01
-7.785785169871406453e-01  -1.470945217535643224e+00  1.888783110014042421e+00  -1.960168530467883308e+00  -1.774077553172876520e+00  -3.814167673544575088e+00  2.524005413055419922e+01
-7.121392547522038541e-01  -1.485053550085279284e+00  1.887195031517490351e+00  -1.913051534159620815e+00  -1.818648198170130570e+00  -3.683553948127212596e+00  2.534581613540649414e+01
-6.488408120552158209e-01  -1.502437902108077594e+00  1.891865327805765107e+00  -1.863190503747194526e+00  -1.876187570384105996e+00  -3.572936555242175238e+00  2.544380402565002441e+01
-5.849995542477905985e-01  -1.517402960702129988e+00  1.895451198573477658e+00  -1.813497529592081214e+00  -1.911355882043032750e+00  -3.484279004149537506e+00  2.553507494926452637e+01
-5.442251243729767651e-01  -1.525102735116105279e+00  1.895901355871004057e+00  -1.779710244822618748e+00  -1.925097258642534115e+00  -3.427264118926612202e+00  2.560244894027709961e+01
-5.121869669773655431e-01  -1.528583974792358191e+00  1.893201643398992218e+00  -1.752284207345831568e+00  -1.937397394082559288e+00  -3.379423079836324284e+00  2.566205501556396484e+01
-4.895843978521154938e-01  -1.529910531244699001e+00  1.889256012530065476e+00  -1.730150318325756054e+00  -1.950454355310295540e+00  -3.341156331069374374e+00  2.570743894577026367e+01
-4.680969130127774491e-01  -1.530617387805508045e+00  1.883099711087442785e+00  -1.701487777430306103e+00  -1.970453828947068331e+00  -3.293571767150312191e+00  2.576994013786315918e+01
-4.553895955658147088e-01  -1.530285717846895821e+00  1.876185973314829170e+00  -1.673775046501082109e+00  -1.991014126639043980e+00  -3.248879295998687411e+00  2.583125090599060059e+01
-4.463034890898009976e-01  -1.527790845139332276e+00  1.866670616644153569e+00  -1.645105316003244944e+00  -2.010863140467016308e+00  -3.202209794943200460e+00  2.590838599205017090e+01
-4.403149435437514470e-01  -1.523833735317243310e+00  1.856082531225855092e+00  -1.618523275618931834e+00  -2.028159514593603774e+00  -3.158105336211438186e+00  2.597824692726135254e+01
-4.305637094052139346e-01  -1.517620557681929938e+00  1.843693473107697045e+00  -1.594398356698068397e+00  -2.043224470851843222e+00  -3.116856978650476506e+00  2.605311894416809082e+01
-4.200471876144531436e-01  -1.510175296241267340e+00  1.829969193365759139e+00  -1.570226782119553910e+00  -2.057804824025968315e+00  -3.076121116713726789e+00  2.612882614135742188e+01
-4.062534300087667916e-01  -1.501386868995791879e+00  1.815549176177434276e+00  -1.549199379101430019e+00  -2.068022216210543718e+00  -3.040012855057852015e+00  2.620708012580871582e+01
-3.953458888025549456e-01  -1.495221305629703679e+00  1.806302129606947915e+00  -1.538096215477567696e+00  -2.066279275368018808e+00  -3.020053463825051576e+00  2.625854301452636719e+01
-3.801639679998043420e-01  -1.488611890903303703e+00  1.796812361690413695e+00  -1.528076153861205100e+00  -2.057188986187781232e+00  -3.001300658957901657e+00  2.630414605140686035e+01
-3.590136311351539433e-01  -1.481652530577115989e+00  1.787161372941138637e+00  -1.519120934888316121e+00  -2.042507830995179852e+00  -2.983704370720364096e+00  2.635243201255798340e+01
-3.274477187944659917e-01  -1.472855509633117066e+00  1.775462517713901178e+00  -1.510181796162978429e+00  -2.020007944542379974e+00  -2.964657338123826591e+00  2.640695691108703613e+01
-2.956792489569268767e-01  -1.464204165832141413e+00  1.764572031893989035e+00  -1.504342720248753373e+00  -1.997005155003229504e+00  -2.949648730023739063e+00  2.645753097534179688e+01
-2.666216273498021039e-01  -1.455663316842928268e+00  1.754321709680713326e+00  -1.501391725749815720e+00  -1.975782370857704251e+00  -2.938168863315064439e+00  2.650080013275146484e+01
-2.293657629974266143e-01  -1.443002069599515380e+00  1.739755941756037316e+00  -1.500950699329504090e+00  -1.948629272293191939e+00  -2.925556412728614220e+00  2.654646897315979004e+01
-1.901364559894522799e-01  -1.427128778551927546e+00  1.722056673471126231e+00  -1.504418328450153552e+00  -1.920468696922128515e+00  -2.914175214081076604e+00  2.659394693374633789e+01
-1.500181605169146337e-01  -1.408296261047627951e+00  1.701579698803000973e+00  -1.511559753254816840e+00  -1.892076452314428892e+00  -2.903984023766026379e+00  2.664240002632141113e+01
-1.165369663797894972e-01  -1.390741531754590810e+00  1.682751369799100338e+00  -1.519894252454342620e+00  -1.868587244330441877e+00  -2.896305435452826593e+00  2.668484711647033691e+01
-8.349018542363939588e-02  -1.371888266617127705e+00  1.662708595159038794e+00  -1.530098208805204862e+00  -1.845584383251091865e+00  -2.889328762857588551e+00  2.672455811500549316e+01
-3.877053593328838588e-02  -1.343915596464727358e+00  1.633333946908414269e+00  -1.547067400310965013e+00  -1.814674084010292177e+00  -2.880678739525125653e+00  2.677435302734375000e+01
-2.484412656801104902e-03  -1.319196368647652662e+00  1.607534720719463017e+00  -1.563563872770963314e+00  -1.789752375763930203e+00  -2.874240272914650340e+00  2.682472395896911621e+01
2.595730392501112080e-02  -1.298379315407390600e+00  1.585908610013238018e+00  -1.578254737492077453e+00  -1.770202761576343597e+00  -2.869495705600650481e+00  2.686606693267822266e+01
5.268347036198611777e-02  -1.277464722092377158e+00  1.564351486681138326e+00  -1.593642334098676727e+00  -1.751767332465993476e+00  -2.865267005846087844e+00  2.690330195426940918e+01
7.769442267992360263e-02  -1.256636526707564983e+00  1.543030771139313195e+00  -1.609449821297680217e+00  -1.734466210868743197e+00  -2.861523582275913302e+00  2.694340395927429199e+01
1.052290513947861106e-01  -1.232212288875489392e+00  1.518130493056911945e+00  -1.628444962859393996e+00  -1.715315991418693287e+00  -2.857624989569563123e+00  2.699381899833679199e+01
1.260754043616486297e-01  -1.212538901546888148e+00  1.498091122834786404e+00  -1.644149347103178727e+00  -1.700718342706030839e+00  -2.854808923618775474e+00  2.703496599197387695e+01
1.415561775662236288e-01  -1.197081926756075276e+00  1.482423580517298944e+00  -1.656817569408842061e+00  -1.689839975078318624e+00  -2.852789803353587672e+00  2.706717896461486816e+01
1.629291802526111332e-01  -1.174379666443599923e+00  1.459487822009449154e+00  -1.675898221718417958e+00  -1.674726748522705755e+00  -2.850113682393575321e+00  2.711036491394042969e+01
1.851210938668736150e-01  -1.149035793119950633e+00  1.433948998691399801e+00  -1.697840103792682243e+00  -1.658903447190981595e+00  -2.847481983025700103e+00  2.717334699630737305e+01
1.992320546909111256e-01  -1.132030932600749829e+00  1.416844980473812576e+00  -1.712851545609346715e+00  -1.648774978552619785e+00  -2.845896172558699977e+00  2.721191906929016113e+01
2.095168680185986454e-01  -1.119209439456099631e+00  1.403926884557550991e+00  -1.724360037037946825e+00  -1.641365482066468928e+00  -2.844777942107974411e+00  2.724478793144226074e+01
2.233413570382611624e-01  -1.101312217294286633e+00  1.385998487293889525e+00  -1.740580057836096373e+00  -1.631341706630280441e+00  -2.843333395955899512e+00  2.728707313537597656e+01
2.314794935264861686e-01  -1.090475422947887019e+00  1.375124757835775924e+00  -1.750576586419608560e+00  -1.625397871573167841e+00  -2.842509346392987357e+00  2.732384204864501953e+01
2.422027021850986783e-01  -1.075781308117137236e+00  1.360451154600476720e+00  -1.764200737059569590e+00  -1.617525649845505065e+00  -2.841454072506811812e+00  2.736757802963256836e+01
2.484603806807736959e-01  -1.067004334290300172e+00  1.351675105766176443e+00  -1.772438491035943642e+00  -1.612928130129005488e+00  -2.840848703821048815e+00  2.740289211273193359e+01
2.540289231678486970e-01  -1.058994866192500162e+00  1.343674996677863831e+00  -1.780014752139168266e+00  -1.608805944924280418e+00  -2.840310733583323977e+00  2.743743109703063965e+01
2.616806526080111550e-01  -1.047877571083187576e+00  1.332592985842226518e+00  -1.790537923418257904e+00  -1.603146139589055608e+00  -2.839578794899361380e+00  2.748291993141174316e+01
3.043279105825993369e-01  -9.817256674847296694e-01  1.266567404025775945e+00  -1.855818732647554370e+00  -1.570688006868955711e+00  -2.837289572218671285e+00  2.829337596893310547e+01
3.042850725483372543e-01  -9.817905075744786103e-01  1.266630700465563253e+00  -1.855755937323140259e+00  -1.570743561690660428e+00  -2.837288730758396937e+00  2.838577294349670410e+01
3.070789934484743910e-01  -9.835807942104040080e-01  1.267296284068025747e+00  -1.860447796929891595e+00  -1.573604955109120240e+00  -2.842587600800722925e+00  2.848082304000854492e+01
3.181488042715243103e-01  -9.935259403415130919e-01  1.272446944049288042e+00  -1.883079086325590623e+00  -1.585624728730259392e+00  -2.867199335101624058e+00  2.855774807929992676e+01
3.288593850463367718e-01  -1.012607129684749196e+00  1.288622747620675524e+00  -1.909639308462153906e+00  -1.596107908007484255e+00  -2.892155418097324571e+00  2.860763192176818848e+01
3.347233032219367743e-01  -1.036849835208137449e+00  1.312341489455512988e+00  -1.928404325130827601e+00  -1.607013467982659094e+00  -2.914393830173750644e+00  2.865853095054626465e+01
3.354169781120859284e-01  -1.071442324974199778e+00  1.347934668644575229e+00  -1.939359262508300930e+00  -1.625049875694696055e+00  -2.943093038145914164e+00  2.871630001068115234e+01
3.276007670883860357e-01  -1.117126907657247870e+00  1.395925477436575246e+00  -1.939711499077701795e+00  -1.651727624361644331e+00  -2.980092589204113906e+00  2.877423810958862305e+01
3.065495241093731948e-01  -1.174158519195749761e+00  1.456637669580537642e+00  -1.929958382258690541e+00  -1.684986041643828258e+00  -3.024080112678767307e+00  2.884993505477905273e+01
2.692386438744875932e-01  -1.241150871450170001e+00  1.529438161841612409e+00  -1.911527276074926895e+00  -1.721558243151839918e+00  -3.073592879486481522e+00  2.892843914031982422e+01
2.353078248185758170e-01  -1.299906001299007130e+00  1.594818550580149985e+00  -1.899929459483576721e+00  -1.759383285278264708e+00  -3.119405445789420028e+00  2.900197601318359375e+01
2.161670604901759773e-01  -1.336749140623194165e+00  1.636624078365325197e+00  -1.900855727992137645e+00  -1.787195116310815735e+00  -3.151155230319417910e+00  2.904971194267272949e+01
1.991490419011752167e-01  -1.371730379332667837e+00  1.676907471702425489e+00  -1.903638667010875807e+00  -1.809449567990588648e+00  -3.183639694419618138e+00  2.910240197181701660e+01
1.807661570440250998e-01  -1.411105209755504575e+00  1.722742268054125780e+00  -1.901764705145638779e+00  -1.823542687032961851e+00  -3.222028457635854437e+00  2.915336894989013672e+01
1.644474081319744485e-01  -1.449525267727803879e+00  1.767915290115275706e+00  -1.894778910609589140e+00  -1.828854752812011597e+00  -3.260483193040169425e+00  2.920703291893005371e+01
1.510469928414996943e-01  -1.481173358393002459e+00  1.805501451140900659e+00  -1.886853164262327631e+00  -1.828742121869760595e+00  -3.293008179967319649e+00  2.925529503822326660e+01
1.324675414679257202e-01  -1.515561948972528938e+00  1.846925383297150614e+00  -1.876897322659240253e+00  -1.823310360579585065e+00  -3.330271643441648166e+00  2.931215190887451172e+01
1.150640108650389237e-01  -1.538004418896839809e+00  1.874551280752863036e+00  -1.869730219363789914e+00  -1.816015548690709913e+00  -3.356514549686147930e+00  2.935299205780029297e+01
9.348283450472649747e-02  -1.558411006333663806e+00  1.900337400812250666e+00  -1.862736642954464727e+00  -1.806437111766634906e+00  -3.382572936813858178e+00  2.939538598060607910e+01
6.780416829278745894e-02  -1.576649051021799863e+00  1.924234883755288283e+00  -1.856177015712189515e+00  -1.795238733489835425e+00  -3.408574903382618260e+00  2.943396711349487305e+01
3.839842823546302242e-02  -1.592531070829277695e+00  1.945947823982213221e+00  -1.850554726075452017e+00  -1.782989097520260913e+00  -3.434477016404395400e+00  2.947503805160522461e+01
5.661738048812203772e-03  -1.605876002915453071e+00  1.965115726743413171e+00  -1.846276992905663938e+00  -1.770154509548985899e+00  -3.460145845387144092e+00  2.951507592201232910e+01
-2.999778385841267436e-02  -1.616676938685678522e+00  1.981642751145325843e+00  -1.843470246249776956e+00  -1.757073821714485895e+00  -3.485393970245244333e+00  2.955623102188110352e+01
-7.610905523293354236e-02  -1.626328424303352449e+00  1.998005433551425902e+00  -1.842070572446802501e+00  -1.741456336614136013e+00  -3.514939138953845799e+00  2.960155797004699707e+01
-1.165782449452592573e-01  -1.631690309891027368e+00  2.008823209549662980e+00  -1.842551539432641050e+00  -1.728848243517473016e+00  -3.538753502498195758e+00  2.964541602134704590e+01
-1.662200182195192610e-01  -1.635262069433379040e+00  2.018614915744212812e+00  -1.844985325982253954e+00  -1.714475455334935283e+00  -3.566081791605782314e+00  2.968850207328796387e+01
-2.157778692180443159e-01  -1.636101030071989371e+00  2.025345414650587816e+00  -1.849176866789829177e+00  -1.701034253773035410e+00  -3.591907293104405596e+00  2.974041199684143066e+01
-2.720752385505580406e-01  -1.634236389937114176e+00  2.029927691202837448e+00  -1.855735363143327987e+00  -1.686553730418197894e+00  -3.620127386142554471e+00  2.979017710685729980e+01
-3.106218288804942773e-01  -1.631291436697877018e+00  2.031392902682137791e+00  -1.861265471456416520e+00  -1.676996728664747138e+00  -3.639015331367753348e+00  2.983343291282653809e+01
-3.547500422469695991e-01  -1.626254837438002809e+00  2.031449974608397824e+00  -1.868713992438554072e+00  -1.666361166914733793e+00  -3.660381526095804361e+00  2.987753701210021973e+01
-3.827636891944585784e-01  -1.622072114526827313e+00  2.030596678091063367e+00  -1.874126460859876886e+00  -1.659710075820108877e+00  -3.673936560855629807e+00  2.991515898704528809e+01
-4.161748920126946416e-01  -1.616054134122589581e+00  2.028636822237450232e+00  -1.881290720169239705e+00  -1.651869051625171281e+00  -3.690093516911442606e+00  2.995666408538818359e+01
-4.474692023858217738e-01  -1.609432941978076848e+00  2.025871373615411031e+00  -1.888734242347453574e+00  -1.644578196971833606e+00  -3.705365509299829441e+00  2.999768209457397461e+01
-4.764551626625586067e-01  -1.602376782615376527e+00  2.022471325040049450e+00  -1.896338422816654656e+00  -1.637847606762671049e+00  -3.719659683394905159e+00  3.003217411041259766e+01
-5.079581615479469292e-01  -1.593605563398989844e+00  2.017798210577437246e+00  -1.905428992454016424e+00  -1.630560602176496232e+00  -3.735472684780971164e+00  3.008267903327941895e+01
-5.320448625939366849e-01  -1.585948117721988737e+00  2.013392391358458156e+00  -1.913082742506752254e+00  -1.624990570353183728e+00  -3.747831489358347312e+00  3.012543392181396484e+01
-5.546892095350237639e-01  -1.577854563893651196e+00  2.008473630099357976e+00  -1.920984183756015540e+00  -1.619728090173934376e+00  -3.759747901813870641e+00  3.016045808792114258e+01
-5.718387330906864463e-01  -1.571180518808550808e+00  2.004254959546130976e+00  -1.927429000933791770e+00  -1.615736337622659669e+00  -3.768929908789433014e+00  3.019572091102600098e+01
-5.919631361619384080e-01  -1.562694721608751003e+00  1.998734012628707646e+00  -1.935498365109229013e+00  -1.611034578297108943e+00  -3.779903654061209650e+00  3.023283505439758301e+01
-6.069757082840503415e-01  -1.555902115489651294e+00  1.994193202023595290e+00  -1.941879501045615797e+00  -1.607513615949859087e+00  -3.788264663750945616e+00  3.026585698127746582e+01
-6.209616686246128836e-01  -1.549186571663138778e+00  1.989639886207609010e+00  -1.948096921816116378e+00  -1.604209817824909123e+00  -3.796211782799121082e+00  3.029949903488159180e+01
-6.369661076596777605e-01  -1.541022144557863349e+00  1.983993637598297610e+00  -1.955598868610378460e+00  -1.600423469335572335e+00  -3.805475965913968750e+00  3.033414793014526367e+01
-6.485023141469525854e-01  -1.534779577281812912e+00  1.979616558732610443e+00  -1.961331580680116815e+00  -1.597663481730235091e+00  -3.812329009240592370e+00  3.036804294586181641e+01
-6.614228227635514656e-01  -1.527342179143750478e+00  1.974401234844496145e+00  -1.968052339827918829e+00  -1.594557771299310645e+00  -3.820173977377205432e+00  3.040630793571472168e+01
-6.705866627142000880e-01  -1.521702191878138599e+00  1.970442554148720049e+00  -1.973093015240678483e+00  -1.592341153389248198e+00  -3.825855417544342885e+00  3.044073605537414551e+01
-6.807339133422622979e-01  -1.514945666446025463e+00  1.965782402240456861e+00  -1.978992557600690816e+00  -1.589863993109985607e+00  -3.832265912864780688e+00  3.048413610458374023e+01
-6.895963230285246937e-01  -1.508562894696088286e+00  1.961450688381294327e+00  -1.984468193509890455e+00  -1.587686785698585012e+00  -3.837946449467729337e+00  3.052241611480712891e+01
-6.975498759249258995e-01  -1.502454920136337968e+00  1.957396159468746788e+00  -1.989628600623777999e+00  -1.585711739195785341e+00  -3.843138940238178591e+00  3.055999612808227539e+01
-7.490106765342039452e-01  -1.440392389719693966e+00  1.912131547848837210e+00  -2.042591114570146971e+00  -1.570711792120659922e+00  -3.890641742679683546e+00  3.137843394279479980e+01
-7.489520906848676773e-01  -1.440458007044254529e+00  1.912174851867724845e+00  -2.042567806250935369e+00  -1.570760467890348622e+00  -3.890579246803733682e+00  3.146018290519714355e+01
-7.483537517971168285e-01  -1.441799321839678072e+00  1.913564804885624637e+00  -2.040552119208884463e+00  -1.575503449262408040e+00  -3.887561896012046159e+00  3.154076004028320312e+01
-7.423667612808415583e-01  -1.451365984132641174e+00  1.923364738945912089e+00  -2.025648449074922475e+00  -1.608095009957519750e+00  -3.865142593283195982e+00  3.160922312736511230e+01
-7.286813777499787648e-01  -1.461726737104264373e+00  1.933370161462074632e+00  -2.008722339229359832e+00  -1.638092277863043122e+00  -3.838633021625570851e+00  3.165929698944091797e+01
-7.093354244491409943e-01  -1.472973807085477205e+00  1.943535323462737274e+00  -1.989503085158747631e+00  -1.669783335995894902e+00  -3.807004185065408830e+00  3.170629811286926270e+01
-6.889108012657150226e-01  -1.483908240193240857e+00  1.952828975084524687e+00  -1.969873701541172473e+00  -1.703257689548244969e+00  -3.772557671351746134e+00  3.175252199172973633e+01
-6.714115639944902014e-01  -1.492453489171179370e+00  1.959721895883324683e+00  -1.953625164780584456e+00  -1.731170870684685781e+00  -3.741945033383908825e+00  3.179259109497070312e+01
-6.450008390158279425e-01  -1.502979033463379466e+00  1.967611729902137174e+00  -1.931708482135147342e+00  -1.766796102679212055e+00  -3.696237866516871140e+00  3.185475993156433105e+01
-6.115630887550151940e-01  -1.512221762194442931e+00  1.973334008070674717e+00  -1.908711402279634761e+00  -1.800008391864210466e+00  -3.641069497442283254e+00  3.191009092330932617e+01
-5.719327297547032174e-01  -1.520748900936798265e+00  1.977471112652549712e+00  -1.883196777195033533e+00  -1.830744510836909811e+00  -3.578325572543045840e+00  3.198775410652160645e+01
-5.434701963343906428e-01  -1.525317418493573385e+00  1.978909075714737176e+00  -1.866335748834183406e+00  -1.847543920174960164e+00  -3.536344344883496138e+00  3.203469109535217285e+01
-5.084366289546151663e-01  -1.529456415824473225e+00  1.979144921658225087e+00  -1.847078720485869852e+00  -1.863921090780824130e+00  -3.487363278492321417e+00  3.208903503417968750e+01
-4.672635067243522400e-01  -1.532506015005823841e+00  1.977388971081186497e+00  -1.826144652917607303e+00  -1.879114935285461030e+00  -3.432326826669934050e+00  3.215174007415771484e+01
-4.265296752614897713e-01  -1.533667992934383051e+00  1.973470358903522737e+00  -1.806696027158132267e+00  -1.891015426949373079e+00  -3.379069583844933611e+00  3.221622490882873535e+01
-3.915782855261147333e-01  -1.532803868990108676e+00  1.968099902192008699e+00  -1.791484462460369187e+00  -1.898282666214473835e+00  -3.334606978426271073e+00  3.227725505828857422e+01
-3.580996975207648703e-01  -1.530081056283095542e+00  1.960957134863946294e+00  -1.778310471485732513e+00  -1.902598095363522646e+00  -3.292750988768820442e+00  3.232635998725891113e+01
-3.309854041443278660e-01  -1.526266634561407542e+00  1.953482916691232418e+00  -1.768760654088632478e+00  -1.904638310313908178e+00  -3.259088060097932615e+00  3.237362813949584961e+01
-3.095429706324530628e-01  -1.522119178496820879e+00  1.946427723437857082e+00  -1.761953659838794373e+00  -1.905623794597417486e+00  -3.232576601801595118e+00  3.241977405548095703e+01
-2.810745443869411275e-01  -1.515094581184071032e+00  1.935565941900692977e+00  -1.754045813043106250e+00  -1.906255068762842342e+00  -3.197656354936632361e+00  3.247081208229064941e+01
-2.434888694556791577e-01  -1.503218877945034393e+00  1.918547492502305829e+00  -1.745892364779106920e+00  -1.905620576244865916e+00  -3.152293865422407304e+00  3.255249214172363281e+01
-2.185992650280041971e-01  -1.493778560050110116e+00  1.905830382678741941e+00  -1.742286844955544645e+00  -1.903074012812490778e+00  -3.123891953454019710e+00  3.260671901702880859e+01
-1.946972104250921376e-01  -1.484932627106072545e+00  1.894465906020752044e+00  -1.740681927947894891e+00  -1.896707887133728399e+00  -3.101873135658919978e+00  3.265870594978332520e+01
-1.673003692332297732e-01  -1.474936494176109392e+00  1.882230778700952456e+00  -1.740971836821282537e+00  -1.886077309098916466e+00  -3.082013913823007378e+00  3.270306491851806641e+01
-1.426680476680175502e-01  -1.465291853337096661e+00  1.870931142972153793e+00  -1.743176048467521611e+00  -1.874897240045928726e+00  -3.066956478511920103e+00  3.274670100212097168e+01
-1.122116211855930246e-01  -1.451928383196146477e+00  1.855757924345240895e+00  -1.748460004486583230e+00  -1.859517528570854061e+00  -3.050560737741844886e+00  3.279624509811401367e+01
-7.653145440351760698e-02  -1.434288271881261068e+00  1.836190484980392057e+00  -1.757735394734410761e+00  -1.839380015787417832e+00  -3.033488044241857917e+00  3.284728598594665527e+01
-4.675302309392925793e-02  -1.418060102868285988e+00  1.818516979923643362e+00  -1.767615922916647264e+00  -1.820637607586955475e+00  -3.020556831926745289e+00  3.289897203445434570e+01
-1.831328984656721559e-02  -1.401341869330899215e+00  1.800545726271792546e+00  -1.778797904684097375e+00  -1.800716246535080778e+00  -3.009053483706632726e+00  3.294673490524291992e+01
8.626548850807391061e-03  -1.384033077120824018e+00  1.782125575506267268e+00  -1.791134230802271077e+00  -1.779764756786893720e+00  -2.998784000908557790e+00  3.299664592742919922e+01
3.391310263419489157e-02  -1.366084598451411836e+00  1.763239482338452291e+00  -1.804568194004170678e+00  -1.758217267810818996e+00  -2.989557526891682304e+00  3.304210996627807617e+01
5.716734543198239565e-02  -1.347909727278149283e+00  1.744297985684740482e+00  -1.818705893179336286e+00  -1.736848148115968549e+00  -2.981368906622732684e+00  3.308606791496276855e+01
7.488975790844489000e-02  -1.333021365762760979e+00  1.728831194288179773e+00  -1.830608951700924081e+00  -1.719656466872756084e+00  -2.975311867270494570e+00  3.313017702102661133e+01
9.412865096524489217e-02  -1.315843404225248925e+00  1.711077402999416464e+00  -1.844681482494724634e+00  -1.700147866556005027e+00  -2.968851460158444144e+00  3.317615413665771484e+01
1.084642332808699039e-01  -1.302343780845985677e+00  1.697177276427379589e+00  -1.855946208248525409e+00  -1.685068845941967375e+00  -2.964078286444132182e+00  3.321961593627929688e+01
1.237242603072824104e-01  -1.287336515231923606e+00  1.681779776514479963e+00  -1.868688314735987177e+00  -1.668575316636204064e+00  -2.959074067678057585e+00  3.326919794082641602e+01
1.369132658533699087e-01  -1.273780099634099550e+00  1.667904884874405802e+00  -1.880418593900248680e+00  -1.653949937866115327e+00  -2.954800641208382483e+00  3.330978012084960938e+01
1.482229303876074211e-01  -1.261709885394098229e+00  1.655604621552581257e+00  -1.890995858799811913e+00  -1.641184551559440763e+00  -2.951181765331132301e+00  3.336172008514404297e+01
1.549242171788074163e-01  -1.254372383172960959e+00  1.648140750244780683e+00  -1.897520054075023666e+00  -1.633526832115628658e+00  -2.949043949150945032e+00  3.339697813987731934e+01
2.110166123874837041e-01  -1.183176347232948622e+00  1.576522123190952973e+00  -1.964310441244908390e+00  -1.570670413389036568e+00  -2.930619970216520542e+00  3.422110009193420410e+01
2.109655382099582255e-01  -1.183215137573348841e+00  1.576566937091003151e+00  -1.964254207730320445e+00  -1.570722333931773740e+00  -2.930634359978743220e+00  3.428188991546630859e+01
2.110471121691088470e-01  -1.183499242633338611e+00  1.576846460906777381e+00  -1.964032014233132450e+00  -1.570544411422785558e+00  -2.930915232571917883e+00  3.433038210868835449e+01
2.125661395965588452e-01  -1.187916256951977445e+00  1.581421470011914687e+00  -1.961207649791595564e+00  -1.566906348124023296e+00  -2.935598327639683092e+00  3.437514305114746094e+01
2.170297688142088510e-01  -1.199476518503974631e+00  1.593490051791239814e+00  -1.953725141513896091e+00  -1.557193872197548679e+00  -2.947864025130282783e+00  3.442155313491821289e+01
2.231337163478088748e-01  -1.214173516724013524e+00  1.608827191803652301e+00  -1.944125859747446228e+00  -1.544794051116499034e+00  -2.963354875256996479e+00  3.446633005142211914e+01
2.321916186854338648e-01  -1.236518628081462623e+00  1.632162163762902463e+00  -1.929562591334184063e+00  -1.525844909087198609e+00  -2.986852821732547625e+00  3.451087403297424316e+01
2.422394653727338587e-01  -1.267519603126586958e+00  1.664706725649064856e+00  -1.909560323027559292e+00  -1.499096886005660600e+00  -3.019646173409848089e+00  3.457131600379943848e+01
2.481596635422213537e-01  -1.302262312368814179e+00  1.701288201332577410e+00  -1.887702238550721390e+00  -1.468365621599960313e+00  -3.056923743035723007e+00  3.462283992767333984e+01
2.481780180440216199e-01  -1.328514777126038382e+00  1.729040453196339922e+00  -1.871671091821083266e+00  -1.444534088048872178e+00  -3.085633456852335144e+00  3.466693711280822754e+01
2.365832296530081535e-01  -1.377061098899988068e+00  1.780633219172477189e+00  -1.844122751360970369e+00  -1.399415993733722274e+00  -3.140536622936046740e+00  3.473928403854370117e+01
2.204570408156714123e-01  -1.409352071123324279e+00  1.815035182492439780e+00  -1.828045454524895419e+00  -1.370066883197210927e+00  -3.178998902678571881e+00  3.478508400917053223e+01
2.027582563514593872e-01  -1.435399387646850045e+00  1.842792295652364576e+00  -1.816524596196471109e+00  -1.347585817638260686e+00  -3.211525866060771506e+00  3.482825613021850586e+01
1.817774084036596349e-01  -1.460233099130451961e+00  1.869180622561802174e+00  -1.806844163612421283e+00  -1.327424390018748568e+00  -3.244097432300232953e+00  3.486890602111816406e+01
1.574914063987344903e-01  -1.483714663305491399e+00  1.894018900228527258e+00  -1.798951037320082769e+00  -1.309761507875123243e+00  -3.276735942823846059e+00  3.490396213531494141e+01
1.298750631162466362e-01  -1.505751504183983513e+00  1.917179526953277424e+00  -1.792842991731945723e+00  -1.294887952956810473e+00  -3.309459310617157257e+00  3.494623804092407227e+01
9.919245447573477037e-02  -1.526189543262157500e+00  1.938516539577652242e+00  -1.788537878840796402e+00  -1.283025437995585882e+00  -3.342048861023181772e+00  3.498732805252075195e+01
6.528429680535907664e-02  -1.545076330803997422e+00  1.958095025070914819e+00  -1.786017894272220907e+00  -1.274196969853986339e+00  -3.374555989884466811e+00  3.502742910385131836e+01
2.804822122840988641e-02  -1.562531647077420871e+00  1.976064750522052105e+00  -1.785197433707383041e+00  -1.268330594321761318e+00  -3.407054445681605870e+00  3.506688094139099121e+01
-1.221796626818871800e-02  -1.578528934647884796e+00  1.992433459773089499e+00  -1.785974568352344249e+00  -1.265281491383586143e+00  -3.439388990577755933e+00  3.510732197761535645e+01
-6.399578727294041869e-02  -1.595717411039322187e+00  2.009954300411214145e+00  -1.789015334338870389e+00  -1.265093481219048854e+00  -3.477818247085517456e+00  3.515093493461608887e+01
-1.092356056292800304e-01  -1.608295721425310632e+00  2.022754703565202039e+00  -1.793142771757244347e+00  -1.267576004339261431e+00  -3.509246460727705852e+00  3.519024395942687988e+01
-1.462994466471307931e-01  -1.617188600387223119e+00  2.031851646948464207e+00  -1.797355704720894565e+00  -1.271132132475885967e+00  -3.533874219438803976e+00  3.522922801971435547e+01
-2.025270109122665474e-01  -1.628629669936422886e+00  2.043669701713064057e+00  -1.805002135717657552e+00  -1.278746746019859160e+00  -3.569811891588468455e+00  3.527135896682739258e+01
-2.492027018148412765e-01  -1.636519077694259749e+00  2.051983013152776092e+00  -1.812386844608258940e+00  -1.286870835394422485e+00  -3.598575182145356877e+00  3.531387996673583984e+01
-3.040124670143775631e-01  -1.644118597376472479e+00  2.060294875359125921e+00  -1.822197018628884280e+00  -1.298298547815459614e+00  -3.631497940100357980e+00  3.535753297805786133e+01
-3.479192878561647717e-01  -1.648986260882821853e+00  2.065940356796176047e+00  -1.830959128975010231e+00  -1.308824963363083071e+00  -3.657405061002494406e+00  3.540355801582336426e+01
-4.059356580322130981e-01  -1.653776545508721441e+00  2.072098223552425900e+00  -1.843845796672756165e+00  -1.324608633407457603e+00  -3.691274014579784435e+00  3.545355296134948730e+01
-4.371440750725135160e-01  -1.655603487904670601e+00  2.074833733050500673e+00  -1.851389476931705858e+00  -1.334038044344204366e+00  -3.709421276015234525e+00  3.549193096160888672e+01
-4.741210608182999664e-01  -1.657032119370345669e+00  2.077583195157825635e+00  -1.860942578095105659e+00  -1.346094862769792400e+00  -3.730911312444032291e+00  3.552926206588745117e+01
-5.020734762101390913e-01  -1.657530104022971074e+00  2.079300641225250601e+00  -1.868702104912205897e+00  -1.355932373474542985e+00  -3.747233361496697057e+00  3.556187796592712402e+01
-5.350109775031874904e-01  -1.657446300560083685e+00  2.080930778319925789e+00  -1.878477731997831413e+00  -1.368361066742318499e+00  -3.766618703751611008e+00  3.560009598731994629e+01
-5.596264770660503984e-01  -1.656909998998271405e+00  2.081864496792363184e+00  -1.886249187032031926e+00  -1.378232513660314851e+00  -3.781221584123574786e+00  3.563612508773803711e+01
-5.882956191180745975e-01  -1.655753412697120730e+00  2.082646622218150778e+00  -1.895773018891755868e+00  -1.390344018135788673e+00  -3.798372678952400605e+00  3.567004704475402832e+01
-6.094616139873245686e-01  -1.654442736334646114e+00  2.082958161420925602e+00  -1.903250481816179729e+00  -1.399788512916391170e+00  -3.811169351204327427e+00  3.570769500732421875e+01
-6.295566883974856864e-01  -1.652770542997720860e+00  2.083015606799575536e+00  -1.910724590545518353e+00  -1.409170280428391209e+00  -3.823470585569941349e+00  3.574042201042175293e+01
-6.532971190139349460e-01  -1.650227823147695005e+00  2.082792392177836405e+00  -1.920092194889519988e+00  -1.420844152349125977e+00  -3.838225413888855186e+00  3.577547812461853027e+01
-6.712606450749500908e-01  -1.647886822409682317e+00  2.082409544922137812e+00  -1.927619385325634482e+00  -1.430099058461998141e+00  -3.849587258941230772e+00  3.580694007873535156e+01
-6.882207141408258622e-01  -1.645345066838181936e+00  2.081847494785574071e+00  -1.935086354966944810e+00  -1.439182107195874138e+00  -3.860504573182744537e+00  3.584014701843261719e+01
-7.041848380217139436e-01  -1.642667169725108067e+00  2.081134494733099416e+00  -1.942401533355907262e+00  -1.448036229650135454e+00  -3.870904738718270011e+00  3.587318801879882812e+01
-7.154231982913259458e-01  -1.640629094819008316e+00  2.080524945973262874e+00  -1.947735494501793951e+00  -1.454484204550572812e+00  -3.878351674040597885e+00  3.590040111541748047e+01
