fgashi/en/graphics/results/traj_results/case1/total_positions_q2.txt
  q1     q2   q3   q4  q5   q6   t1
-7.000988165484827164e-01  -1.499840084706441701e+00  1.999703407287597656e+00  -2.269759480153219044e+00  -1.570099178944722951e+00  -4.020562950764791310e+00  0.000000000000000000e+00
-7.001107374774377945e-01  -1.499803845082418263e+00  1.999739646911621094e+00  -2.269771401082174123e+00  -1.570219341908590138e+00  -4.020550791417257130e+00  7.762694358825683594e-02
-7.010219732867639664e-01  -1.501890007649556935e+00  2.001800060272216797e+00  -2.270994488392965138e+00  -1.574715439473287404e+00  -4.017076079045430959e+00  1.619551181793212891e-01
-7.050622145282190445e-01  -1.520506207142965138e+00  2.020573139190673828e+00  -2.280034844075338185e+00  -1.610287014638082326e+00  -3.987723414097921193e+00  2.388510704040527344e-01
-6.862877050982874039e-01  -1.544626061116353810e+00  2.045145511627197266e+00  -2.275286976491109669e+00  -1.642801109944478810e+00  -3.946581665669576466e+00  3.064451217651367188e-01
-6.599715391742151382e-01  -1.566360775624410451e+00  2.067357540130615234e+00  -2.258992497120992482e+00  -1.670519653950826466e+00  -3.905559603367940724e+00  3.609459400177001953e-01
-6.404174009906213882e-01  -1.585218254719869435e+00  2.086071491241455078e+00  -2.241043869649068654e+00  -1.695072476063863576e+00  -3.868539158497945607e+00  4.079871177673339844e-01
-6.207311789142053726e-01  -1.607444588338033498e+00  2.107948303222656250e+00  -2.219102207814351857e+00  -1.722238842641012013e+00  -3.822773043309346974e+00  4.644799232482910156e-01
-6.035507361041467789e-01  -1.630438629780904591e+00  2.130460739135742188e+00  -2.195325199757711232e+00  -1.750771824513570607e+00  -3.773915115986959279e+00  5.167679786682128906e-01
-5.897877852069299820e-01  -1.653301064168111623e+00  2.152900695800781250e+00  -2.169030014668599904e+00  -1.782961193715230763e+00  -3.724111382161275685e+00  5.760729312896728516e-01
-5.792010466205042007e-01  -1.675576035176412404e+00  2.174419403076171875e+00  -2.142063442860738576e+00  -1.816492859517232716e+00  -3.673684183751241505e+00  6.309270858764648438e-01
-5.715640226947229507e-01  -1.690994087849752248e+00  2.189395904541015625e+00  -2.122134510670797169e+00  -1.840613667164937794e+00  -3.637765709553853810e+00  6.727991104125976562e-01
-5.585201422320764664e-01  -1.712166611348287404e+00  2.209309101104736328e+00  -2.093283955250875294e+00  -1.871231381093160451e+00  -3.587470118199483693e+00  7.244861125946044922e-01
-5.474184195147913101e-01  -1.726469818745748341e+00  2.223087787628173828e+00  -2.072743240986959279e+00  -1.890999619160787404e+00  -3.552006546651021779e+00  7.697420120239257812e-01
-5.317247549640100601e-01  -1.742751423512594044e+00  2.238459587097167969e+00  -2.047681633626119435e+00  -1.911475006734029591e+00  -3.510156933461324513e+00  8.128979206085205078e-01
-5.172298590289514664e-01  -1.755460087453023732e+00  2.250609397888183594e+00  -2.027595822011129201e+00  -1.925632778798238576e+00  -3.476071182881490529e+00  8.553919792175292969e-01
-4.950383345233362320e-01  -1.771609608327047169e+00  2.265778064727783203e+00  -2.000759426747457326e+00  -1.941492859517232716e+00  -3.430183474217550099e+00  9.130499362945556641e-01
-4.784334341632288101e-01  -1.781824890767232716e+00  2.275506973266601562e+00  -1.981920067464010060e+00  -1.949824158345357716e+00  -3.398912970219747365e+00  9.525921344757080078e-01
-4.561217466937463882e-01  -1.792723480855123341e+00  2.285440444946289062e+00  -1.961761776600972951e+00  -1.956837479268209279e+00  -3.363077465687887013e+00  1.004529953002929688e+00
-4.346254507647913101e-01  -1.800432984028951466e+00  2.292533636093139648e+00  -1.946112457905904591e+00  -1.960277382527486623e+00  -3.334873739873067677e+00  1.041439056396484375e+00
-4.104197661029260757e-01  -1.806943718587056935e+00  2.298368692398071289e+00  -1.931373898183004201e+00  -1.960805241261617482e+00  -3.307951513920919240e+00  1.078649044036865234e+00
-3.835042158709924820e-01  -1.812123600636617482e+00  2.303089380264282227e+00  -1.918159310017720998e+00  -1.958011929188863576e+00  -3.282767120991842091e+00  1.122757911682128906e+00
-3.429940382586877945e-01  -1.817231003438131154e+00  2.307307243347167969e+00  -1.902700726185933888e+00  -1.948721710835592091e+00  -3.250237766896383107e+00  1.172131061553955078e+00
-3.126738707171838882e-01  -1.819125000630513966e+00  2.308553218841552734e+00  -1.893550697957174123e+00  -1.938855950032369435e+00  -3.228898827229635060e+00  1.216690063476562500e+00
-2.819822470294397476e-01  -1.819173161183492482e+00  2.308133602142333984e+00  -1.886091534291402638e+00  -1.926196400319234669e+00  -3.209775988255636037e+00  1.257326126098632812e+00
-2.513387838946741226e-01  -1.817434612904683888e+00  2.305941343307495117e+00  -1.880874458943502248e+00  -1.912386242543355763e+00  -3.191600147877828419e+00  1.299081087112426758e+00
-2.210314909564417007e-01  -1.813465897236959279e+00  2.301567792892456055e+00  -1.878152195607320607e+00  -1.896801773701803029e+00  -3.174837891255513966e+00  1.336597919464111328e+00
-1.914437452899377945e-01  -1.807507340108053029e+00  2.295085430145263672e+00  -1.877672497426168263e+00  -1.880198780690328419e+00  -3.159573380147115529e+00  1.374490022659301758e+00
-1.631506125079553726e-01  -1.799953285847799123e+00  2.287117958068847656e+00  -1.879147831593648732e+00  -1.862396065388814748e+00  -3.145566765462056935e+00  1.415636062622070312e+00
-1.364515463458459976e-01  -1.791201416646138966e+00  2.277939319610595703e+00  -1.882170025502340138e+00  -1.844845596943990529e+00  -3.132830206547872365e+00  1.458997964859008789e+00
-1.070078055011194351e-01  -1.779739205037252248e+00  2.265885829925537109e+00  -1.887350861226217091e+00  -1.822906796132222951e+00  -3.119446818028585255e+00  1.501100063323974609e+00
-8.036929765810185700e-02  -1.767497364674703419e+00  2.253304958343505859e+00  -1.894042793904439748e+00  -1.801171604787008107e+00  -3.107429329548970998e+00  1.548444032669067383e+00
-6.000119844545537262e-02  -1.756299320851461232e+00  2.241790771484375000e+00  -1.900842014943258107e+00  -1.783333126698629201e+00  -3.098359171544210255e+00  1.593266963958740234e+00
-3.704339662660771637e-02  -1.741648499165670216e+00  2.226717948913574219e+00  -1.910136047993795216e+00  -1.760902706776754201e+00  -3.088222328816549123e+00  1.642514944076538086e+00
-1.908523241151982575e-02  -1.728544060383931935e+00  2.213202953338623047e+00  -1.918758217488424123e+00  -1.742428127919332326e+00  -3.080398384724752248e+00  1.680409908294677734e+00
6.595068844035267830e-04  -1.712466541920797169e+00  2.196572303771972656e+00  -1.930318657551900685e+00  -1.721136395131246388e+00  -3.071903053914205373e+00  1.724509954452514648e+00
1.277930382639169693e-02  -1.701688114796773732e+00  2.185621738433837891e+00  -1.938125435506002248e+00  -1.707576576863424123e+00  -3.066703144704000294e+00  1.761847019195556641e+00
2.903515659272670746e-02  -1.686210457478658498e+00  2.169638633728027344e+00  -1.949541870747701466e+00  -1.688514534627095998e+00  -3.059573713933126271e+00  1.807368993759155273e+00
3.882926329970359802e-02  -1.676439587269918263e+00  2.159730434417724609e+00  -1.956929032002584279e+00  -1.676729504262105763e+00  -3.055296484624044240e+00  1.843822002410888672e+00
4.966674745082855225e-02  -1.664857689534322560e+00  2.147953033447265625e+00  -1.965946976338521779e+00  -1.663721863423482716e+00  -3.050575796757833302e+00  1.879075050354003906e+00
5.743514746427536011e-02  -1.656297985707418263e+00  2.139158725738525391e+00  -1.972674194966451466e+00  -1.654478375111715138e+00  -3.047136608754293263e+00  1.914835929870605469e+00
6.281793862581253052e-02  -1.650279823933736623e+00  2.133048534393310547e+00  -1.977578941975728810e+00  -1.647740666066304982e+00  -3.044788185750142873e+00  1.939223051071166992e+00
6.925533711910247803e-02  -1.642834488545553029e+00  2.125452518463134766e+00  -1.983778778706685841e+00  -1.639600102101461232e+00  -3.041960541401998341e+00  1.970659971237182617e+00
7.640018314123153687e-02  -1.634202782307760060e+00  2.116766452789306641e+00  -1.991117779408590138e+00  -1.630680386220113576e+00  -3.038857523594991505e+00  2.008872032165527344e+00
1.258984059095382690e-01  -1.565832916890279591e+00  2.047901153564453125e+00  -2.053077999745504201e+00  -1.570494953786031544e+00  -3.015731875096456349e+00  2.819404125213623047e+00
1.258624494075775146e-01  -1.565917317067281544e+00  2.048020839691162109e+00  -2.052994076405660451e+00  -1.570770565663472951e+00  -3.015731875096456349e+00  2.889881134033203125e+00
1.267253160476684570e-01  -1.566791836415426076e+00  2.048475742340087891e+00  -2.054109398518697560e+00  -1.566334549580709279e+00  -3.018607918416158498e+00  2.972275972366333008e+00
1.340499222278594971e-01  -1.571359459553853810e+00  2.050297260284423828e+00  -2.061363999043599904e+00  -1.540665928517476857e+00  -3.037011925374166310e+00  3.047269105911254883e+00
1.510604172945022583e-01  -1.582232777272359669e+00  2.055952072143554688e+00  -2.052850071583883107e+00  -1.529300038014547169e+00  -3.073316876088277638e+00  3.124273061752319336e+00
1.558555960655212402e-01  -1.590325180684224904e+00  2.060468673706054688e+00  -2.041097942982808888e+00  -1.537836376820699513e+00  -3.098430935536519826e+00  3.176687002182006836e+00
1.525711715221405029e-01  -1.600539032612935841e+00  2.066183567047119141e+00  -2.024202648793355763e+00  -1.556108299885885060e+00  -3.128924433385030568e+00  3.234429121017456055e+00
1.372628211975097656e-01  -1.614889446889058888e+00  2.074306488037109375e+00  -1.999260250722066701e+00  -1.585481945668355763e+00  -3.170524422322408498e+00  3.307126045227050781e+00
1.022340580821037292e-01  -1.635281387959615529e+00  2.084801673889160156e+00  -1.963764492665426076e+00  -1.629613701497213185e+00  -3.228707138692037404e+00  3.400244951248168945e+00
7.161660492420196533e-02  -1.650076214467183888e+00  2.087557315826416016e+00  -1.936422650014058888e+00  -1.667918030415670216e+00  -3.272247616444722951e+00  3.472902059555053711e+00
5.569668859243392944e-02  -1.658384148274556935e+00  2.086299419403076172e+00  -1.918865982686178029e+00  -1.698537651692525685e+00  -3.300547663365499318e+00  3.517270088195800781e+00
4.568686336278915405e-02  -1.664498154317037404e+00  2.083340167999267578e+00  -1.902293030415670216e+00  -1.726639095936910451e+00  -3.328344170247213185e+00  3.570809125900268555e+00
3.833791241049766541e-02  -1.669174019490377248e+00  2.078415870666503906e+00  -1.881066624318258107e+00  -1.748662296925679982e+00  -3.360777203236715138e+00  3.625555992126464844e+00
3.314686939120292664e-02  -1.671272102986470998e+00  2.073156356811523438e+00  -1.861123387013570607e+00  -1.759571854268209279e+00  -3.388944689427511037e+00  3.673273086547851562e+00
2.666153013706207275e-02  -1.671176258717672169e+00  2.067357540130615234e+00  -1.844981495534078419e+00  -1.764810864125387013e+00  -3.412176195775167287e+00  3.708769083023071289e+00
1.307890936732292175e-02  -1.668166939412252248e+00  2.057964324951171875e+00  -1.826608482991353810e+00  -1.767472092305318654e+00  -3.440032068883077443e+00  3.759491920471191406e+00
-1.142436662782841950e-02  -1.660326306019918263e+00  2.043444633483886719e+00  -1.805741612111226857e+00  -1.766249481831685841e+00  -3.472872082387105763e+00  3.813966035842895508e+00
-3.372270265688115387e-02  -1.652005974446431935e+00  2.030612945556640625e+00  -1.791302506123678029e+00  -1.763048473988668263e+00  -3.496522728596822560e+00  3.857499122619628906e+00
-6.504851976503545075e-02  -1.639118019734517873e+00  2.012989997863769531e+00  -1.775843922291890919e+00  -1.759092156087056935e+00  -3.525121037160054982e+00  3.904251098632812500e+00
-1.013258139239709976e-01  -1.623508755360738576e+00  1.992803096771240234e+00  -1.761440102254049123e+00  -1.757461849843160451e+00  -3.553336445485250294e+00  3.950891971588134766e+00
-1.411755720721643570e-01  -1.605837647114888966e+00  1.970735073089599609e+00  -1.748416248952047169e+00  -1.757929627095357716e+00  -3.581227842961446584e+00  3.999288082122802734e+00
-1.843579451190393570e-01  -1.586393181477681935e+00  1.947002887725830078e+00  -1.737010780964986623e+00  -1.759415928517476857e+00  -3.608352724705831349e+00  4.045838117599487305e+00
-2.224343458758752945e-01  -1.568386379872457326e+00  1.926205158233642578e+00  -1.729143444691793263e+00  -1.761166397725240529e+00  -3.630289379750387013e+00  4.086264133453369141e+00
-2.617695967303674820e-01  -1.548989597951070607e+00  1.903970718383789062e+00  -1.723434750233785451e+00  -1.763336483632222951e+00  -3.651423517857686818e+00  4.129485130310058594e+00
-3.096764723407190445e-01  -1.523251358662740529e+00  1.875278949737548828e+00  -1.719368759785787404e+00  -1.764894787465230763e+00  -3.676020208989278615e+00  4.172964096069335938e+00
-3.495157400714319351e-01  -1.499995533620015919e+00  1.850013256072998047e+00  -1.718745533620015919e+00  -1.763935391102926076e+00  -3.695644919072286427e+00  4.217416048049926758e+00
-3.885996977435510757e-01  -1.476008717213765919e+00  1.824005603790283203e+00  -1.720100704823629201e+00  -1.761082474385396779e+00  -3.714574400578634084e+00  4.255203008651733398e+00
-4.337981382953088882e-01  -1.446639362965719044e+00  1.792763233184814453e+00  -1.724106613789693654e+00  -1.755555454884664357e+00  -3.735888306294576466e+00  4.300692081451416016e+00
-4.769466559039514664e-01  -1.417523209248678029e+00  1.762023925781250000e+00  -1.730127159749166310e+00  -1.748506371174947560e+00  -3.755776230488912404e+00  4.348093986511230469e+00
-5.041859785663049820e-01  -1.398343865071431935e+00  1.742138385772705078e+00  -1.735139671956197560e+00  -1.743183437977926076e+00  -3.768200222645894826e+00  4.385823965072631836e+00
-5.363405386554163101e-01  -1.374825779591695607e+00  1.717713356018066406e+00  -1.742060009633199513e+00  -1.735990349446431935e+00  -3.783104483281270802e+00  4.423205137252807617e+00
-5.714324156390588882e-01  -1.347508732472554982e+00  1.689418315887451172e+00  -1.751534287129537404e+00  -1.726519409810201466e+00  -3.799398485814229787e+00  4.471358060836791992e+00
-5.979159514056604507e-01  -1.325609509144918263e+00  1.666873931884765625e+00  -1.759749237691060841e+00  -1.718079392110006154e+00  -3.812085692082540334e+00  4.514864921569824219e+00
-6.263063589679163101e-01  -1.300234619771138966e+00  1.641119003295898438e+00  -1.770039383565084279e+00  -1.707145039235250294e+00  -3.826271120701925099e+00  4.558875083923339844e+00
-6.476829687701624039e-01  -1.279691044484273732e+00  1.620419502258300781e+00  -1.779022041951314748e+00  -1.697913948689595998e+00  -3.837245289479390919e+00  4.596605062484741211e+00
-6.671288649188440445e-01  -1.260034386311666310e+00  1.600439071655273438e+00  -1.788364235554830373e+00  -1.688622299824849904e+00  -3.847464863454000294e+00  4.637047052383422852e+00
-6.808922926532190445e-01  -1.244884316121236623e+00  1.585429668426513672e+00  -1.795895878468648732e+00  -1.680949513112203419e+00  -3.855048720036641896e+00  4.675396919250488281e+00
-6.996911207782190445e-01  -1.223778072987691701e+00  1.564215183258056641e+00  -1.807349030171529591e+00  -1.670136276875631154e+00  -3.865519825612203419e+00  4.716756105422973633e+00
-7.156608740435999039e-01  -1.204541508351461232e+00  1.544965267181396484e+00  -1.818009678517476857e+00  -1.659753624592916310e+00  -3.875032488499776662e+00  4.770008087158203125e+00
-7.291725317584436539e-01  -1.187235180531637013e+00  1.527800083160400391e+00  -1.827987972890035451e+00  -1.649766747151510060e+00  -3.883311335240499318e+00  4.815212965011596680e+00
-7.404659430133264664e-01  -1.172086064015523732e+00  1.512563705444335938e+00  -1.837330166493551076e+00  -1.640367333089010060e+00  -3.890523974095479787e+00  4.865121126174926758e+00
-7.485945860492151382e-01  -1.160772625599996388e+00  1.501363277435302734e+00  -1.844669644032613576e+00  -1.633233849202291310e+00  -3.895891014729635060e+00  4.901504993438720703e+00
-7.555478254901331070e-01  -1.150789086018697560e+00  1.491445541381835938e+00  -1.851517502461568654e+00  -1.626628224049703419e+00  -3.900611702595845998e+00  4.942274093627929688e+00
-7.976053396808069351e-01  -1.077324692402974904e+00  1.418400764465332031e+00  -1.912019077931539357e+00  -1.570602718983785451e+00  -3.939285341893331349e+00  5.770046949386596680e+00
-7.975457350360315445e-01  -1.077432457600728810e+00  1.418496608734130859e+00  -1.911910835896627248e+00  -1.570602718983785451e+00  -3.939069811497823537e+00  5.845366954803466797e+00
-7.955191771136682632e-01  -1.084167305623189748e+00  1.425767421722412109e+00  -1.908613030110494435e+00  -1.580482308064595998e+00  -3.931581560765401662e+00  5.942909955978393555e+00
-7.784832159625452164e-01  -1.124626461659566701e+00  1.468794345855712891e+00  -1.888610188161031544e+00  -1.632490936909810841e+00  -3.885994974766866505e+00  6.033246994018554688e+00
-7.305153051959436539e-01  -1.191633526478902638e+00  1.541383743286132812e+00  -1.856026951466695607e+00  -1.694209400807515919e+00  -3.809138600026265919e+00  6.128037929534912109e+00
-6.899078528033655289e-01  -1.250421826039449513e+00  1.605134487152099609e+00  -1.830086533223287404e+00  -1.747487370167867482e+00  -3.742238108311788380e+00  6.209948062896728516e+00
-6.509798208819788101e-01  -1.308493439351217091e+00  1.667928218841552734e+00  -1.803078953419820607e+00  -1.785490814839498341e+00  -3.680021826420919240e+00  6.279330015182495117e+00
-6.207550207721155289e-01  -1.349222485219137013e+00  1.712442398071289062e+00  -1.784586731587545216e+00  -1.797982994710103810e+00  -3.637154404317037404e+00  6.330522060394287109e+00
-5.888164679156702164e-01  -1.389437977467672169e+00  1.756286144256591797e+00  -1.768240276967183888e+00  -1.806554619465963185e+00  -3.593807999287740529e+00  6.376608133316040039e+00
-5.540841261493127945e-01  -1.435383145009176076e+00  1.806647300720214844e+00  -1.750574890767232716e+00  -1.820928875599996388e+00  -3.543368641530172169e+00  6.434371948242187500e+00
-5.192201773272913101e-01  -1.487600151692525685e+00  1.863778114318847656e+00  -1.731637779866353810e+00  -1.844533745442525685e+00  -3.485643927250997365e+00  6.493238925933837891e+00
-4.912613073932092789e-01  -1.532062832509176076e+00  1.912835597991943359e+00  -1.717366043721334279e+00  -1.867119137440816701e+00  -3.436162535344259084e+00  6.551938056945800781e+00
-4.553421179400842789e-01  -1.586464707051412404e+00  1.973059177398681641e+00  -1.701618973408834279e+00  -1.893817249928609669e+00  -3.375298325215474904e+00  6.621366977691650391e+00
-4.305494467364709976e-01  -1.621662918721334279e+00  2.012115001678466797e+00  -1.692744557057515919e+00  -1.908850018178121388e+00  -3.336000029240743459e+00  6.671046018600463867e+00
-4.012363592730920914e-01  -1.662076298390523732e+00  2.057042121887207031e+00  -1.684025112782613576e+00  -1.923834625874654591e+00  -3.290854517613546193e+00  6.725064992904663086e+00
-3.725703398333948257e-01  -1.701268498097554982e+00  2.100831508636474609e+00  -1.676493469868795216e+00  -1.936650101338521779e+00  -3.247182671223775685e+00  6.787094116210937500e+00
-3.447082678424280289e-01  -1.738482777272359669e+00  2.142405509948730469e+00  -1.671120468770162404e+00  -1.947606865559713185e+00  -3.205366913472310841e+00  6.839424133300781250e+00
-3.199151198016565445e-01  -1.768324677144185841e+00  2.176024913787841797e+00  -1.668217960988179982e+00  -1.955626312886373341e+00  -3.171710316334859669e+00  6.890905141830444336e+00
-2.903025786029260757e-01  -1.800349060689107716e+00  2.212268352508544922e+00  -1.666827026997701466e+00  -1.963802162800924123e+00  -3.134256426488057912e+00  6.942469120025634766e+00
-2.546480337726038101e-01  -1.836678330098287404e+00  2.253652572631835938e+00  -1.667702023183004201e+00  -1.970707241688863576e+00  -3.090510908757345021e+00  7.012915134429931641e+00
-2.362330595599573257e-01  -1.854615513478414357e+00  2.275028228759765625e+00  -1.669764820729390919e+00  -1.972672764454976857e+00  -3.068008963261739552e+00  7.058661937713623047e+00
-2.166073958026331070e-01  -1.870874230061666310e+00  2.294318914413452148e+00  -1.672859493886129201e+00  -1.971785847340719044e+00  -3.046932999287740529e+00  7.097594976425170898e+00
-1.887219587909143570e-01  -1.888308350239888966e+00  2.315071344375610352e+00  -1.677812878285543263e+00  -1.965947930012838185e+00  -3.023208681737081349e+00  7.141798973083496094e+00
-1.569765249835413101e-01  -1.903055969868795216e+00  2.333356380462646484e+00  -1.684157196675435841e+00  -1.954931084309713185e+00  -3.001725498829976857e+00  7.188193082809448242e+00
-1.045382658587854507e-01  -1.920934025441304982e+00  2.355810642242431641e+00  -1.696006600056783498e+00  -1.931159321461812794e+00  -2.972489182149068654e+00  7.262525081634521484e+00
-6.780559221376591950e-02  -1.929470841084615529e+00  2.367217779159545898e+00  -1.705852333699361623e+00  -1.911607090626851857e+00  -2.955222908650533498e+00  7.309572935104370117e+00
-3.109723726381474762e-02  -1.934891049061910451e+00  2.375377893447875977e+00  -1.717665974293844044e+00  -1.889644924794332326e+00  -2.939742151890889943e+00  7.356182098388671875e+00
-9.229818927209976209e-04  -1.936749283467428029e+00  2.379355907440185547e+00  -1.729191605244771779e+00  -1.870008770619527638e+00  -2.927999560032979787e+00  7.398355960845947266e+00
2.832808718085289001e-02  -1.936137978230611623e+00  2.380877494812011719e+00  -1.742899243031637013e+00  -1.849952046071187794e+00  -2.917263332997457326e+00  7.438699007034301758e+00
6.188242137432098389e-02  -1.932720486317769826e+00  2.379595518112182617e+00  -1.760217014943258107e+00  -1.825484100972310841e+00  -2.905484978352681935e+00  7.490272045135498047e+00
9.781075268983840942e-02  -1.925358597432271779e+00  2.374838590621948242e+00  -1.781288448964254201e+00  -1.797024075184957326e+00  -2.893358771000997365e+00  7.540199995040893555e+00
1.166076362133026123e-01  -1.919974629079000294e+00  2.370704889297485352e+00  -1.793736759816304982e+00  -1.781798664723531544e+00  -2.887104097996846974e+00  7.579401016235351562e+00
1.384017020463943481e-01  -1.912204567586080373e+00  2.364426136016845703e+00  -1.810179058705465138e+00  -1.762521092091695607e+00  -2.879902664815084279e+00  7.618016958236694336e+00
1.619574427604675293e-01  -1.901557270680562794e+00  2.355439186096191406e+00  -1.829775158558980763e+00  -1.740521732960836232e+00  -2.872233692799703419e+00  7.664809942245483398e+00
1.763186603784561157e-01  -1.893739525471822560e+00  2.348753213882446289e+00  -1.842871014271871388e+00  -1.726615254079000294e+00  -2.867560927067891896e+00  7.698122024536132812e+00
1.895889490842819214e-01  -1.885490242634908498e+00  2.341456174850463867e+00  -1.856122795735494435e+00  -1.713523213063375294e+00  -2.863282982503072560e+00  7.730406045913696289e+00
2.048489898443222046e-01  -1.874698940907613576e+00  2.331870317459106445e+00  -1.873019520436422169e+00  -1.697578255330220998e+00  -2.858429972325460255e+00  7.764045000076293945e+00
2.186349630355834961e-01  -1.863931957875387013e+00  2.322105169296264648e+00  -1.888706032429830373e+00  -1.682807747517720998e+00  -2.854080502186910451e+00  7.804390907287597656e+00
2.285964787006378174e-01  -1.855442825947896779e+00  2.314388275146484375e+00  -1.900530163441793263e+00  -1.672126118336812794e+00  -2.850977245961324513e+00  7.837167024612426758e+00
2.394811511039733887e-01  -1.845143620167867482e+00  2.304982662200927734e+00  -1.914464775715963185e+00  -1.660125080739156544e+00  -2.847537819539205373e+00  7.880043029785156250e+00
2.491913586854934692e-01  -1.835455719624654591e+00  2.296164035797119141e+00  -1.927404705678121388e+00  -1.649382893239156544e+00  -2.844530646000997365e+00  7.918767929077148438e+00
2.560598254203796387e-01  -1.828165833150045216e+00  2.289370536804199219e+00  -1.937094036732808888e+00  -1.641434017811910451e+00  -2.842445437108175099e+00  7.948722124099731445e+00
2.621017396450042725e-01  -1.821223560963765919e+00  2.282900333404541016e+00  -1.945824448262349904e+00  -1.634361092244283498e+00  -2.840504709874288380e+00  7.982350111007690430e+00
2.674957811832427979e-01  -1.814832989369527638e+00  2.276741504669189453e+00  -1.953810993825094044e+00  -1.627959076558248341e+00  -2.838946644459859669e+00  8.016704082489013672e+00
2.724583745002746582e-01  -1.808838192616597951e+00  2.271026134490966797e+00  -1.961054150258199513e+00  -1.621940914784566701e+00  -2.837376658116475880e+00  8.043692111968994141e+00
3.174943327903747559e-01  -1.742583576832906544e+00  2.206792831420898438e+00  -2.035246674214498341e+00  -1.570578877125875294e+00  -2.824124399815694630e+00  8.873434066772460938e+00
3.174104392528533936e-01  -1.742631260548726857e+00  2.206792831420898438e+00  -2.034946743641988576e+00  -1.570686642323629201e+00  -2.824136320744649709e+00  8.956838130950927734e+00
3.177343904972076416e-01  -1.742715660725728810e+00  2.206577301025390625e+00  -2.035666290913717091e+00  -1.568636719380513966e+00  -2.825442377720968068e+00  9.025103092193603516e+00
3.220618367195129395e-01  -1.742679897938863576e+00  2.202731132507324219e+00  -2.042921368275777638e+00  -1.545485321675435841e+00  -2.843020502720968068e+00  9.097414970397949219e+00
3.358586728572845459e-01  -1.744010273610250294e+00  2.196692466735839844e+00  -2.040007416401998341e+00  -1.529156033192769826e+00  -2.877721611653463185e+00  9.166579961776733398e+00
3.458920717239379883e-01  -1.746516052876607716e+00  2.192211627960205078e+00  -2.029154602681295216e+00  -1.534922901784078419e+00  -2.909786287938253224e+00  9.224725008010864258e+00
3.477500081062316895e-01  -1.749693218861715138e+00  2.187766551971435547e+00  -2.015916172658101857e+00  -1.552343670521871388e+00  -2.946787182484762013e+00  9.280334949493408203e+00
3.335932791233062744e-01  -1.754189316426412404e+00  2.180505752563476562e+00  -1.990050141011373341e+00  -1.585493866597310841e+00  -3.010076586400167287e+00  9.362565994262695312e+00
3.038533031940460205e-01  -1.757342163716451466e+00  2.171388149261474609e+00  -1.962553326283590138e+00  -1.617540661488668263e+00  -3.070429388676778615e+00  9.428997039794921875e+00
2.692941427230834961e-01  -1.757570091878072560e+00  2.157549858093261719e+00  -1.939660374318258107e+00  -1.643244568501607716e+00  -3.120632950459615529e+00  9.493087053298950195e+00
2.367959320545196533e-01  -1.752870384846822560e+00  2.138044357299804688e+00  -1.914944473897115529e+00  -1.656660381947652638e+00  -3.168798987065450490e+00  9.561224937438964844e+00
2.081577479839324951e-01  -1.743734661732808888e+00  2.115879535675048828e+00  -1.886067692433492482e+00  -1.653579060231344044e+00  -3.216234032307760060e+00  9.620378017425537109e+00
1.834994554519653320e-01  -1.731828991566793263e+00  2.093175888061523438e+00  -1.859084908162252248e+00  -1.643208805714742482e+00  -3.256899420415059865e+00  9.678735017776489258e+00
1.603268384933471680e-01  -1.718389336262838185e+00  2.070376396179199219e+00  -1.836958233510152638e+00  -1.630153004323140919e+00  -3.290770594273702443e+00  9.728518009185791016e+00
1.225297152996063232e-01  -1.693967167531148732e+00  2.033092975616455078e+00  -1.808260265980855763e+00  -1.608668629323140919e+00  -3.335568491612569630e+00  9.790163993835449219e+00
8.177099376916885376e-02  -1.665757004414693654e+00  1.993438243865966797e+00  -1.783219162617818654e+00  -1.595156971608297169e+00  -3.374903027211324513e+00  9.845021963119506836e+00
2.826816588640213013e-02  -1.627165619526998341e+00  1.942342758178710938e+00  -1.757003132496969044e+00  -1.581981007252828419e+00  -3.419556442891256154e+00  9.911456108093261719e+00
-2.687722841371709137e-02  -1.585386101399556935e+00  1.888720035552978516e+00  -1.730881992970601857e+00  -1.573096577321187794e+00  -3.462963883076803029e+00  9.972082138061523438e+00
-6.612712541689091950e-02  -1.553916756306783498e+00  1.849450588226318359e+00  -1.713324371968404591e+00  -1.571010414754049123e+00  -3.494258467351095021e+00  1.002382493019104004e+01
-1.354206244098108414e-01  -1.502932373677388966e+00  1.787168979644775391e+00  -1.686783615742818654e+00  -1.574080292378560841e+00  -3.543344561253682912e+00  1.010520100593566895e+01
-1.810854117022913101e-01  -1.473119560872213185e+00  1.751757621765136719e+00  -1.672799889241353810e+00  -1.578300301228658498e+00  -3.570588890706197560e+00  1.015255212783813477e+01
-2.285841147052209976e-01  -1.443223301564351857e+00  1.717162132263183594e+00  -1.661609951649801076e+00  -1.583671394978658498e+00  -3.596479717885152638e+00  1.019730401039123535e+01
-3.131292502032678726e-01  -1.386884991322652638e+00  1.653769016265869141e+00  -1.649257008229390919e+00  -1.593190495167867482e+00  -3.639251057301656544e+00  1.029086995124816895e+01
-3.715518156634729507e-01  -1.343612972890035451e+00  1.606775760650634766e+00  -1.647673908864156544e+00  -1.598693672810689748e+00  -3.667705599461690724e+00  1.035160398483276367e+01
-4.375031630145471695e-01  -1.301385704671041310e+00  1.561496257781982422e+00  -1.645731274281637013e+00  -1.608297173176900685e+00  -3.696471516286031544e+00  1.042228198051452637e+01
-4.870532194720667007e-01  -1.273721996937887013e+00  1.532112598419189453e+00  -1.643968407307760060e+00  -1.618091885243551076e+00  -3.716072146092550099e+00  1.047647404670715332e+01
-5.190404097186487320e-01  -1.254737202321187794e+00  1.512192249298095703e+00  -1.644591633473531544e+00  -1.624338452016012013e+00  -3.728759590779439748e+00  1.051653194427490234e+01
-5.422628561602991226e-01  -1.239455525075094044e+00  1.496380329132080078e+00  -1.646726433430806935e+00  -1.628402535115377248e+00  -3.737948958073751271e+00  1.055180597305297852e+01
-5.678837935077112320e-01  -1.219798866902486623e+00  1.476412296295166016e+00  -1.651319805775777638e+00  -1.632130924855367482e+00  -3.749270741139547169e+00  1.058931303024291992e+01
-5.907586256610315445e-01  -1.200299088154928029e+00  1.456659793853759766e+00  -1.657340351735250294e+00  -1.634325329457418263e+00  -3.759981695805684865e+00  1.062902092933654785e+01
-6.071241537677209976e-01  -1.184670750294820607e+00  1.441111564636230469e+00  -1.663037602101461232e+00  -1.635224644337789357e+00  -3.767948929463521779e+00  1.066574907302856445e+01
-6.287043730365198257e-01  -1.161742989216939748e+00  1.418220996856689453e+00  -1.672631565724508107e+00  -1.635440174733297169e+00  -3.779510323201314748e+00  1.070836400985717773e+01
-6.414721647845667007e-01  -1.146726433430806935e+00  1.403236389160156250e+00  -1.679515663777486623e+00  -1.634924713765279591e+00  -3.786578718815938771e+00  1.074491596221923828e+01
-6.555479208575647476e-01  -1.127874199544088185e+00  1.384801387786865234e+00  -1.688354794179097951e+00  -1.634061161671773732e+00  -3.794857565556661427e+00  1.078342700004577637e+01
-6.723201910602014664e-01  -1.102910820637838185e+00  1.360258102416992188e+00  -1.701343361531392873e+00  -1.631627861653463185e+00  -3.805472675954000294e+00  1.083746194839477539e+01
-6.823189894305627945e-01  -1.086156670247213185e+00  1.343644142150878906e+00  -1.710985485707418263e+00  -1.629289929066793263e+00  -3.812361303959981740e+00  1.087802290916442871e+01
-6.909392515765588882e-01  -1.070445839558736623e+00  1.328204631805419922e+00  -1.720580403004781544e+00  -1.626603905354635060e+00  -3.818627421055929005e+00  1.091865897178649902e+01
-6.980727354632776382e-01  -1.056041065846578419e+00  1.314117908477783203e+00  -1.730151001607076466e+00  -1.623523060475484669e+00  -3.824306074772970021e+00  1.096318411827087402e+01
-7.060330549823206070e-01  -1.037945095692769826e+00  1.296617984771728516e+00  -1.743283096943990529e+00  -1.619291130696431935e+00  -3.831230703984395802e+00  1.101318693161010742e+01
-7.107208410846155289e-01  -1.026740376149312794e+00  1.285298347473144531e+00  -1.752085987721578419e+00  -1.616113964711324513e+00  -3.835556093846456349e+00  1.105711102485656738e+01
-7.152407805072229507e-01  -1.014708820973531544e+00  1.273451805114746094e+00  -1.761452500020162404e+00  -1.612565342579976857e+00  -3.840096775685445607e+00  1.110032200813293457e+01
-7.178304831134241226e-01  -1.007398907338277638e+00  1.266313076019287109e+00  -1.767400566731588185e+00  -1.610215489064351857e+00  -3.842720572148458302e+00  1.113540005683898926e+01
-7.278536001788538101e-01  -9.417904059039514664e-01  1.201008319854736328e+00  -1.830350701008931935e+00  -1.570578877125875294e+00  -3.869545523320333302e+00  1.194332408905029297e+01
-7.278173605548303726e-01  -9.418500105487268570e-01  1.201080322265625000e+00  -1.830146614705220998e+00  -1.570746723805562794e+00  -3.869593445454732716e+00  1.202399110794067383e+01
-7.286089102374475601e-01  -9.442952314959924820e-01  1.203895092010498047e+00  -1.829331223164693654e+00  -1.573791805897847951e+00  -3.867616478596822560e+00  1.210181403160095215e+01
-7.348187605487268570e-01  -9.635756651507776382e-01  1.223910808563232422e+00  -1.823143307362691701e+00  -1.595732514058248341e+00  -3.853706900273458302e+00  1.216559696197509766e+01
-7.369287649737756851e-01  -1.021431748067037404e+00  1.286424160003662109e+00  -1.806113545094625294e+00  -1.645953957234517873e+00  -3.812529150639669240e+00  1.226371097564697266e+01
-7.312219778644006851e-01  -1.056999508534566701e+00  1.325880527496337891e+00  -1.794000927601949513e+00  -1.669320885335103810e+00  -3.788016859685079396e+00  1.231108808517456055e+01
-7.139580885516565445e-01  -1.120791737233297169e+00  1.396887779235839844e+00  -1.771646324788228810e+00  -1.702002350484029591e+00  -3.743771378193990529e+00  1.239359402656555176e+01
-6.820915381060999039e-01  -1.193682972584859669e+00  1.480999946594238281e+00  -1.761380497609273732e+00  -1.736374203358785451e+00  -3.682466093693868459e+00  1.249312090873718262e+01
-6.763966719256799820e-01  -1.238436524068013966e+00  1.542006492614746094e+00  -1.777426544819967091e+00  -1.788775746022359669e+00  -3.625521246586934865e+00  1.258982110023498535e+01
-6.707499662982385757e-01  -1.292132679616109669e+00  1.605853080749511719e+00  -1.768264118825094044e+00  -1.821588341389791310e+00  -3.583384339009420216e+00  1.266592097282409668e+01
-6.692631880389612320e-01  -1.381070915852681935e+00  1.709052562713623047e+00  -1.741819683705465138e+00  -1.870488468800679982e+00  -3.526990238820211232e+00  1.276715111732482910e+01
-6.719244162188928726e-01  -1.426621262227193654e+00  1.763593196868896484e+00  -1.734875504170553029e+00  -1.899391476308004201e+00  -3.496522728596822560e+00  1.282970094680786133e+01
-6.739504973040979507e-01  -1.464847866688863576e+00  1.809402465820312500e+00  -1.730210606251851857e+00  -1.921449009572164357e+00  -3.472405020390645802e+00  1.288794994354248047e+01
-6.749337355243127945e-01  -1.498173538838521779e+00  1.848995208740234375e+00  -1.725017372761861623e+00  -1.937753025685445607e+00  -3.452672306691304982e+00  1.293695712089538574e+01
-6.754854361163538101e-01  -1.531427685414449513e+00  1.888301372528076172e+00  -1.719668690358297169e+00  -1.951071087514058888e+00  -3.433478418980733693e+00  1.298165011405944824e+01
-6.750777403460901382e-01  -1.569681469594137013e+00  1.934196472167968750e+00  -1.713995758687154591e+00  -1.963693920766012013e+00  -3.412164274846212209e+00  1.304003095626831055e+01
-6.725118795977991226e-01  -1.607624355946676076e+00  1.979349136352539062e+00  -1.708791081105367482e+00  -1.973584000264303029e+00  -3.391521040593282521e+00  1.309574198722839355e+01
-6.686514059649866226e-01  -1.634322468434469044e+00  2.010773658752441406e+00  -1.705696884785787404e+00  -1.979577843342916310e+00  -3.377442900334493459e+00  1.313804697990417480e+01
-6.616256872760217789e-01  -1.665013615285054982e+00  2.047349929809570312e+00  -1.702590767537252248e+00  -1.985739533101217091e+00  -3.361424032841817677e+00  1.318129491806030273e+01
-6.539886633502405289e-01  -1.689554993306295216e+00  2.076618671417236328e+00  -1.700683418904439748e+00  -1.990007225667135060e+00  -3.348784033452169240e+00  1.322228407859802246e+01
-6.449492613421838882e-01  -1.713065926228658498e+00  2.104773521423339844e+00  -1.699568096791402638e+00  -1.993327919636861623e+00  -3.336646620427266896e+00  1.326167702674865723e+01
-6.323369185077112320e-01  -1.739322010670797169e+00  2.136642932891845703e+00  -1.699304882680074513e+00  -1.995844666157857716e+00  -3.322904650365011037e+00  1.331139993667602539e+01
-6.204193274127405289e-01  -1.759716335927144826e+00  2.161731243133544922e+00  -1.699868504201070607e+00  -1.996576134358541310e+00  -3.312372748051778615e+00  1.335222506523132324e+01
-6.021001974688928726e-01  -1.785673920308248341e+00  2.193996906280517578e+00  -1.702350918446676076e+00  -1.995017830525533498e+00  -3.298702303563253224e+00  1.341092109680175781e+01
-5.817192236529749039e-01  -1.808418575917379201e+00  2.222824096679687500e+00  -1.706476036702291310e+00  -1.990762535725728810e+00  -3.286349360142843068e+00  1.346510791778564453e+01
-5.565055052386682632e-01  -1.830275837575094044e+00  2.251244068145751953e+00  -1.713612381611959279e+00  -1.982143227254049123e+00  -3.273756806050435841e+00  1.352694797515869141e+01
-5.365918318377893570e-01  -1.843764607106344044e+00  2.269324779510498047e+00  -1.720520321522847951e+00  -1.973224465047017873e+00  -3.265537802373067677e+00  1.357418298721313477e+01
-5.143883864032190445e-01  -1.854279820119039357e+00  2.284385919570922852e+00  -1.728963200245992482e+00  -1.961140934620992482e+00  -3.258193556462423146e+00  1.362416005134582520e+01
-4.931195417987268570e-01  -1.860310856495992482e+00  2.294043302536010742e+00  -1.737957779561178029e+00  -1.948146168385640919e+00  -3.252765719090596974e+00  1.366653800010681152e+01
-4.647777716266077164e-01  -1.864399258290426076e+00  2.302083253860473633e+00  -1.751282040272847951e+00  -1.929445091878072560e+00  -3.247002903615133107e+00  1.370980811119079590e+01
-4.393370787249963882e-01  -1.865262810383931935e+00  2.306204557418823242e+00  -1.763790432606832326e+00  -1.912038628255025685e+00  -3.242857042943136037e+00  1.375008606910705566e+01
-4.074342886554163101e-01  -1.863583866749898732e+00  2.308097839355468750e+00  -1.779969517384664357e+00  -1.889225308095113576e+00  -3.238447968159810841e+00  1.380340600013732910e+01
-3.749921957599084976e-01  -1.859435860310689748e+00  2.307307243347167969e+00  -1.797598663960592091e+00  -1.864074532185689748e+00  -3.234577719365255177e+00  1.385153198242187500e+01
-3.374784628497522476e-01  -1.852050129567281544e+00  2.303520917892456055e+00  -1.818657700215474904e+00  -1.833624188099996388e+00  -3.230803791676656544e+00  1.389969897270202637e+01
-3.063438574420374039e-01  -1.844016377125875294e+00  2.298260927200317383e+00  -1.836958233510152638e+00  -1.806231323872701466e+00  -3.228011910115377248e+00  1.395291709899902344e+01
-2.767313162433069351e-01  -1.834520165120260060e+00  2.291239738464355469e+00  -1.855906788502828419e+00  -1.779473129902974904e+00  -3.225759331380025685e+00  1.399892497062683105e+01
-2.536886374102991226e-01  -1.825732056294576466e+00  2.284409761428833008e+00  -1.872504059468404591e+00  -1.757090393696920216e+00  -3.224129740391866505e+00  1.403816294670104980e+01
-2.323249022113245132e-01  -1.816631142293111623e+00  2.276908874511718750e+00  -1.888202492390767873e+00  -1.735978428517476857e+00  -3.222728077565328419e+00  1.407812690734863281e+01
-2.166073958026331070e-01  -1.809078041707174123e+00  2.270690441131591797e+00  -1.900386635457174123e+00  -1.720416847859517873e+00  -3.221745316182271779e+00  1.411504793167114258e+01
-1.987808386432092789e-01  -1.799665753041402638e+00  2.262770652770996094e+00  -1.914932552968160451e+00  -1.702086273823873341e+00  -3.220702950154439748e+00  1.414819812774658203e+01
-1.827877203570764664e-01  -1.790553871785299123e+00  2.255030632019042969e+00  -1.928843800221578419e+00  -1.685242001210347951e+00  -3.219864432011739552e+00  1.418838310241699219e+01
-1.687849203692834976e-01  -1.781789127980367482e+00  2.247494220733642578e+00  -1.941567246113912404e+00  -1.670531574879781544e+00  -3.219229284917012990e+00  1.423162412643432617e+01
-1.587508360492151382e-01  -1.775219265614644826e+00  2.241683006286621094e+00  -1.950669113789693654e+00  -1.660077397023336232e+00  -3.218809906636373341e+00  1.426047992706298828e+01
-1.476491133319299820e-01  -1.767545525227681935e+00  2.234937191009521484e+00  -1.960970226918355763e+00  -1.648351971303121388e+00  -3.218187157307760060e+00  1.430214500427246094e+01
-1.400483290301721695e-01  -1.761850182210103810e+00  2.229928970336914062e+00  -1.968621079121724904e+00  -1.639935795460836232e+00  -3.217863623295919240e+00  1.433685803413391113e+01
-7.385951677431279450e-02  -1.697923485432760060e+00  2.170166015625000000e+00  -2.043257061635152638e+00  -1.570447270070211232e+00  -3.215634886418477834e+00  1.515551209449768066e+01
-7.394344011415654450e-02  -1.698055092488424123e+00  2.170261859893798828e+00  -2.043148819600240529e+00  -1.570627037678853810e+00  -3.215634886418477834e+00  1.524864602088928223e+01
-7.196551958192998200e-02  -1.698222939168111623e+00  2.169782638549804688e+00  -2.041662041340963185e+00  -1.565627400075094044e+00  -3.218055311833516896e+00  1.533815002441406250e+01
-5.759174028505498200e-02  -1.698978249226705373e+00  2.165409564971923828e+00  -2.031493488942281544e+00  -1.535906140004293263e+00  -3.234230581914083302e+00  1.540936899185180664e+01
-3.813487688173466950e-02  -1.701592270527974904e+00  2.161191940307617188e+00  -2.010651890431539357e+00  -1.519253079091207326e+00  -3.257714096699849904e+00  1.547365307807922363e+01
-2.525931993593388825e-02  -1.706171814595357716e+00  2.156387329101562500e+00  -1.983011547719137013e+00  -1.524912182484762013e+00  -3.284312788640157521e+00  1.553544807434082031e+01
-2.535516420473271637e-02  -1.711530987416402638e+00  2.149773597717285156e+00  -1.952923599873678029e+00  -1.543903175984517873e+00  -3.312073294316427052e+00  1.559857797622680664e+01
-3.375846544374638825e-02  -1.716351334248678029e+00  2.142213821411132812e+00  -1.926325146351949513e+00  -1.565051857625142873e+00  -3.337473694478170216e+00  1.565422701835632324e+01
-4.592734972109013825e-02  -1.721530262623922169e+00  2.133767127990722656e+00  -1.902437035237447560e+00  -1.589066330586568654e+00  -3.363221232091085255e+00  1.571668100357055664e+01
-5.998927751650029450e-02  -1.726817433034078419e+00  2.124422073364257812e+00  -1.879723374043599904e+00  -1.614159409199849904e+00  -3.389460150395528615e+00  1.576622295379638672e+01
-7.757646242250615387e-02  -1.733003918324605763e+00  2.112285137176513672e+00  -1.852968041096822560e+00  -1.643904034291402638e+00  -3.419245068226949513e+00  1.583200311660766602e+01
-9.710580507387334137e-02  -1.739286247883931935e+00  2.098483562469482422e+00  -1.825301949177877248e+00  -1.673073116933004201e+00  -3.448562447224752248e+00  1.589384603500366211e+01
-1.221979300128381851e-01  -1.747187439595357716e+00  2.079745769500732422e+00  -1.786205593739644826e+00  -1.712528530751363576e+00  -3.483918968831197560e+00  1.597581911087036133e+01
-1.455634276019495132e-01  -1.755592171345845998e+00  2.060552120208740234e+00  -1.739025417958394826e+00  -1.766836945210592091e+00  -3.523335758839742482e+00  1.607057094573974609e+01
-1.567967573748987320e-01  -1.756407086049215138e+00  2.050225257873535156e+00  -1.714067761098043263e+00  -1.797107998524801076e+00  -3.544230763112203419e+00  1.612639212608337402e+01
-1.754983107196252945e-01  -1.752870384846822560e+00  2.040053844451904297e+00  -1.693487946187154591e+00  -1.826431099568502248e+00  -3.562034670506612599e+00  1.617182898521423340e+01
-2.034681479083459976e-01  -1.745485130940572560e+00  2.027977943420410156e+00  -1.673087422047750294e+00  -1.857552830372945607e+00  -3.580341402684346974e+00  1.622542309761047363e+01
-2.353461424456995132e-01  -1.735233608876363576e+00  2.013744354248046875e+00  -1.654534165059224904e+00  -1.888422314320699513e+00  -3.599187437688009084e+00  1.626827812194824219e+01
-2.579687277423303726e-01  -1.726218048726217091e+00  2.002698898315429688e+00  -1.643008534108297169e+00  -1.907267395650045216e+00  -3.611970726643697560e+00  1.630483913421630859e+01
-2.878091971026819351e-01  -1.711747471486226857e+00  1.986154079437255859e+00  -1.630031887684957326e+00  -1.927215401326314748e+00  -3.628683869038717091e+00  1.634254598617553711e+01
-3.260415236102502945e-01  -1.689111534749166310e+00  1.961870193481445312e+00  -1.616754833851949513e+00  -1.945700470601217091e+00  -3.649183336888448537e+00  1.638746595382690430e+01
-3.592746893512170914e-01  -1.666692082081929982e+00  1.938305377960205078e+00  -1.608132187520162404e+00  -1.956106011067525685e+00  -3.666567627583638966e+00  1.642761301994323730e+01
-3.932874838458459976e-01  -1.641395870839254201e+00  1.912200927734375000e+00  -1.601954762135640919e+00  -1.962758843098775685e+00  -3.684131209050313771e+00  1.647068810462951660e+01
-4.273241201983850601e-01  -1.613510433827535451e+00  1.884132385253906250e+00  -1.598165337239400685e+00  -1.965708080922262013e+00  -3.701479498540059865e+00  1.650758314132690430e+01
-4.543831984149377945e-01  -1.590205017720357716e+00  1.860627174377441406e+00  -1.596606079732076466e+00  -1.965648476277486623e+00  -3.715401474629537404e+00  1.654608201980590820e+01
-4.940908590899866226e-01  -1.553437058125631154e+00  1.824077606201171875e+00  -1.596654240285054982e+00  -1.962148014699117482e+00  -3.735696617756978810e+00  1.658937811851501465e+01
-5.195916334735315445e-01  -1.528322521840230763e+00  1.799196243286132812e+00  -1.598189179097310841e+00  -1.957508865986959279e+00  -3.748839680348531544e+00  1.662669992446899414e+01
-5.498879591571252945e-01  -1.496830765401021779e+00  1.768600463867187500e+00  -1.601835076008931935e+00  -1.949464623128072560e+00  -3.765025440846578419e+00  1.665927410125732422e+01
-5.727871100055139664e-01  -1.471908871327535451e+00  1.744235038757324219e+00  -1.605984989796773732e+00  -1.941588703786031544e+00  -3.777629200612203419e+00  1.669600892066955566e+01
-5.944393316852014664e-01  -1.447478596364156544e+00  1.720360755920410156e+00  -1.610878292714254201e+00  -1.932166401539937794e+00  -3.789609972630636037e+00  1.673120808601379395e+01
-6.148451010333459976e-01  -1.423432652150289357e+00  1.696725368499755859e+00  -1.616442982350484669e+00  -1.921904865895406544e+00  -3.801183287297384084e+00  1.675722813606262207e+01
-6.667454878436487320e-01  -1.358332459126607716e+00  1.633380413055419922e+00  -1.635057274495260060e+00  -1.888650242482320607e+00  -3.832045618687764943e+00  1.684722495079040527e+01
-6.837938467608850601e-01  -1.335438076649801076e+00  1.611088275909423828e+00  -1.642852608357564748e+00  -1.875079456959859669e+00  -3.842720572148458302e+00  1.688027596473693848e+01
-7.040551344500940445e-01  -1.307534519826070607e+00  1.583764553070068359e+00  -1.653095070515767873e+00  -1.857229057942525685e+00  -3.855540100728170216e+00  1.691921997070312500e+01
-7.226021925555627945e-01  -1.280686203633443654e+00  1.557686805725097656e+00  -1.663385216389791310e+00  -1.839450184498922169e+00  -3.867712322865621388e+00  1.695599699020385742e+01
-7.362697760211389664e-01  -1.260190312062398732e+00  1.537466526031494141e+00  -1.672319714223043263e+00  -1.824501339589254201e+00  -3.877177302037374318e+00  1.699517393112182617e+01
-7.519872824298303726e-01  -1.235656086598531544e+00  1.513545513153076172e+00  -1.683329884205953419e+00  -1.805811230336324513e+00  -3.888103548680440724e+00  1.703400611877441406e+01
-7.661584059344690445e-01  -1.212499920521871388e+00  1.490953922271728516e+00  -1.694099251423970998e+00  -1.787637058888570607e+00  -3.898586575184957326e+00  1.707053303718566895e+01
-7.790582815753381851e-01  -1.190435234700338185e+00  1.469321250915527344e+00  -1.704941097890035451e+00  -1.769426647816793263e+00  -3.908506695424215138e+00  1.711478710174560547e+01
-7.928217093097131851e-01  -1.165422264729635060e+00  1.444753170013427734e+00  -1.717893902455465138e+00  -1.747643295918599904e+00  -3.919612948094503224e+00  1.715695500373840332e+01
-8.027966658221643570e-01  -1.146078888569967091e+00  1.425479888916015625e+00  -1.728315655385152638e+00  -1.730403725300924123e+00  -3.928179089223043263e+00  1.720014595985412598e+01
-8.119080702411096695e-01  -1.127598587666646779e+00  1.407512187957763672e+00  -1.739049736653463185e+00  -1.713942829762594044e+00  -3.936122242604390919e+00  1.723815202713012695e+01
-8.200009504901331070e-01  -1.110712353383199513e+00  1.390694618225097656e+00  -1.749243084584371388e+00  -1.697902027760640919e+00  -3.943598333989278615e+00  1.728150391578674316e+01
-8.269303480731409195e-01  -1.095204655324117482e+00  1.375446796417236328e+00  -1.758645836506978810e+00  -1.682963673268453419e+00  -3.950367514287130177e+00  1.732110500335693359e+01
-8.329847494708459976e-01  -1.081123654042379201e+00  1.361504077911376953e+00  -1.767496887837545216e+00  -1.669632259999410451e+00  -3.956466023121969044e+00  1.735966205596923828e+01
-8.383920828448694351e-01  -1.068468395863668263e+00  1.348986625671386719e+00  -1.775652233754293263e+00  -1.657691303883687794e+00  -3.962072674428121388e+00  1.740154409408569336e+01
-8.437989393817346695e-01  -1.055261913930074513e+00  1.335726737976074219e+00  -1.784610573445455373e+00  -1.644755188618795216e+00  -3.967859093342916310e+00  1.745076012611389160e+01
-8.483427206622522476e-01  -1.043529812489644826e+00  1.324083805084228516e+00  -1.792885128651754201e+00  -1.633426014577047169e+00  -3.972926918660299123e+00  1.749696803092956543e+01
-8.660505453692834976e-01  -9.754031340228479507e-01  1.256323337554931641e+00  -1.852032963429586232e+00  -1.570566956196920216e+00  -4.007767025624410451e+00  1.830704903602600098e+01
-8.660143057452600601e-01  -9.754508177386682632e-01  1.256431102752685547e+00  -1.851805035267965138e+00  -1.570638958607808888e+00  -4.007719103490011037e+00  1.838061594963073730e+01
-8.701027075396936539e-01  -9.852531591998499039e-01  1.259497642517089844e+00  -1.857849423085347951e+00  -1.583395783101217091e+00  -4.000614706669942677e+00  1.848826193809509277e+01
-8.834942022906702164e-01  -1.028610054646627248e+00  1.275500297546386719e+00  -1.880310837422506154e+00  -1.632191006337301076e+00  -3.968374554310933888e+00  1.856364893913269043e+01
-8.717449347125452164e-01  -1.089668099080220998e+00  1.322083473205566406e+00  -1.879279438649312794e+00  -1.692039314900533498e+00  -3.910531584416524709e+00  1.865479803085327148e+01
-8.611591498004358414e-01  -1.133770767842428029e+00  1.379602909088134766e+00  -1.860584084187642873e+00  -1.748914066945211232e+00  -3.858103815709249318e+00  1.873296308517456055e+01
-8.445418516742151382e-01  -1.208029572163717091e+00  1.450095176696777344e+00  -1.854971233998433888e+00  -1.774977032338277638e+00  -3.806658569966451466e+00  1.882920193672180176e+01
-8.349154631244104507e-01  -1.273949925099508107e+00  1.503375530242919922e+00  -1.869913880025045216e+00  -1.799649540578023732e+00  -3.759933535252706349e+00  1.891242599487304688e+01
-8.310664335833948257e-01  -1.347808186207906544e+00  1.581045627593994141e+00  -1.867586914693013966e+00  -1.838851277028219044e+00  -3.703635994588033498e+00  1.900016212463378906e+01
-8.250482718097131851e-01  -1.395790402089254201e+00  1.635344982147216797e+00  -1.856770340596334279e+00  -1.859842602406637013e+00  -3.671323839818136037e+00  1.905953812599182129e+01
-8.190420309649866226e-01  -1.437588993703023732e+00  1.680530071258544922e+00  -1.847488228474752248e+00  -1.876206700001851857e+00  -3.648668352757589162e+00  1.910648798942565918e+01
-8.134549299823206070e-01  -1.487168614064351857e+00  1.733094215393066406e+00  -1.836382691060201466e+00  -1.895686928425924123e+00  -3.627162758504049123e+00  1.916202497482299805e+01
-8.072927633868616226e-01  -1.544470135365621388e+00  1.795135021209716797e+00  -1.822003666554586232e+00  -1.917193714772359669e+00  -3.604674641286031544e+00  1.922171902656555176e+01
-8.008545080768030289e-01  -1.608043495808736623e+00  1.865574836730957031e+00  -1.803810898457662404e+00  -1.938556019459859669e+00  -3.578843657170430959e+00  1.929295706748962402e+01
-7.931931654559534195e-01  -1.664486233388082326e+00  1.928769111633300781e+00  -1.786888901387349904e+00  -1.954295460377828419e+00  -3.555384937916890919e+00  1.936278510093688965e+01
-7.831586042987268570e-01  -1.713473621998922169e+00  1.984057426452636719e+00  -1.772377792988912404e+00  -1.966439549122945607e+00  -3.534478489552633107e+00  1.941451001167297363e+01
-7.743228117572229507e-01  -1.747894589100972951e+00  2.023149013519287109e+00  -1.762088123952047169e+00  -1.974039379750387013e+00  -3.519454542790548146e+00  1.945654392242431641e+01
-7.646115461932581070e-01  -1.781669441853658498e+00  2.061666488647460938e+00  -1.752037827168599904e+00  -1.980752770100728810e+00  -3.504082743321554005e+00  1.949679613113403320e+01
-7.540496031390588882e-01  -1.814281288777486623e+00  2.099034786224365234e+00  -1.742299381886617482e+00  -1.986710373555318654e+00  -3.489178482686178029e+00  1.953783893585205078e+01
-7.404297033893030289e-01  -1.852085892354146779e+00  2.142250061035156250e+00  -1.731661621724263966e+00  -1.992608372365133107e+00  -3.471434418355123341e+00  1.958152198791503906e+01
-7.260311285602014664e-01  -1.887936417256490529e+00  2.183956623077392578e+00  -1.722271267567769826e+00  -1.996983830128804982e+00  -3.454289738331929982e+00  1.962738013267517090e+01
-7.083113829242151382e-01  -1.927360836659566701e+00  2.229653358459472656e+00  -1.712304894124166310e+00  -1.999860588704244435e+00  -3.435131851826803029e+00  1.968322396278381348e+01
-6.829064528094690445e-01  -1.978464905415670216e+00  2.289825439453125000e+00  -1.701103512440816701e+00  -2.000580135975972951e+00  -3.409947935734884084e+00  1.977056598663330078e+01
-6.501882711993616226e-01  -2.031956497822896779e+00  2.353953599929809570e+00  -1.693811718617574513e+00  -1.996767822896138966e+00  -3.382690493260518849e+00  1.986144804954528809e+01
-6.268094221698206070e-01  -2.054668251668111623e+00  2.381884336471557617e+00  -1.693451706563131154e+00  -1.992308918629781544e+00  -3.370673720036641896e+00  1.990961909294128418e+01
-6.083229223834436539e-01  -2.067918125783101857e+00  2.398432254791259766e+00  -1.694303337727681935e+00  -1.987501923237935841e+00  -3.363532845173970998e+00  1.994408202171325684e+01
-5.729792753802698257e-01  -2.086624924336568654e+00  2.422624588012695312e+00  -1.698297325764791310e+00  -1.974519077931539357e+00  -3.352138582860128224e+00  2.000080609321594238e+01
-5.411236921893518570e-01  -2.098364178334371388e+00  2.438562154769897461e+00  -1.704809013997213185e+00  -1.959066692982808888e+00  -3.343560043965474904e+00  2.004722595214843750e+01
-5.139687697040002945e-01  -2.105246845875875294e+00  2.448783159255981445e+00  -1.711849037800924123e+00  -1.943986241017476857e+00  -3.337054077778951466e+00  2.008977699279785156e+01
-4.869096914874475601e-01  -2.109695736561910451e+00  2.456272125244140625e+00  -1.720496002827779591e+00  -1.927107636128560841e+00  -3.331075493489400685e+00  2.012809300422668457e+01
-4.601624647723596695e-01  -2.111830536519185841e+00  2.461389064788818359e+00  -1.730151001607076466e+00  -1.909029785786763966e+00  -3.325768057500020802e+00  2.016650295257568359e+01
-4.339416662799280289e-01  -2.112106148396627248e+00  2.464336872100830078e+00  -1.741100613270894826e+00  -1.888949696217672169e+00  -3.320999447499410451e+00  2.020813202857971191e+01
-3.983586470233362320e-01  -2.109851662312642873e+00  2.465510845184326172e+00  -1.757050816212789357e+00  -1.858571831380025685e+00  -3.315176550542012990e+00  2.025933194160461426e+01
-3.744171301471155289e-01  -2.106613938008443654e+00  2.464684486389160156e+00  -1.768443886433736623e+00  -1.836453739796773732e+00  -3.311498228703634084e+00  2.030009603500366211e+01
-3.520453611956995132e-01  -2.102260891591207326e+00  2.462718963623046875e+00  -1.779873196278707326e+00  -1.813735787068502248e+00  -3.308263127003804982e+00  2.034074997901916504e+01
-3.305853048907678726e-01  -2.096889321004049123e+00  2.459603548049926758e+00  -1.791806046162740529e+00  -1.791065994893209279e+00  -3.305435959492818654e+00  2.038194894790649414e+01
-3.105757872210901382e-01  -2.090713802968160451e+00  2.455577373504638672e+00  -1.804782215748922169e+00  -1.769138638173238576e+00  -3.302919689808980763e+00  2.042147493362426758e+01
-2.917655150042932632e-01  -2.083974663411275685e+00  2.450927972793579102e+00  -1.817434612904683888e+00  -1.747607533131734669e+00  -3.300631586705343068e+00  2.045924711227416992e+01
-2.777026335345667007e-01  -2.078302208577291310e+00  2.446902036666870117e+00  -1.827292267476217091e+00  -1.731446568165914357e+00  -3.298870150242940724e+00  2.049309301376342773e+01
-2.647188345538538101e-01  -2.072522465382711232e+00  2.442647933959960938e+00  -1.836826626454488576e+00  -1.716508690510885060e+00  -3.297336641942159474e+00  2.053023099899291992e+01
-2.498887220965784195e-01  -2.065399948750631154e+00  2.437279939651489258e+00  -1.848339382802144826e+00  -1.698741261159078419e+00  -3.295754973088399709e+00  2.056805300712585449e+01
-2.391584555255334976e-01  -2.059811894093648732e+00  2.433014154434204102e+00  -1.856973950062887013e+00  -1.685733143483297169e+00  -3.294556681309835255e+00  2.060219502449035645e+01
-2.272179762469690445e-01  -2.053169075642720998e+00  2.427777528762817383e+00  -1.867311302815572560e+00  -1.671430889760152638e+00  -3.293298546467916310e+00  2.064280700683593750e+01
-2.146652380572717789e-01  -2.045422856007711232e+00  2.421726226806640625e+00  -1.878416363392965138e+00  -1.656756226216451466e+00  -3.291944805775777638e+00  2.068670892715454102e+01
-2.055538336383264664e-01  -2.039331261311666310e+00  2.416825294494628906e+00  -1.886571232472554982e+00  -1.645618740712301076e+00  -3.291010443364278615e+00  2.072388100624084473e+01
-1.991041342364709976e-01  -2.034606281911031544e+00  2.413134574890136719e+00  -1.892807308827535451e+00  -1.637706104909078419e+00  -3.290447060261861623e+00  2.075510907173156738e+01
-1.932418982135217789e-01  -2.030145947133199513e+00  2.409563779830932617e+00  -1.898563210164205373e+00  -1.630572621022359669e+00  -3.289955679570333302e+00  2.079150509834289551e+01
-1.445682684527795914e-01  -1.973680798207418263e+00  2.360016822814941406e+00  -1.957336727772847951e+00  -1.570506874714986623e+00  -3.286253754292623341e+00  2.160775709152221680e+01
-1.446278730975549820e-01  -1.973752800618306935e+00  2.360088586807250977e+00  -1.957348648701803029e+00  -1.570602718983785451e+00  -3.286265675221578419e+00  2.169322299957275391e+01
-1.425536314593713882e-01  -1.973285023366109669e+00  2.359237909317016602e+00  -1.956497494374410451e+00  -1.567221943532125294e+00  -3.287415806447164357e+00  2.176752710342407227e+01
-1.256979147540491226e-01  -1.969136063252584279e+00  2.351676940917968750e+00  -1.951100651417867482e+00  -1.543975178395406544e+00  -3.295958820973531544e+00  2.183412694931030273e+01
-1.023324171649377945e-01  -1.964363876973287404e+00  2.341240406036376953e+00  -1.937118355427877248e+00  -1.527801815663472951e+00  -3.309736792241231740e+00  2.189041495323181152e+01
-8.180839220155888825e-02  -1.960850540791646779e+00  2.330660343170166016e+00  -1.917487446461812794e+00  -1.526926342641012013e+00  -3.323886934910909474e+00  2.193792104721069336e+01
-6.299811998476201325e-02  -1.956725899373189748e+00  2.316125631332397461e+00  -1.889665428792135060e+00  -1.538735214863912404e+00  -3.341379706059591115e+00  2.199154305458068848e+01
-5.274850526918584137e-02  -1.952409092579976857e+00  2.301460027694702148e+00  -1.863258186970845998e+00  -1.555808369313375294e+00  -3.356799189244405568e+00  2.203913998603820801e+01
-4.766542116274052887e-02  -1.947217289601461232e+00  2.284098148345947266e+00  -1.836598698292867482e+00  -1.576789681111470998e+00  -3.372818056737081349e+00  2.208960103988647461e+01
-4.659825960268193512e-02  -1.940634552632467091e+00  2.259391784667968750e+00  -1.804854218159810841e+00  -1.604041401539937794e+00  -3.391928497944967091e+00  2.214382600784301758e+01
-4.821664491762334137e-02  -1.934495274220601857e+00  2.234828948974609375e+00  -1.776742760335103810e+00  -1.628906075154439748e+00  -3.408593718205587209e+00  2.219210910797119141e+01
-5.286819139589482575e-02  -1.925238911305562794e+00  2.198010444641113281e+00  -1.737478081380025685e+00  -1.661527935658590138e+00  -3.430782858525411427e+00  2.225708413124084473e+01
-5.867082277406865387e-02  -1.916065994893209279e+00  2.162929534912109375e+00  -1.702962700520650685e+00  -1.688287083302633107e+00  -3.450180117283956349e+00  2.231361103057861328e+01
-6.702644029726201325e-02  -1.905358616505758107e+00  2.126243591308593750e+00  -1.669321362172262013e+00  -1.713607136403219044e+00  -3.469349924718038380e+00  2.236587309837341309e+01
-8.740693727602177887e-02  -1.881497685109273732e+00  2.066902160644531250e+00  -1.621012512837545216e+00  -1.748949829732076466e+00  -3.498008314763204396e+00  2.245669293403625488e+01
-1.078594366656702164e-01  -1.857445065175191701e+00  2.023808002471923828e+00  -1.586208168660299123e+00  -1.772087875996724904e+00  -3.517944876347677052e+00  2.252324795722961426e+01
-1.343177000628870132e-01  -1.831750694905416310e+00  1.986824989318847656e+00  -1.559294048939840138e+00  -1.788404289876119435e+00  -3.535041395817891896e+00  2.257372307777404785e+01
-1.682694594012659195e-01  -1.801607910786763966e+00  1.948859691619873047e+00  -1.536206547413961232e+00  -1.805487934743062794e+00  -3.551970545445577443e+00  2.263548398017883301e+01
-2.012141386615198257e-01  -1.772065464650289357e+00  1.915615081787109375e+00  -1.519415203724996388e+00  -1.823434654866353810e+00  -3.567509714757100880e+00  2.267962098121643066e+01
-2.312944571124475601e-01  -1.744285885487691701e+00  1.886336326599121094e+00  -1.506929699574605763e+00  -1.839666191731588185e+00  -3.581048552189962209e+00  2.271936202049255371e+01
-2.566502729998987320e-01  -1.719408337269918263e+00  1.861657619476318359e+00  -1.497694794331685841e+00  -1.852074448262349904e+00  -3.592370096837179005e+00  2.275492501258850098e+01
-2.962968985186975601e-01  -1.677997891102926076e+00  1.821957111358642578e+00  -1.486037079487935841e+00  -1.869229141865865529e+00  -3.609778467808858693e+00  2.279655504226684570e+01
-3.303335348712366226e-01  -1.640532318745748341e+00  1.786486148834228516e+00  -1.478936497365133107e+00  -1.881241623555318654e+00  -3.624742333089010060e+00  2.283856606483459473e+01
-3.648732344256799820e-01  -1.600862805043355763e+00  1.749709129333496094e+00  -1.474307362233297169e+00  -1.890556160603658498e+00  -3.639922205601827443e+00  2.288073110580444336e+01
-4.595983664142053726e-01  -1.486065689717428029e+00  1.643395423889160156e+00  -1.472292248402730763e+00  -1.901369396840230763e+00  -3.682154480610982716e+00  2.298833203315734863e+01
-5.040062109576624039e-01  -1.428910557423726857e+00  1.590352535247802734e+00  -1.476633373891012013e+00  -1.898732010518209279e+00  -3.702653948460714162e+00  2.304870200157165527e+01
-5.346983114825647476e-01  -1.390024964009420216e+00  1.554344654083251953e+00  -1.480711762105123341e+00  -1.895506683980123341e+00  -3.717042509709493459e+00  2.308416604995727539e+01
-5.647299925433557632e-01  -1.353058163319722951e+00  1.519954204559326172e+00  -1.485089604054586232e+00  -1.891287151967183888e+00  -3.730844084416524709e+00  2.312878894805908203e+01
-5.939000288592737320e-01  -1.317255322133199513e+00  1.486713886260986328e+00  -1.491014305745260060e+00  -1.884970013295308888e+00  -3.744226757680074513e+00  2.316636800765991211e+01
-6.216304937945764664e-01  -1.282124344502584279e+00  1.454323768615722656e+00  -1.498450104390279591e+00  -1.876290623341695607e+00  -3.757333819066182912e+00  2.320708012580871582e+01
-6.478984991656702164e-01  -1.248180691395894826e+00  1.422377586364746094e+00  -1.507433239613668263e+00  -1.865153614674703419e+00  -3.770165268574849904e+00  2.324965000152587891e+01
-6.769240538226526382e-01  -1.209120098744527638e+00  1.385879993438720703e+00  -1.519427601491109669e+00  -1.850372139607564748e+00  -3.784973208104268849e+00  2.329208612442016602e+01
-6.987560431109827164e-01  -1.178474251423970998e+00  1.357071876525878906e+00  -1.529993359242574513e+00  -1.836897198353902638e+00  -3.796522680913106740e+00  2.333453893661499023e+01
-7.182138601886194351e-01  -1.149902645741597951e+00  1.329545974731445312e+00  -1.541196171437398732e+00  -1.822451416646138966e+00  -3.807497564946309865e+00  2.337406206130981445e+01
-7.351430098163049820e-01  -1.123020474110738576e+00  1.304103851318359375e+00  -1.553057018910543263e+00  -1.807537857686178029e+00  -3.817812506352559865e+00  2.341532897949218750e+01
-7.497814337359827164e-01  -1.098093334828512013e+00  1.280219554901123047e+00  -1.564775292073385060e+00  -1.792575661336080373e+00  -3.827564779912130177e+00  2.345439100265502930e+01
-7.624300161944788101e-01  -1.074496571217672169e+00  1.257652759552001953e+00  -1.576612774525777638e+00  -1.777650658284322560e+00  -3.836682383214132130e+00  2.349778604507446289e+01
-7.770322004901331070e-01  -1.043470207844869435e+00  1.227851390838623047e+00  -1.593056027089254201e+00  -1.755759541188375294e+00  -3.848723236714498341e+00  2.354774713516235352e+01
-7.871511618243616226e-01  -1.018819157277242482e+00  1.203847408294677734e+00  -1.607700173054830373e+00  -1.737224880849019826e+00  -3.858283583317891896e+00  2.359588408470153809e+01
-7.939007917987268570e-01  -9.993818441974084976e-01  1.184934139251708984e+00  -1.620053116475240529e+00  -1.722023312245504201e+00  -3.865795437489644826e+00  2.364051604270935059e+01
-7.993319670306604507e-01  -9.814665953265588882e-01  1.167134284973144531e+00  -1.632010761891500294e+00  -1.707001511250631154e+00  -3.872971836720601857e+00  2.368246293067932129e+01
-8.044388929950159195e-01  -9.617183844195764664e-01  1.147706031799316406e+00  -1.645898644124166310e+00  -1.689581696187154591e+00  -3.880819384251729787e+00  2.372891902923583984e+01
-8.083236853228967789e-01  -9.441273848163049820e-01  1.130289554595947266e+00  -1.658899609242574513e+00  -1.673661057149068654e+00  -3.887756172810689748e+00  2.377541303634643555e+01
-8.113325277911584976e-01  -9.287765661822717789e-01  1.114969730377197266e+00  -1.671060387288228810e+00  -1.659429852162496388e+00  -3.893950287495748341e+00  2.382597208023071289e+01
-8.136346975909631851e-01  -9.154160658465784195e-01  1.101721763610839844e+00  -1.682237927113668263e+00  -1.646601502095357716e+00  -3.899245802556173146e+00  2.387260413169860840e+01
-8.152893225299280289e-01  -9.039362112628381851e-01  1.089995384216308594e+00  -1.692144695912496388e+00  -1.635068241749898732e+00  -3.903990093861715138e+00  2.392035508155822754e+01
-7.958310286151331070e-01  -8.370030562030237320e-01  1.022965908050537109e+00  -1.756918732319967091e+00  -1.570459190999166310e+00  -3.937631909047262013e+00  2.473779797554016113e+01
-7.959030310260217789e-01  -8.371108214007776382e-01  1.023025989532470703e+00  -1.756967369710103810e+00  -1.570590798054830373e+00  -3.937536064778463185e+00  2.481975102424621582e+01
-8.009741942035120132e-01  -8.391955534564417007e-01  1.028823375701904297e+00  -1.755071942006246388e+00  -1.577412907277242482e+00  -3.934552733098165334e+00  2.491230702400207520e+01
-8.388713041888635757e-01  -8.581274191485803726e-01  1.078017234802246094e+00  -1.740248982106344044e+00  -1.620909516011373341e+00  -3.910136047993795216e+00  2.500767803192138672e+01
-8.633406797992151382e-01  -9.093049208270471695e-01  1.149646282196044922e+00  -1.724525753651754201e+00  -1.634744946156637013e+00  -3.875224177037374318e+00  2.509610605239868164e+01
-8.809645811664026382e-01  -9.605439344989221695e-01  1.208997726440429688e+00  -1.727788273488179982e+00  -1.657583538685933888e+00  -3.847261253987447560e+00  2.516812109947204590e+01
-9.000147024737756851e-01  -1.000172917042867482e+00  1.259689331054687500e+00  -1.749339405690328419e+00  -1.689881626759664357e+00  -3.817704741154805959e+00  2.524005413055419922e+01
-9.191730658160608414e-01  -1.058078114186422169e+00  1.326994895935058594e+00  -1.785162274037496388e+00  -1.703656498585836232e+00  -3.754099194203512013e+00  2.534581613540649414e+01
-9.494083563434045914e-01  -1.119197670613424123e+00  1.383160591125488281e+00  -1.837738339100972951e+00  -1.717024151478902638e+00  -3.697801415120260060e+00  2.544380402565002441e+01
-9.565179983722131851e-01  -1.184083286915914357e+00  1.436859130859375000e+00  -1.887398544942037404e+00  -1.740773502980367482e+00  -3.665453020726339162e+00  2.553507494926452637e+01
-9.579208532916467789e-01  -1.236830059682027638e+00  1.488989830017089844e+00  -1.902592484151021779e+00  -1.758720699940816701e+00  -3.642234388981954396e+00  2.560244894027709961e+01
-9.599950949298303726e-01  -1.288285080586568654e+00  1.545108795166015625e+00  -1.903827969227926076e+00  -1.780731503163472951e+00  -3.620465342198507130e+00  2.566205501556396484e+01
-9.639509359942834976e-01  -1.326412502919332326e+00  1.587298393249511719e+00  -1.902365032826558888e+00  -1.801807228718892873e+00  -3.606507364903585255e+00  2.570743894577026367e+01
-9.708326498614709976e-01  -1.371469799672262013e+00  1.637057781219482422e+00  -1.898899380360738576e+00  -1.830351654683248341e+00  -3.591950718556539357e+00  2.576994013786315918e+01
-9.807112852679651382e-01  -1.423744026814595998e+00  1.696569919586181641e+00  -1.891020599995748341e+00  -1.863379303609029591e+00  -3.576770846043721974e+00  2.583125090599060059e+01
-9.905894438373010757e-01  -1.481415096913472951e+00  1.763772964477539062e+00  -1.878703896199361623e+00  -1.897041622792379201e+00  -3.561651293431417287e+00  2.590838599205017090e+01
-9.981425444232385757e-01  -1.537193600331441701e+00  1.829971790313720703e+00  -1.863725964223043263e+00  -1.926220242177144826e+00  -3.548424545918599904e+00  2.597824692726135254e+01
-1.000097099934713185e+00  -1.596942726765767873e+00  1.902197837829589844e+00  -1.845664803181783498e+00  -1.955686394368306935e+00  -3.535580698643819630e+00  2.605311894416809082e+01
-1.000804249440328419e+00  -1.647737805043355763e+00  1.964397430419921875e+00  -1.828551594411031544e+00  -1.979050461445943654e+00  -3.525229040776387990e+00  2.612882614135742188e+01
-9.987061659442346695e-01  -1.700848881398336232e+00  2.030230045318603516e+00  -1.809063736592428029e+00  -2.002198521290914357e+00  -3.515416447316304982e+00  2.620708012580871582e+01
-9.953134695636194351e-01  -1.731145683919088185e+00  2.068375587463378906e+00  -1.797323052083150685e+00  -2.014761749898092091e+00  -3.510192934666768849e+00  2.625854301452636719e+01
-9.906976858722131851e-01  -1.760147873555318654e+00  2.105216979980468750e+00  -1.786001507435933888e+00  -2.026388947163717091e+00  -3.505520645772115529e+00  2.630414605140686035e+01
-9.853628317462366226e-01  -1.787472073231832326e+00  2.140320777893066406e+00  -1.775496308003560841e+00  -2.036614243184224904e+00  -3.501039568577901662e+00  2.635243201255798340e+01
-9.781215826617639664e-01  -1.816811386738912404e+00  2.179175853729248047e+00  -1.763970677052633107e+00  -2.046216313038961232e+00  -3.496546570454732716e+00  2.640695691108703613e+01
-9.699099699603479507e-01  -1.839700047169820607e+00  2.209668159484863281e+00  -1.755204025899068654e+00  -2.051430527363912404e+00  -3.493251625691549123e+00  2.645753097534179688e+01
-9.582560698138635757e-01  -1.859184090291158498e+00  2.236926078796386719e+00  -1.748475853596822560e+00  -2.052341763173238576e+00  -3.490544382725850880e+00  2.650080013275146484e+01
-9.448769728290002945e-01  -1.872516934071676076e+00  2.256671905517578125e+00  -1.745082203541890919e+00  -2.049560848866597951e+00  -3.488843027745382130e+00  2.654646897315979004e+01
-9.243758360492151382e-01  -1.884555164967672169e+00  2.275926589965820312e+00  -1.744722191487447560e+00  -2.041289154683248341e+00  -3.487285439168111623e+00  2.659394693374633789e+01
-8.994873205768030289e-01  -1.892252747212545216e+00  2.290508747100830078e+00  -1.748032395039693654e+00  -2.028103176747457326e+00  -3.486314598714010060e+00  2.664240002632141113e+01
-8.712294737445276382e-01  -1.896137539540426076e+00  2.300812721252441406e+00  -1.754700009022847951e+00  -2.011128727589742482e+00  -3.485967461262838185e+00  2.668484711647033691e+01
-8.455012480365198257e-01  -1.896725479756490529e+00  2.306624174118041992e+00  -1.762195889149801076e+00  -1.994454685841695607e+00  -3.485955540333883107e+00  2.672455811500549316e+01
-8.118003050433557632e-01  -1.894675079976217091e+00  2.310374259948730469e+00  -1.773372952138082326e+00  -1.971893612538472951e+00  -3.486302677785054982e+00  2.677435302734375000e+01
-7.757375876056116226e-01  -1.889651123677388966e+00  2.311105489730834961e+00  -1.786301438008443654e+00  -1.946359936391012013e+00  -3.487033669148580373e+00  2.682472395896911621e+01
-7.444704214679163101e-01  -1.883608166371480763e+00  2.309619665145874023e+00  -1.798750225697652638e+00  -1.922767464314595998e+00  -3.487812821065084279e+00  2.686606693267822266e+01
-7.129152456866663101e-01  -1.876210037861959279e+00  2.306624174118041992e+00  -1.811869923268453419e+00  -1.898120705281392873e+00  -3.488759104405538380e+00  2.690330195426940918e+01
-6.817792097674768570e-01  -1.867684666310445607e+00  2.302286624908447266e+00  -1.825109783803121388e+00  -1.872381989155904591e+00  -3.490029160176412404e+00  2.694340395927429199e+01
-6.459563414203088882e-01  -1.856558148060933888e+00  2.295600891113281250e+00  -1.841371838246480763e+00  -1.841800514851705373e+00  -3.491610590611593068e+00  2.699381899833679199e+01
-6.125310103045862320e-01  -1.844687763844625294e+00  2.287932395935058594e+00  -1.857609573994771779e+00  -1.811793152485982716e+00  -3.493371550236837209e+00  2.703496599197387695e+01
-5.916217009173792007e-01  -1.836306873952047169e+00  2.282205581665039062e+00  -1.868966404591695607e+00  -1.792252365742818654e+00  -3.494617525731221974e+00  2.706717896461486816e+01
-5.670440832721155289e-01  -1.825348202382222951e+00  2.274512767791748047e+00  -1.882865730916158498e+00  -1.769114796315328419e+00  -3.496151510869161427e+00  2.711036491394042969e+01
-5.317962805377405289e-01  -1.807543102894918263e+00  2.261260986328125000e+00  -1.904739205037252248e+00  -1.734048191701070607e+00  -3.498487774525777638e+00  2.717334699630737305e+01
-5.121825377093713882e-01  -1.796344582234517873e+00  2.252897739410400391e+00  -1.917846981679097951e+00  -1.714542690907613576e+00  -3.499925438557760060e+00  2.721191906929016113e+01
-4.978435675250452164e-01  -1.787651840840474904e+00  2.246200084686279297e+00  -1.928244415913717091e+00  -1.699688259755269826e+00  -3.501051489506856740e+00  2.724478793144226074e+01
-4.817422072040002945e-01  -1.777137104664937794e+00  2.237968444824218750e+00  -1.940619770680562794e+00  -1.682760063801900685e+00  -3.502357546483175099e+00  2.728707313537597656e+01
-4.674270788775842789e-01  -1.767245594655172169e+00  2.230264186859130859e+00  -1.951676193867818654e+00  -1.667929951344625294e+00  -3.503627363835470021e+00  2.732384204864501953e+01
-4.549468199359338882e-01  -1.758097950612203419e+00  2.222955703735351562e+00  -1.961845699940816701e+00  -1.654981915150777638e+00  -3.504741493855611623e+00  2.736757802963256836e+01
-4.441326300250452164e-01  -1.749633137379781544e+00  2.216030597686767578e+00  -1.971199337636129201e+00  -1.643196407948629201e+00  -3.505736176167623341e+00  2.740289211273193359e+01
-4.364836851703088882e-01  -1.743458573018209279e+00  2.210926532745361328e+00  -1.977998558674947560e+00  -1.635008637105123341e+00  -3.506466929112569630e+00  2.743743109703063965e+01
-4.277918974505823257e-01  -1.736252609883443654e+00  2.204947948455810547e+00  -1.986177269612447560e+00  -1.625813309346334279e+00  -3.507161919270650685e+00  2.748291993141174316e+01
-3.746326605426233414e-01  -1.678669277821676076e+00  2.153691768646240234e+00  -2.045966927205220998e+00  -1.570494953786031544e+00  -3.516470734273092091e+00  2.829337596893310547e+01
-3.747285048114221695e-01  -1.678753201161519826e+00  2.153703689575195312e+00  -2.045823399220601857e+00  -1.570686642323629201e+00  -3.516494814549581349e+00  2.838577294349670410e+01
-3.705204168902795914e-01  -1.679137055073873341e+00  2.152960777282714844e+00  -2.041817967091695607e+00  -1.563301388417379201e+00  -3.518136088048116505e+00  2.848082304000854492e+01
-3.430898825274866226e-01  -1.680599514638082326e+00  2.146095752716064453e+00  -2.015736405049459279e+00  -1.519636456166402638e+00  -3.528823439274923146e+00  2.855774807929992676e+01
-3.198908011065881851e-01  -1.682889286671773732e+00  2.140992164611816406e+00  -1.990758244191304982e+00  -1.487696949635640919e+00  -3.530752245579854787e+00  2.860763192176818848e+01
-3.055642286883752945e-01  -1.686581913624898732e+00  2.136906623840332031e+00  -1.963104550038472951e+00  -1.467434708272115529e+00  -3.529746357594625294e+00  2.865853095054626465e+01
-3.115947882281702164e-01  -1.693079773579732716e+00  2.131886482238769531e+00  -1.921756092702047169e+00  -1.462339226399556935e+00  -3.530836168919698537e+00  2.871630001068115234e+01
-3.351648489581506851e-01  -1.699625794087545216e+00  2.126183509826660156e+00  -1.882146183644429982e+00  -1.472902123128072560e+00  -3.535592619572774709e+00  2.877423810958862305e+01
-3.814781347857874039e-01  -1.707778755818502248e+00  2.116299152374267578e+00  -1.827268425618306935e+00  -1.500357929860250294e+00  -3.546819035206929982e+00  2.884993505477905273e+01
-4.462669531451624039e-01  -1.715211693440572560e+00  2.101922035217285156e+00  -1.765302006398336232e+00  -1.547595802937642873e+00  -3.564118925725118459e+00  2.892843914031982422e+01
-5.190642515765588882e-01  -1.716099087391988576e+00  2.078883171081542969e+00  -1.718385521565572560e+00  -1.593766037617818654e+00  -3.582797114049093068e+00  2.900197601318359375e+01
-5.694296995746057632e-01  -1.712250534688131154e+00  2.059042930603027344e+00  -1.691556755696431935e+00  -1.623355213795797169e+00  -3.596731011067525685e+00  2.904971194267272949e+01
-6.266058127032678726e-01  -1.702982727681295216e+00  2.033332824707031250e+00  -1.660806481038228810e+00  -1.659213844929830373e+00  -3.614342991505758107e+00  2.910240197181701660e+01
-6.767562071429651382e-01  -1.692444626485006154e+00  2.009826660156250000e+00  -1.635824505482808888e+00  -1.692531410847799123e+00  -3.630672995244161427e+00  2.915336894989013672e+01
-7.383797804461877945e-01  -1.678201977406637013e+00  1.981482028961181641e+00  -1.607004467641012013e+00  -1.734527889882222951e+00  -3.649854008351461232e+00  2.920703291893005371e+01
-7.929175535785120132e-01  -1.664510552083150685e+00  1.956551074981689453e+00  -1.583928887044088185e+00  -1.772615257893697560e+00  -3.667178455983297169e+00  2.925529503822326660e+01
-8.559077421771448257e-01  -1.646143738423482716e+00  1.926133155822753906e+00  -1.559102360402242482e+00  -1.815258328114644826e+00  -3.687390152608053029e+00  2.931215190887451172e+01
-8.985880056964319351e-01  -1.630714241658345998e+00  1.902724742889404297e+00  -1.542994801198140919e+00  -1.843322579060689748e+00  -3.701946798955098927e+00  2.935299205780029297e+01
-9.455483595477502945e-01  -1.608595196400777638e+00  1.871564865112304688e+00  -1.527366940175191701e+00  -1.870859924946920216e+00  -3.719965998326436818e+00  2.939538598060607910e+01
-9.740813414203088882e-01  -1.591344181691304982e+00  1.848456382751464844e+00  -1.518395725880758107e+00  -1.886132542287008107e+00  -3.732054535542623341e+00  2.943396711349487305e+01
-1.011666123067037404e+00  -1.561649147664205373e+00  1.810660839080810547e+00  -1.507685963307515919e+00  -1.903659168873922169e+00  -3.750516955052511037e+00  2.947503805160522461e+01
-1.038328949605123341e+00  -1.534076992665426076e+00  1.776579380035400391e+00  -1.501352612172262013e+00  -1.913788620625631154e+00  -3.766163651143209279e+00  2.951507592201232910e+01
-1.060711685811178029e+00  -1.504226986561910451e+00  1.740880489349365234e+00  -1.497682873402730763e+00  -1.920442406331197560e+00  -3.782074038182393849e+00  2.955623102188110352e+01
-1.079222027455465138e+00  -1.473071400319234669e+00  1.704116344451904297e+00  -1.496471707020894826e+00  -1.923714939747945607e+00  -3.797529284154073537e+00  2.960155797004699707e+01
-1.096749130879537404e+00  -1.434280697499410451e+00  1.660333156585693359e+00  -1.497802559529439748e+00  -1.923187557850972951e+00  -3.815883461629049123e+00  2.964541602134704590e+01
-1.107527081166402638e+00  -1.401520554219381154e+00  1.622563838958740234e+00  -1.501149002705709279e+00  -1.920082871113912404e+00  -3.830907646809713185e+00  2.968850207328796387e+01
-1.117800537739888966e+00  -1.355695072804586232e+00  1.571198940277099609e+00  -1.508657280598775685e+00  -1.911427323018209279e+00  -3.851262871419088185e+00  2.974041199684143066e+01
-1.122668091450826466e+00  -1.317447010670797169e+00  1.529118061065673828e+00  -1.517088715230123341e+00  -1.900565926228658498e+00  -3.867616478596822560e+00  2.979017710685729980e+01
-1.124034706746236623e+00  -1.286630932484762013e+00  1.495482444763183594e+00  -1.525255982075826466e+00  -1.889608685170308888e+00  -3.880831305180684865e+00  2.983343291282653809e+01
-1.122968022023336232e+00  -1.251129452382222951e+00  1.457258701324462891e+00  -1.535978619252340138e+00  -1.874815766011373341e+00  -3.895639244710103810e+00  2.987753701210021973e+01
-1.120102230702535451e+00  -1.222447697316304982e+00  1.426569938659667969e+00  -1.546041313801900685e+00  -1.860945526753560841e+00  -3.907632414494649709e+00  2.991515898704528809e+01
-1.115570847188131154e+00  -1.194977108632222951e+00  1.397534370422363281e+00  -1.556571308766500294e+00  -1.846451584492818654e+00  -3.919001881276265919e+00  2.995666408538818359e+01
-1.109816376362935841e+00  -1.168886009846822560e+00  1.370140552520751953e+00  -1.567293945943013966e+00  -1.831059281026021779e+00  -3.929808441792623341e+00  2.999768209457397461e+01
-1.104517761860982716e+00  -1.149147335683004201e+00  1.349549770355224609e+00  -1.575821224843160451e+00  -1.818686787282125294e+00  -3.937919203435079396e+00  3.003217411041259766e+01
-1.095646206532613576e+00  -1.121498409901754201e+00  1.320801734924316406e+00  -1.588390652333394826e+00  -1.800057236348287404e+00  -3.949349228535787404e+00  3.008267903327941895e+01
-1.085851494465963185e+00  -1.095708195363179982e+00  1.294293880462646484e+00  -1.601031605397359669e+00  -1.781942669545308888e+00  -3.960095945988790334e+00  3.012543392181396484e+01
-1.078885857258931935e+00  -1.079062763844625294e+00  1.277392864227294922e+00  -1.609918896351949513e+00  -1.769330803547994435e+00  -3.966996733342305959e+00  3.016045808792114258e+01
-1.069702927266256154e+00  -1.058677021657125294e+00  1.256826400756835938e+00  -1.621132675801412404e+00  -1.753529373799459279e+00  -3.975491348897115529e+00  3.019572091102600098e+01
-1.062221829091207326e+00  -1.042978588734762013e+00  1.240991115570068359e+00  -1.629803482686178029e+00  -1.740917507802144826e+00  -3.981876913701192677e+00  3.023283505439758301e+01
-1.054693524037496388e+00  -1.027783219014303029e+00  1.225755214691162109e+00  -1.638475243245260060e+00  -1.728665177022115529e+00  -3.987999025975362599e+00  3.026585698127746582e+01
-1.045461956654683888e+00  -1.009855572377340138e+00  1.207740306854248047e+00  -1.649305168782369435e+00  -1.713907066975728810e+00  -3.995343271886007130e+00  3.029949903488159180e+01
-1.038196865712301076e+00  -9.963381926165979507e-01  1.194312572479248047e+00  -1.657436672841207326e+00  -1.702086273823873341e+00  -4.000829998646871388e+00  3.033414793014526367e+01
-1.031015221272603810e+00  -9.838512579547327164e-01  1.181831359863281250e+00  -1.665376011525289357e+00  -1.691044632588521779e+00  -4.005994145070211232e+00  3.036804294586181641e+01
-1.022420231495992482e+00  -9.695790449725549820e-01  1.167601585388183594e+00  -1.675078217183248341e+00  -1.677928272877828419e+00  -4.011864964162008107e+00  3.040630793571472168e+01
-1.015909973775045216e+00  -9.591534773456018570e-01  1.157180786132812500e+00  -1.682249848042623341e+00  -1.668493572865621388e+00  -4.016153875981466115e+00  3.044073605537414551e+01
-1.006307427083150685e+00  -9.450257460223596695e-01  1.143261909484863281e+00  -1.692168537770406544e+00  -1.655628983174459279e+00  -4.021940294896261037e+00  3.048413610458374023e+01
-1.000072781239644826e+00  -9.366496245013635757e-01  1.134937286376953125e+00  -1.698201481495992482e+00  -1.647524658833638966e+00  -4.025390926991597951e+00  3.052241611480712891e+01
-9.927237669574182632e-01  -9.271710554706018570e-01  1.125498294830322266e+00  -1.705348793660299123e+00  -1.638257328663961232e+00  -4.029308621083394826e+00  3.055999612808227539e+01
-9.253709951983850601e-01  -8.549283186541956070e-01  1.054096698760986328e+00  -1.770207230244771779e+00  -1.570590798054830373e+00  -4.067359749470845998e+00  3.137843394279479980e+01
-9.255631605731409195e-01  -8.550480047809045914e-01  1.054168701171875000e+00  -1.769919220601217091e+00  -1.570627037678853810e+00  -4.067311827336446584e+00  3.146018290519714355e+01
-9.276726881610315445e-01  -8.563540617572229507e-01  1.054815769195556641e+00  -1.772473637257711232e+00  -1.573360268269674123e+00  -4.065262858067647755e+00  3.154076004028320312e+01
-9.393261114703577164e-01  -8.646577040301721695e-01  1.059583187103271484e+00  -1.788855854664937794e+00  -1.586309258137838185e+00  -4.054216448460714162e+00  3.160922312736511230e+01
-9.423235098468225601e-01  -8.810499350177209976e-01  1.072938442230224609e+00  -1.808440033589498341e+00  -1.591991726552144826e+00  -4.040342871342794240e+00  3.165929698944091797e+01
-9.378035704242151382e-01  -9.067400137530725601e-01  1.095852375030517578e+00  -1.829763237630025685e+00  -1.596751515065328419e+00  -4.024240795766012013e+00  3.170629811286926270e+01
-9.335954825030725601e-01  -9.368413130389612320e-01  1.124312400817871094e+00  -1.852548901234762013e+00  -1.610670868550435841e+00  -4.007419888173238576e+00  3.175252199172973633e+01
-9.310653845416467789e-01  -9.641988913165491226e-01  1.151263236999511719e+00  -1.871940437947408498e+00  -1.629229847584859669e+00  -3.992935005818502248e+00  3.179259109497070312e+01
-9.275649229632776382e-01  -1.012336079274312794e+00  1.200876712799072266e+00  -1.899774853383199513e+00  -1.664021317158834279e+00  -3.969237391148702443e+00  3.185475993156433105e+01
-9.311259428607385757e-01  -1.057610813771383107e+00  1.251448154449462891e+00  -1.920556847249166310e+00  -1.694317166005269826e+00  -3.948474232350484669e+00  3.191009092330932617e+01
-9.452365080462854507e-01  -1.120587650929586232e+00  1.329258441925048828e+00  -1.950836960469381154e+00  -1.735894505177633107e+00  -3.919984404240743459e+00  3.198775410652160645e+01
-9.526699225055139664e-01  -1.154959980641500294e+00  1.372104644775390625e+00  -1.963884178792135060e+00  -1.755004231129781544e+00  -3.906062666569845021e+00  3.203469109535217285e+01
-9.616611639605920914e-01  -1.208065334950582326e+00  1.436823368072509766e+00  -1.975492302571431935e+00  -1.779880348836080373e+00  -3.887348715459005177e+00  3.208903503417968750e+01
-9.700058142291467789e-01  -1.273242298756734669e+00  1.514551639556884766e+00  -1.979029957448140919e+00  -1.803869072590963185e+00  -3.866921250020162404e+00  3.215174007415771484e+01
-9.766591230975549820e-01  -1.339873139058248341e+00  1.593598842620849609e+00  -1.975169006978170216e+00  -1.824585262929097951e+00  -3.848172012959615529e+00  3.221622490882873535e+01
-9.815743605243127945e-01  -1.405835453663961232e+00  1.671186447143554688e+00  -1.966450516377584279e+00  -1.840757195149556935e+00  -3.831015412007467091e+00  3.227725505828857422e+01
-9.834807554828088882e-01  -1.454155747090474904e+00  1.728135108947753906e+00  -1.957528893147603810e+00  -1.849856201802388966e+00  -3.819393698369161427e+00  3.232635998725891113e+01
-9.834569136248987320e-01  -1.501206700001851857e+00  1.783431529998779297e+00  -1.948006931935445607e+00  -1.857253376637594044e+00  -3.808719221745626271e+00  3.237362813949584961e+01
-9.817903677569788101e-01  -1.546939675007955373e+00  1.837099552154541016e+00  -1.937706295643941701e+00  -1.863415066395894826e+00  -3.799002949391500294e+00  3.241977405548095703e+01
-9.783013502704065445e-01  -1.591152493153707326e+00  1.888996124267578125e+00  -1.926697079335347951e+00  -1.868570152913228810e+00  -3.789885584508077443e+00  3.247081208229064941e+01
-9.702451864825647476e-01  -1.660937611256734669e+00  1.970411777496337891e+00  -1.908924881611959279e+00  -1.874815766011373341e+00  -3.776454989110128224e+00  3.255249214172363281e+01
-9.629676977740686539e-01  -1.706315819417135060e+00  2.024814128875732422e+00  -1.896740738545553029e+00  -1.876877609883443654e+00  -3.768212143574849904e+00  3.260671901702880859e+01
-9.555471579181116226e-01  -1.742391888295308888e+00  2.067908287048339844e+00  -1.887183014546529591e+00  -1.876494232808248341e+00  -3.762137953435079396e+00  3.265870594978332520e+01
-9.462793509112756851e-01  -1.775050942097799123e+00  2.106965541839599609e+00  -1.879171673451558888e+00  -1.874036614094869435e+00  -3.756854359303609669e+00  3.270306491851806641e+01
-9.338234106646936539e-01  -1.803778473530904591e+00  2.141914367675781250e+00  -1.873224083577291310e+00  -1.867766682301656544e+00  -3.752469603215352834e+00  3.274670100212097168e+01
-9.184296766864221695e-01  -1.828429524098531544e+00  2.172574043273925781e+00  -1.869746033345357716e+00  -1.857805077229635060e+00  -3.748791758214132130e+00  3.279624509811401367e+01
-9.002307097064417007e-01  -1.849352184926168263e+00  2.199208259582519531e+00  -1.868798557912008107e+00  -1.845121208821431935e+00  -3.745784346257345021e+00  3.284728598594665527e+01
-8.761089483844202164e-01  -1.869399372731344044e+00  2.225711345672607422e+00  -1.870225731526510060e+00  -1.827198807393209279e+00  -3.742944780980245412e+00  3.289897203445434570e+01
-8.532584349261682632e-01  -1.883511845265523732e+00  2.244786262512207031e+00  -1.873271767293111623e+00  -1.809923473988668263e+00  -3.740992132817403615e+00  3.294673490524291992e+01
-8.285844961749475601e-01  -1.894794766102926076e+00  2.260865688323974609e+00  -1.878080670033590138e+00  -1.790741745625631154e+00  -3.739434544240133107e+00  3.299664592742919922e+01
-8.073886076556604507e-01  -1.902432743703023732e+00  2.272379875183105469e+00  -1.882877651845113576e+00  -1.773598019276754201e+00  -3.738452259694234669e+00  3.304210996627807617e+01
-7.822116057025354507e-01  -1.909770790730611623e+00  2.284038305282592773e+00  -1.889533821736470998e+00  -1.751982990895406544e+00  -3.737565819417135060e+00  3.308606791496276855e+01
-7.619140783893030289e-01  -1.914602581654683888e+00  2.292114257812500000e+00  -1.895457569752828419e+00  -1.733928028737203419e+00  -3.737002674733297169e+00  3.313017702102661133e+01
-7.389076391803186539e-01  -1.918967549000875294e+00  2.300106048583984375e+00  -1.903096501027242482e+00  -1.713355843220845998e+00  -3.736595217381612599e+00  3.317615413665771484e+01
-7.182977835284631851e-01  -1.921917263661519826e+00  2.306588172912597656e+00  -1.910375897084371388e+00  -1.693682018910543263e+00  -3.736271444951192677e+00  3.321961593627929688e+01
-6.999910513507288101e-01  -1.924027744923726857e+00  2.311752557754516602e+00  -1.917619053517476857e+00  -1.675866429005758107e+00  -3.735912386571065724e+00  3.326919794082641602e+01
-6.864793936358850601e-01  -1.925322834645406544e+00  2.315251111984252930e+00  -1.923507515584127248e+00  -1.662870709096090138e+00  -3.735696617756978810e+00  3.330978012084960938e+01
-6.724160353290002945e-01  -1.926401440297262013e+00  2.318558454513549805e+00  -1.929994408284322560e+00  -1.648999039326803029e+00  -3.735576931630269826e+00  3.336172008514404297e+01
-6.620095411883752945e-01  -1.927073303853170216e+00  2.320871114730834961e+00  -1.935067478810445607e+00  -1.638400856648580373e+00  -3.735397164021627248e+00  3.339697813987731934e+01
-5.954340139972131851e-01  -1.909435097371236623e+00  2.323279619216918945e+00  -1.984798256550924123e+00  -1.570519272481099904e+00  -3.737254206334249318e+00  3.422110009193420410e+01
-5.955060164081018570e-01  -1.909494702016012013e+00  2.323243618011474609e+00  -1.984642330800191701e+00  -1.570578877125875294e+00  -3.737314287816182912e+00  3.428188991546630859e+01
-5.956023375140588882e-01  -1.909447018300191701e+00  2.323159694671630859e+00  -1.984606568013326466e+00  -1.570854489003316701e+00  -3.737110439931051076e+00  3.433038210868835449e+01
-5.995467344867151382e-01  -1.908007923756734669e+00  2.319373369216918945e+00  -1.981152359639303029e+00  -1.573875729237691701e+00  -3.737505976353780568e+00  3.437514305114746094e+01
-6.109727064715784195e-01  -1.903499905263082326e+00  2.309224367141723633e+00  -1.971127335225240529e+00  -1.583371464406148732e+00  -3.739147011433736623e+00  3.442155313491821289e+01
-6.259945074664514664e-01  -1.897960487996236623e+00  2.296535491943359375e+00  -1.957720581685201466e+00  -1.595720593129293263e+00  -3.741195980702535451e+00  3.446633005142211914e+01
-6.488817373858850601e-01  -1.889615360890523732e+00  2.277520179748535156e+00  -1.937430206929342091e+00  -1.614567581807271779e+00  -3.744142834340230763e+00  3.451087403297424316e+01
-6.866710821734827164e-01  -1.875466171895162404e+00  2.246140480041503906e+00  -1.904523674641744435e+00  -1.645774189625875294e+00  -3.748767677937642873e+00  3.457131600379943848e+01
-7.194607893573206070e-01  -1.862073246632711232e+00  2.217815876007080078e+00  -1.876977745686666310e+00  -1.672485653554097951e+00  -3.752936665211812794e+00  3.462283992767333984e+01
-7.486422697650354507e-01  -1.848776642476217091e+00  2.190641880035400391e+00  -1.852344814931051076e+00  -1.696943108235494435e+00  -3.756818596516744435e+00  3.466693711280822754e+01
-8.047984282123010757e-01  -1.818549935017720998e+00  2.132880687713623047e+00  -1.807840649281637013e+00  -1.743735138569967091e+00  -3.764761749898092091e+00  3.473928403854370117e+01
-8.443744818316858414e-01  -1.793191258107320607e+00  2.087844371795654297e+00  -1.778397862111226857e+00  -1.776871506367818654e+00  -3.770656649266378224e+00  3.478508400917053223e+01
-8.839376608477991226e-01  -1.763648811970845998e+00  2.038232803344726562e+00  -1.751054588948385060e+00  -1.808400932942525685e+00  -3.776910368596212209e+00  3.482825613021850586e+01
-9.161399046527307632e-01  -1.736264530812398732e+00  1.994144916534423828e+00  -1.729191605244771779e+00  -1.833300415669576466e+00  -3.782193962727681935e+00  3.486890602111816406e+01
-9.407766501056116226e-01  -1.712706391011373341e+00  1.957437515258789062e+00  -1.713516060506002248e+00  -1.851259056721822560e+00  -3.786483112965719044e+00  3.490396213531494141e+01
-9.700415770160120132e-01  -1.681282822285787404e+00  1.910212039947509766e+00  -1.695298973714010060e+00  -1.871063534413472951e+00  -3.792113844548360646e+00  3.494623804092407227e+01
-1.002098862324849904e+00  -1.640820328389303029e+00  1.851678848266601562e+00  -1.674910370503560841e+00  -1.890627686177388966e+00  -3.799134794865743459e+00  3.498732805252075195e+01
-1.025824848805562794e+00  -1.604447189961568654e+00  1.801053047180175781e+00  -1.659798924122945607e+00  -1.903047386799947560e+00  -3.805304829274312794e+00  3.502742910385131836e+01
-1.046828571950094044e+00  -1.565797154103414357e+00  1.748870849609375000e+00  -1.646486584340230763e+00  -1.911858860646383107e+00  -3.811713997517720998e+00  3.506688094139099121e+01
-1.064427677785054982e+00  -1.525193516408101857e+00  1.695323944091796875e+00  -1.634097878132955373e+00  -1.917373482381002248e+00  -3.818411890660421193e+00  3.510732197761535645e+01
-1.078850094472066701e+00  -1.482997242604390919e+00  1.641310691833496094e+00  -1.623339478169576466e+00  -1.919722859059469044e+00  -3.825300518666402638e+00  3.515093493461608887e+01
-1.090227429066793263e+00  -1.439914528523580373e+00  1.586866855621337891e+00  -1.613876644765035451e+00  -1.918979946766988576e+00  -3.832405153905050099e+00  3.519024395942687988e+01
-1.098283116017476857e+00  -1.396426026021138966e+00  1.533118724822998047e+00  -1.605949227009908498e+00  -1.915910545979635060e+00  -3.839713398610250294e+00  3.522922801971435547e+01
-1.103366676961080373e+00  -1.353753391896383107e+00  1.480605125427246094e+00  -1.599376503621236623e+00  -1.910384480153219044e+00  -3.846973482762471974e+00  3.527135896682739258e+01
-1.105752293263570607e+00  -1.311477963124410451e+00  1.430007457733154297e+00  -1.594158951436178029e+00  -1.902664009724752248e+00  -3.854246203099386037e+00  3.531387996673583984e+01
-1.105596844349996388e+00  -1.262311760579244435e+00  1.372320175170898438e+00  -1.589373890553609669e+00  -1.891023461018697560e+00  -3.862764660512105763e+00  3.535753297805786133e+01
-1.102551762257711232e+00  -1.215232197438375294e+00  1.317903041839599609e+00  -1.586016003285543263e+00  -1.877668682728902638e+00  -3.871306482945577443e+00  3.540355801582336426e+01
-1.096749130879537404e+00  -1.170731846486226857e+00  1.267415046691894531e+00  -1.584060494099752248e+00  -1.862707916890279591e+00  -3.879537407551900685e+00  3.545355296134948730e+01
-1.090370957051412404e+00  -1.135844055806295216e+00  1.228078842163085938e+00  -1.583173100148336232e+00  -1.849700752888814748e+00  -3.886018816624776662e+00  3.549193096160888672e+01
-1.084364716206685841e+00  -1.108890835438863576e+00  1.198325634002685547e+00  -1.583136860524312794e+00  -1.838839356099263966e+00  -3.891182963048116505e+00  3.552926206588745117e+01
-1.077651325856344044e+00  -1.082945171986715138e+00  1.169985294342041016e+00  -1.583197418843404591e+00  -1.827150646840230763e+00  -3.896274391804830373e+00  3.556187796592712402e+01
-1.068252388631002248e+00  -1.051990334187642873e+00  1.136662006378173828e+00  -1.583772961293355763e+00  -1.812572781239644826e+00  -3.902504269276754201e+00  3.560009598731994629e+01
-1.058241669331685841e+00  -1.022989575062887013e+00  1.105710506439208984e+00  -1.585091892872945607e+00  -1.797779385243551076e+00  -3.908554617558614552e+00  3.563612508773803711e+01
-1.050113979970113576e+00  -1.001251045857564748e+00  1.082772731781005859e+00  -1.586615387593404591e+00  -1.786629978810445607e+00  -3.913179222737447560e+00  3.567004704475402832e+01
-1.039887730275289357e+00  -9.760502020465295914e-01  1.056456565856933594e+00  -1.588810269032613576e+00  -1.772579495106832326e+00  -3.918750111256734669e+00  3.570769500732421875e+01
-1.031255547200338185e+00  -9.567449728595178726e-01  1.036393165588378906e+00  -1.590789143239156544e+00  -1.761070553456441701e+00  -3.923087183629171193e+00  3.574042201042175293e+01
-1.022504154835836232e+00  -9.380877653705042007e-01  1.017264366149902344e+00  -1.592972103749410451e+00  -1.750052754079000294e+00  -3.927328650151387990e+00  3.577547812461853027e+01
-1.013752285634176076e+00  -9.200413862811487320e-01  9.989142417907714844e-01  -1.595334831868306935e+00  -1.738867584859029591e+00  -3.931545559559957326e+00  3.580694007873535156e+01
-1.004772488270894826e+00  -9.027860800372522476e-01  9.812583923339843750e-01  -1.597793404256002248e+00  -1.727909866963521779e+00  -3.935679022465841115e+00  3.584014701843261719e+01
-9.961045424090784195e-01  -8.862503210650842789e-01  9.645724296569824219e-01  -1.600431744252340138e+00  -1.717443768178121388e+00  -3.939764324818746388e+00  3.587318801879882812e+01
-9.872806707965295914e-01  -8.704569975482385757e-01  9.488573074340820312e-01  -1.602962319050924123e+00  -1.706917587910787404e+00  -3.943658177052633107e+00  3.590040111541748047e+01
