fgashi/en/graphics/results/traj_results/case1/total_positions_q1.txt
  q1     q2   q3   q4  q5   q6   t1
-1.040015045796529591e+00  -1.135257069264547169e+00  1.545124053955078125e+00  -2.096961323414937794e+00  -1.570206467305318654e+00  -3.570309225712911427e+00  0.000000000000000000e+00
-1.039978806172506154e+00  -1.135232750569478810e+00  1.545135974884033203e+00  -2.096937004719869435e+00  -1.570074860249654591e+00  -3.570333067570821584e+00  7.762694358825683594e-02
-1.042603794728414357e+00  -1.136539761220113576e+00  1.543759822845458984e+00  -2.098769013081685841e+00  -1.575222794209615529e+00  -3.569411102925435841e+00  1.619551181793212891e-01
-1.058246437703267873e+00  -1.147006336842672169e+00  1.534904956817626953e+00  -2.110935513173238576e+00  -1.607943360005513966e+00  -3.561771456395284474e+00  2.388510704040527344e-01
-1.068926636372701466e+00  -1.169161144887105763e+00  1.537776947021484375e+00  -2.120539490376607716e+00  -1.631110493336812794e+00  -3.548180643712179005e+00  3.064451217651367188e-01
-1.068662945424215138e+00  -1.190728966389791310e+00  1.552028179168701172e+00  -2.126622978840963185e+00  -1.635671917592183888e+00  -3.536314312611715138e+00  3.609459400177001953e-01
-1.064143482838765919e+00  -1.210258309041158498e+00  1.568708896636962891e+00  -2.129412953053609669e+00  -1.641431156788961232e+00  -3.526291910802022755e+00  4.079871177673339844e-01
-1.054063145314351857e+00  -1.233539883290426076e+00  1.589075088500976562e+00  -2.125593010579244435e+00  -1.658062283192769826e+00  -3.513707224522725880e+00  4.644799232482910156e-01
-1.041441265736715138e+00  -1.254459683095113576e+00  1.608196735382080078e+00  -2.116791073475972951e+00  -1.681087319050924123e+00  -3.502929989491597951e+00  5.167679786682128906e-01
-1.022682015095845998e+00  -1.283542935048238576e+00  1.635945796966552734e+00  -2.100661102925435841e+00  -1.716902081166402638e+00  -3.489028278981344044e+00  5.760729312896728516e-01
-1.005768601094381154e+00  -1.309150044118062794e+00  1.661422252655029297e+00  -2.083741013203756154e+00  -1.747306172047750294e+00  -3.476682726536886037e+00  6.309270858764648438e-01
-9.925702253924768570e-01  -1.327095333729879201e+00  1.680221080780029297e+00  -2.070041481648580373e+00  -1.768622223530904591e+00  -3.468480173741475880e+00  6.727991104125976562e-01
-9.742658774005334976e-01  -1.348470036183492482e+00  1.703028202056884766e+00  -2.051744286214010060e+00  -1.793903175984517873e+00  -3.458733383809224904e+00  7.244861125946044922e-01
-9.532874266253870132e-01  -1.369688336049215138e+00  1.726326942443847656e+00  -2.031985108052388966e+00  -1.818861786519185841e+00  -3.449177805577413380e+00  7.697420120239257812e-01
-9.341786543475549820e-01  -1.386458698903219044e+00  1.745425224304199219e+00  -2.014956776295797169e+00  -1.838623348866597951e+00  -3.441706005726949513e+00  8.128979206085205078e-01
-9.100955168353479507e-01  -1.406106774006978810e+00  1.768341541290283203e+00  -1.993809048329488576e+00  -1.860505406056539357e+00  -3.433335844670430959e+00  8.553919792175292969e-01
-8.813708464251917007e-01  -1.427275959645406544e+00  1.793411254882812500e+00  -1.969870869313375294e+00  -1.882460419331685841e+00  -3.423924032841817677e+00  9.130499362945556641e-01
-8.607152144061487320e-01  -1.441073719655172169e+00  1.810235977172851562e+00  -1.953333202992574513e+00  -1.895408932362691701e+00  -3.417578045521871388e+00  9.525921344757080078e-01
-8.354428450213831070e-01  -1.456213776265279591e+00  1.829227447509765625e+00  -1.933969322835103810e+00  -1.907865826283590138e+00  -3.410752598439351857e+00  1.004529953002929688e+00
-8.147142569171350601e-01  -1.467314068471090138e+00  1.843276500701904297e+00  -1.919131580983297169e+00  -1.915615860615865529e+00  -3.405592028294698537e+00  1.041439056396484375e+00
-7.944286505328577164e-01  -1.476999107991353810e+00  1.856619358062744141e+00  -1.904869381581441701e+00  -1.921113793049947560e+00  -3.400718037282125294e+00  1.078649044036865234e+00
-7.737343947040002945e-01  -1.485594097767965138e+00  1.868310928344726562e+00  -1.891935650502340138e+00  -1.924323860798970998e+00  -3.396239821110860646e+00  1.122757911682128906e+00
-7.492159048663538101e-01  -1.493901077901021779e+00  1.880649089813232422e+00  -1.878056351338521779e+00  -1.925438229237691701e+00  -3.391330067311422169e+00  1.172131061553955078e+00
-7.246125380145471695e-01  -1.500181976948873341e+00  1.890367031097412109e+00  -1.866356674824849904e+00  -1.923402134572164357e+00  -3.387139145527974904e+00  1.216690063476562500e+00
-7.027905623065393570e-01  -1.503322903309957326e+00  1.896541595458984375e+00  -1.858655754719869435e+00  -1.919077698384420216e+00  -3.384121481572286427e+00  1.257326126098632812e+00
-6.784384886371057632e-01  -1.504353348408834279e+00  1.900897502899169922e+00  -1.852548901234762013e+00  -1.911830727254049123e+00  -3.381451670323507130e+00  1.299081087112426758e+00
-6.519516150103967789e-01  -1.503143135701314748e+00  1.902812480926513672e+00  -1.848860088978902638e+00  -1.901972595845357716e+00  -3.379200522099630177e+00  1.336597919464111328e+00
-6.240852514850061539e-01  -1.500086132680074513e+00  1.902430057525634766e+00  -1.847638432179586232e+00  -1.890329662953512013e+00  -3.377236429844991505e+00  1.374490022659301758e+00
-5.956185499774377945e-01  -1.495051685963765919e+00  1.900179862976074219e+00  -1.847986046467916310e+00  -1.877238098775045216e+00  -3.375655714665548146e+00  1.415636062622070312e+00
-5.670073668109338882e-01  -1.488411251698629201e+00  1.896374225616455078e+00  -1.850081745778219044e+00  -1.862948719655172169e+00  -3.374422852193013966e+00  1.458997964859008789e+00
-5.392592589007776382e-01  -1.481050793324605763e+00  1.891228199005126953e+00  -1.853566471730367482e+00  -1.847977463399068654e+00  -3.373380963002340138e+00  1.501100063323974609e+00
-5.070012251483362320e-01  -1.471293274556295216e+00  1.883976459503173828e+00  -1.858787838612691701e+00  -1.828874413167135060e+00  -3.372470919285909474e+00  1.548444032669067383e+00
-4.762781302081506851e-01  -1.460193459187642873e+00  1.875371932983398438e+00  -1.865314308797017873e+00  -1.807987038289205373e+00  -3.371836010609762013e+00  1.593266963958740234e+00
-4.464653174029749039e-01  -1.447559181843892873e+00  1.865403175354003906e+00  -1.873326126729146779e+00  -1.785436455403463185e+00  -3.371393028889791310e+00  1.642514944076538086e+00
-4.231165091144006851e-01  -1.436374966298238576e+00  1.856176853179931641e+00  -1.880966488515035451e+00  -1.765724484120504201e+00  -3.371309105549947560e+00  1.680409908294677734e+00
-4.008701483355920914e-01  -1.424639050160543263e+00  1.846124649047851562e+00  -1.889085594807760060e+00  -1.745988670979635060e+00  -3.371153656636373341e+00  1.724509954452514648e+00
-3.805902639972131851e-01  -1.412723843251363576e+00  1.836215972900390625e+00  -1.897468868886129201e+00  -1.726889435444967091e+00  -3.371117893849508107e+00  1.761847019195556641e+00
-3.588231245623987320e-01  -1.398877922688619435e+00  1.823997497558593750e+00  -1.907995049153463185e+00  -1.705382649098531544e+00  -3.371045891438619435e+00  1.807368993759155273e+00
-3.457868734942834976e-01  -1.389899078999654591e+00  1.816040039062500000e+00  -1.914760891591207326e+00  -1.692079846058980763e+00  -3.371093813573018849e+00  1.843822002410888672e+00
-3.312633673297327164e-01  -1.379626099263326466e+00  1.806801795959472656e+00  -1.922652546559469044e+00  -1.676860634480611623e+00  -3.371117893849508107e+00  1.879075050354003906e+00
-3.209727446185510757e-01  -1.372013870869771779e+00  1.799896717071533203e+00  -1.928652588521138966e+00  -1.665892903004781544e+00  -3.371177736912862599e+00  1.914835929870605469e+00
-3.139331976519983414e-01  -1.366475407277242482e+00  1.794907093048095703e+00  -1.933130566273824513e+00  -1.658421341572896779e+00  -3.371285263692037404e+00  1.939223051071166992e+00
-3.056939283954065445e-01  -1.359414402638570607e+00  1.788743972778320312e+00  -1.938723389302388966e+00  -1.649226013814107716e+00  -3.371345106755391896e+00  1.970659971237182617e+00
-2.965548674212854507e-01  -1.351383034382955373e+00  1.781432628631591797e+00  -1.945285622273580373e+00  -1.638964478169576466e+00  -3.371465031300679982e+00  2.008872032165527344e+00
-2.336848417865198257e-01  -1.285341564808980763e+00  1.718668460845947266e+00  -2.004203144704000294e+00  -1.570529762898580373e+00  -3.375571791325704396e+00  2.819404125213623047e+00
-2.338288466082971695e-01  -1.285485092793599904e+00  1.718716621398925781e+00  -2.004191223775045216e+00  -1.570577446614400685e+00  -3.375583712254659474e+00  2.889881134033203125e+00
-2.329052130328577164e-01  -1.286671940480367482e+00  1.720176219940185547e+00  -2.002826038991109669e+00  -1.567584816609517873e+00  -3.376553837453023732e+00  2.972275972366333008e+00
-2.255771795855920914e-01  -1.298072640095845998e+00  1.731723308563232422e+00  -1.990072552357808888e+00  -1.541055981312887013e+00  -3.386852089558736623e+00  3.047269105911254883e+00
-2.378824392901819351e-01  -1.324566189442769826e+00  1.757703304290771484e+00  -1.961811367665426076e+00  -1.520824257527486623e+00  -3.409303728734151662e+00  3.124273061752319336e+00
-2.516635099994104507e-01  -1.347439114247457326e+00  1.779960632324218750e+00  -1.938304249440328419e+00  -1.522153202687398732e+00  -3.428570095692769826e+00  3.176687002182006836e+00
-2.661994139300745132e-01  -1.371774021779195607e+00  1.803678512573242188e+00  -1.913934532796041310e+00  -1.532173458729879201e+00  -3.448471609746114552e+00  3.234429121017456055e+00
-2.935922781573694351e-01  -1.405531231557027638e+00  1.836897850036621094e+00  -1.882654968892232716e+00  -1.555433575307027638e+00  -3.475485150014058888e+00  3.307126045227050781e+00
-3.446233908282678726e-01  -1.454595390950338185e+00  1.884395122528076172e+00  -1.842441383992330373e+00  -1.608230415974752248e+00  -3.513970200215474904e+00  3.400244951248168945e+00
-3.820050398456018570e-01  -1.491815392171041310e+00  1.917197227478027344e+00  -1.814861599599019826e+00  -1.662241284047262013e+00  -3.543295208607808888e+00  3.472902059555053711e+00
-4.093845526324670914e-01  -1.510826889668599904e+00  1.932970523834228516e+00  -1.801843945180074513e+00  -1.690295521412984669e+00  -3.559532229100362599e+00  3.517270088195800781e+00
-4.577019850360315445e-01  -1.534920040761129201e+00  1.952860355377197266e+00  -1.785676304494039357e+00  -1.725332562123433888e+00  -3.582498852406637013e+00  3.570809125900268555e+00
-5.101311842547815445e-01  -1.557035748158590138e+00  1.971098899841308594e+00  -1.769317452107564748e+00  -1.763245407735006154e+00  -3.605633322392598927e+00  3.625555992126464844e+00
-5.561550299273889664e-01  -1.574260059987203419e+00  1.986178398132324219e+00  -1.754946056996480763e+00  -1.798897091542379201e+00  -3.625606123601095021e+00  3.673273086547851562e+00
-5.872128645526331070e-01  -1.584796730672017873e+00  1.995166301727294922e+00  -1.745700661336080373e+00  -1.822514835988179982e+00  -3.639125172291890919e+00  3.708769083023071289e+00
-6.339052359210413101e-01  -1.598197285329000294e+00  2.006966590881347656e+00  -1.733569447194234669e+00  -1.855295483266012013e+00  -3.659374300633565724e+00  3.759491920471191406e+00
-6.890495459185999039e-01  -1.610423390065328419e+00  2.017857551574707031e+00  -1.720898453389303029e+00  -1.887574974690572560e+00  -3.683897558842794240e+00  3.813966035842895508e+00
-7.364829222308557632e-01  -1.617842499409810841e+00  2.024703979492187500e+00  -1.712119881306783498e+00  -1.909147564564840138e+00  -3.705367628728048146e+00  3.857499122619628906e+00
-7.828462759601038101e-01  -1.622553650532857716e+00  2.029203891754150391e+00  -1.705185715352193654e+00  -1.924887482319967091e+00  -3.727017466221944630e+00  3.904251098632812500e+00
-8.281291166888635757e-01  -1.624554936085836232e+00  2.031298160552978516e+00  -1.700023953114644826e+00  -1.935548130665914357e+00  -3.748631779347554982e+00  3.950891971588134766e+00
-8.707855383502405289e-01  -1.623859707509176076e+00  2.031154155731201172e+00  -1.696563069020406544e+00  -1.941597286854879201e+00  -3.770473305379049123e+00  3.999288082122802734e+00
-9.037173430072229507e-01  -1.621654335652486623e+00  2.029359340667724609e+00  -1.695053402577535451e+00  -1.943586174641744435e+00  -3.788088385258809865e+00  4.045838117599487305e+00
-9.336994330035608414e-01  -1.617482964192525685e+00  2.025924205780029297e+00  -1.695173565541402638e+00  -1.942927185689107716e+00  -3.805702988301412404e+00  4.086264133453369141e+00
-9.645560423480432632e-01  -1.609776322041646779e+00  2.019030570983886719e+00  -1.697712723408834279e+00  -1.938375298176900685e+00  -3.826107803975240529e+00  4.129485130310058594e+00
-9.859293142901819351e-01  -1.600725952778951466e+00  2.010797023773193359e+00  -1.702694718037740529e+00  -1.931056324635640919e+00  -3.842609469090596974e+00  4.172964096069335938e+00
-1.006547276173726857e+00  -1.586822334920064748e+00  1.997907638549804688e+00  -1.711664978657857716e+00  -1.918874088917867482e+00  -3.861625496541158498e+00  4.217416048049926758e+00
-1.020296398793355763e+00  -1.573337380086080373e+00  1.985257148742675781e+00  -1.721185986195699513e+00  -1.906512085591451466e+00  -3.876642052327291310e+00  4.255203008651733398e+00
-1.030964676533834279e+00  -1.558833424245015919e+00  1.971147060394287109e+00  -1.731892887745992482e+00  -1.892377678547994435e+00  -3.891251627598897755e+00  4.300692081451416016e+00
-1.040182415639058888e+00  -1.540002171193258107e+00  1.953387260437011719e+00  -1.746048275624410451e+00  -1.873692814503804982e+00  -3.907705608998433888e+00  4.348093986511230469e+00
-1.045144859944478810e+00  -1.524180237446920216e+00  1.937781333923339844e+00  -1.758790795003072560e+00  -1.856936279927388966e+00  -3.920734230672017873e+00  4.385823965072631836e+00
-1.047650162373678029e+00  -1.507865730916158498e+00  1.922247409820556641e+00  -1.771448914204732716e+00  -1.839725796376363576e+00  -3.932829205189840138e+00  4.423205137252807617e+00
-1.048105541859762013e+00  -1.488542858754293263e+00  1.903710365295410156e+00  -1.787460629140035451e+00  -1.818346802388326466e+00  -3.946145598088399709e+00  4.471358060836791992e+00
-1.046631638203756154e+00  -1.472575966511861623e+00  1.888404369354248047e+00  -1.800298992787496388e+00  -1.800298515950338185e+00  -3.956600014363424123e+00  4.514864921569824219e+00
-1.043083016072408498e+00  -1.453408543263570607e+00  1.869819164276123047e+00  -1.816334549580709279e+00  -1.778250996266500294e+00  -3.968180243168966115e+00  4.558875083923339844e+00
-1.039787117634908498e+00  -1.440390888844625294e+00  1.857445240020751953e+00  -1.827220265065328419e+00  -1.763269249592916310e+00  -3.975508991871969044e+00  4.596605062484741211e+00
-1.034920517598287404e+00  -1.424411598836080373e+00  1.841852664947509766e+00  -1.840788666401998341e+00  -1.744660202656881154e+00  -3.984299008046285451e+00  4.637047052383422852e+00
-1.029693905507222951e+00  -1.408599678670064748e+00  1.826869487762451172e+00  -1.854440991078512013e+00  -1.726673428212301076e+00  -3.992394272481099904e+00  4.675396919250488281e+00
-1.023904148732320607e+00  -1.393411938344137013e+00  1.812018871307373047e+00  -1.867290321980611623e+00  -1.709514443074361623e+00  -3.999627892171041310e+00  4.716756105422973633e+00
-1.015633408223287404e+00  -1.373836342488424123e+00  1.793159484863281250e+00  -1.884451691304342091e+00  -1.687601391469137013e+00  -4.008980337773458302e+00  4.770008087158203125e+00
-1.007889572774068654e+00  -1.358659092579976857e+00  1.778489112854003906e+00  -1.897444550191060841e+00  -1.670766178761617482e+00  -4.016034189854757130e+00  4.815212965011596680e+00
-1.000266377125875294e+00  -1.345101658497945607e+00  1.765421390533447266e+00  -1.909623924885885060e+00  -1.656338040028707326e+00  -4.022069756184713185e+00  4.865121126174926758e+00
-9.950278441058557632e-01  -1.336985890065328419e+00  1.757343769073486328e+00  -1.916964356099263966e+00  -1.647633377705709279e+00  -4.025686566029683888e+00  4.901504993438720703e+00
-9.886143843280237320e-01  -1.327575031911031544e+00  1.748297214508056641e+00  -1.925131146107808888e+00  -1.637863461171285451e+00  -4.029650274907247365e+00  4.942274093627929688e+00
-9.222148100482385757e-01  -1.254447285329000294e+00  1.676882266998291016e+00  -1.993509594594137013e+00  -1.570661369954244435e+00  -4.064188305531637013e+00  5.770046949386596680e+00
-9.223106543170374039e-01  -1.254555050526754201e+00  1.677013874053955078e+00  -1.993461434041158498e+00  -1.570757214223043263e+00  -4.064056698475972951e+00  5.845366954803466797e+00
-9.251282850848596695e-01  -1.252025906239644826e+00  1.673436164855957031e+00  -1.994503800068990529e+00  -1.577892605458394826e+00  -4.060296122227804005e+00  5.942909955978393555e+00
-9.411318937884729507e-01  -1.231273953114644826e+00  1.644358158111572266e+00  -2.005724255238668263e+00  -1.627865616475240529e+00  -4.028261248265401662e+00  6.033246994018554688e+00
-9.368518034564417007e-01  -1.227557961140767873e+00  1.619744300842285156e+00  -2.003736321126119435e+00  -1.662073437367574513e+00  -3.975796524678365529e+00  6.128037929534912109e+00
-9.346826712237756851e-01  -1.211984936391012013e+00  1.592473030090332031e+00  -1.991569344197408498e+00  -1.700689140950338185e+00  -3.931727234517232716e+00  6.209948062896728516e+00
-9.430139700519006851e-01  -1.188199345265523732e+00  1.563587665557861328e+00  -1.994982544575826466e+00  -1.732852760945455373e+00  -3.895478550587789357e+00  6.279330015182495117e+00
-9.469335714923303726e-01  -1.174412075673238576e+00  1.545267581939697266e+00  -2.001879994069234669e+00  -1.746947113667623341e+00  -3.862762753163472951e+00  6.330522060394287109e+00
-9.431937376605432632e-01  -1.171474758778707326e+00  1.537956237792968750e+00  -2.001305405293599904e+00  -1.753102604542867482e+00  -3.834550444279805959e+00  6.376608133316040039e+00
-9.358571211444299820e-01  -1.173045460377828419e+00  1.535060405731201172e+00  -1.992551628743306935e+00  -1.766789738331929982e+00  -3.801906887684957326e+00  6.434371948242187500e+00
-9.275496641742151382e-01  -1.177397553120748341e+00  1.535670757293701172e+00  -1.979175392781392873e+00  -1.789053265248433888e+00  -3.769587341939107716e+00  6.493238925933837891e+00
-9.181030432330530289e-01  -1.183847252522603810e+00  1.538578510284423828e+00  -1.963152710591451466e+00  -1.815496269856588185e+00  -3.738309685383931935e+00  6.551938056945800781e+00
-9.054916540728967789e-01  -1.195176903401510060e+00  1.545411109924316406e+00  -1.939765278493062794e+00  -1.847510162984029591e+00  -3.699835840855733693e+00  6.621366977691650391e+00
-8.968003431903284195e-01  -1.204312149678365529e+00  1.551884651184082031e+00  -1.922017876301900685e+00  -1.866302315388814748e+00  -3.675431791936055959e+00  6.671046018600463867e+00
-8.857110182391565445e-01  -1.216168228779928029e+00  1.561313629150390625e+00  -1.898797814046041310e+00  -1.885299030934469044e+00  -3.647759024296895802e+00  6.725064992904663086e+00
-8.723800818072717789e-01  -1.230675045643941701e+00  1.573040962219238281e+00  -1.871135059987203419e+00  -1.903769318257467091e+00  -3.617380205784932912e+00  6.787094116210937500e+00
-8.592765966998499039e-01  -1.243094746266500294e+00  1.583127975463867188e+00  -1.846919838582174123e+00  -1.917855564747945607e+00  -3.592257801686422169e+00  6.839424133300781250e+00
-8.460286299334924820e-01  -1.252972904835836232e+00  1.591372489929199219e+00  -1.827040497456685841e+00  -1.928696457539693654e+00  -3.572117153798238576e+00  6.890905141830444336e+00
-8.317621389972131851e-01  -1.262155834828512013e+00  1.599042892456054688e+00  -1.807711903248922169e+00  -1.938267532979146779e+00  -3.553389612828389943e+00  6.942469120025634766e+00
-8.077600638019006851e-01  -1.274312321339742482e+00  1.608938217163085938e+00  -1.781125847493306935e+00  -1.948988739644185841e+00  -3.527441565190450490e+00  7.012915134429931641e+00
-7.910712401019495132e-01  -1.281193081532613576e+00  1.614335536956787109e+00  -1.765173737202779591e+00  -1.953732315693990529e+00  -3.511563603078023732e+00  7.058661937713623047e+00
-7.761924902545374039e-01  -1.286048237477437794e+00  1.618224143981933594e+00  -1.752742592488424123e+00  -1.956008736287252248e+00  -3.499445740376607716e+00  7.097594976425170898e+00
-7.613852659808557632e-01  -1.290052715932027638e+00  1.621215343475341797e+00  -1.741653267537252248e+00  -1.956595245991842091e+00  -3.488321606312887013e+00  7.141798973083496094e+00
-7.430174986468713882e-01  -1.293493096028463185e+00  1.623836517333984375e+00  -1.730167690907613576e+00  -1.955433193837301076e+00  -3.475712839757100880e+00  7.188193082809448242e+00
-7.149608770953577164e-01  -1.296346012745992482e+00  1.625260353088378906e+00  -1.715856377278463185e+00  -1.949815098439351857e+00  -3.459320131932393849e+00  7.262525081634521484e+00
-6.947811285602014664e-01  -1.295974556599752248e+00  1.624051570892333984e+00  -1.709018055592672169e+00  -1.942711655293599904e+00  -3.449764553700582326e+00  7.309572935104370117e+00
-6.725390593158167007e-01  -1.293445412312642873e+00  1.620869159698486328e+00  -1.704670731221334279e+00  -1.932098213826314748e+00  -3.441550318394796193e+00  7.356182098388671875e+00
-6.509326140033167007e-01  -1.289297405873433888e+00  1.616273403167724609e+00  -1.703449551259176076e+00  -1.920251194630758107e+00  -3.435467545186178029e+00  7.398355960845947266e+00
-6.226223150836389664e-01  -1.281853024159566701e+00  1.608137130737304688e+00  -1.704694573079244435e+00  -1.903517548237935841e+00  -3.428953234349386037e+00  7.438699007034301758e+00
-5.926569143878381851e-01  -1.271998230610982716e+00  1.597606658935546875e+00  -1.708766762410299123e+00  -1.884688679371969044e+00  -3.423002068196431935e+00  7.490272045135498047e+00
-5.612033049212854507e-01  -1.260369602833883107e+00  1.585676670074462891e+00  -1.715222183858053029e+00  -1.863895241414205373e+00  -3.417817417775289357e+00  7.540199995040893555e+00
-5.347984472857874039e-01  -1.250011746083394826e+00  1.574799060821533203e+00  -1.721844975148336232e+00  -1.844994846974508107e+00  -3.414165083562032521e+00  7.579401016235351562e+00
-5.083449522601526382e-01  -1.238587204610006154e+00  1.563013076782226562e+00  -1.729521576558248341e+00  -1.824837986622945607e+00  -3.410824600850240529e+00  7.618016958236694336e+00
-4.772971312152307632e-01  -1.223613087330953419e+00  1.548151493072509766e+00  -1.739772621785299123e+00  -1.799340550099508107e+00  -3.407267872487203419e+00  7.664809942245483398e+00
-4.571507612811487320e-01  -1.213531319295064748e+00  1.537740707397460938e+00  -1.747389618550435841e+00  -1.782310787831441701e+00  -3.405160967503682912e+00  7.698122024536132812e+00
-4.379032293902795914e-01  -1.203137699757711232e+00  1.526947021484375000e+00  -1.755616966878072560e+00  -1.765304867421285451e+00  -3.403280560170308888e+00  7.730406045913696289e+00
-4.201181570636194351e-01  -1.192347351704732716e+00  1.516428947448730469e+00  -1.763676945363179982e+00  -1.748671833668844044e+00  -3.401532236729757130e+00  7.764045000076293945e+00
-3.989632765399377945e-01  -1.179315869008199513e+00  1.503015518188476562e+00  -1.773976151143209279e+00  -1.728805367146627248e+00  -3.399532381688253224e+00  7.804390907287597656e+00
-3.835046927081506851e-01  -1.169221226369039357e+00  1.492712497711181641e+00  -1.782383267079488576e+00  -1.713884655629293263e+00  -3.398179594670430959e+00  7.837167024612426758e+00
-3.627808729754846695e-01  -1.154858414326803029e+00  1.478245735168457031e+00  -1.794263188038961232e+00  -1.693600479756490529e+00  -3.396347586308614552e+00  7.880043029785156250e+00
-3.508842627154749039e-01  -1.146202866231099904e+00  1.469318866729736328e+00  -1.801568333302633107e+00  -1.681434456502095998e+00  -3.395317618046895802e+00  7.918767929077148438e+00
-3.397067228900354507e-01  -1.137834850941793263e+00  1.460966587066650391e+00  -1.808669869099752248e+00  -1.670203510914937794e+00  -3.394431654606954396e+00  7.948722124099731445e+00
-3.278573195086877945e-01  -1.128231827412740529e+00  1.451309680938720703e+00  -1.817148510609762013e+00  -1.657822434102193654e+00  -3.393413607274190724e+00  7.982350111007690430e+00
-3.192580381976526382e-01  -1.121290032063619435e+00  1.444214344024658203e+00  -1.823388401662008107e+00  -1.648830715809957326e+00  -3.392754856740133107e+00  8.016704082489013672e+00
-3.133695761310022476e-01  -1.116362873707906544e+00  1.439152240753173828e+00  -1.827771011983053029e+00  -1.642664734517232716e+00  -3.392347876225606740e+00  8.043692111968994141e+00
-2.462304274188440445e-01  -1.044847790394918263e+00  1.367834091186523438e+00  -1.893984142933980763e+00  -1.570565525685445607e+00  -3.388001267110006154e+00  8.873434066772460938e+00
-2.463381926165979507e-01  -1.044943634663717091e+00  1.367894172668457031e+00  -1.893912140523092091e+00  -1.570649449025289357e+00  -3.387953344975606740e+00  8.956838130950927734e+00
-2.456181685077112320e-01  -1.046106640492574513e+00  1.369258403778076172e+00  -1.893133465443746388e+00  -1.568638149891988576e+00  -3.388827864323751271e+00  9.025103092193603516e+00
-2.390340010272424820e-01  -1.060625378285543263e+00  1.386034965515136719e+00  -1.884595219288961232e+00  -1.546598736439840138e+00  -3.400215212498800099e+00  9.097414970397949219e+00
-2.481249014483850601e-01  -1.086726013814107716e+00  1.416105747222900391e+00  -1.868391815816060841e+00  -1.533992592488424123e+00  -3.419936720524923146e+00  9.166579961776733398e+00
-2.660673300372522476e-01  -1.121301952992574513e+00  1.454612731933593750e+00  -1.849303547536031544e+00  -1.541426483784810841e+00  -3.443562094365255177e+00  9.224725008010864258e+00
-2.839620749102991226e-01  -1.155673805867330373e+00  1.492832183837890625e+00  -1.830501381550924123e+00  -1.559515778218404591e+00  -3.470120731984273732e+00  9.280334949493408203e+00
-3.242710272418420914e-01  -1.209586922322408498e+00  1.552135944366455078e+00  -1.799125496541158498e+00  -1.595802609120504201e+00  -3.517993752156392873e+00  9.362565994262695312e+00
-3.736828009234827164e-01  -1.256257836018697560e+00  1.603721141815185547e+00  -1.771484676991597951e+00  -1.635073486958638966e+00  -3.558478895817891896e+00  9.428997039794921875e+00
-4.362838904010217789e-01  -1.303299729024068654e+00  1.655738353729248047e+00  -1.745892349873678029e+00  -1.676286045704976857e+00  -3.595969978963033498e+00  9.493087053298950195e+00
-5.132969061480920914e-01  -1.352497879658834279e+00  1.711417198181152344e+00  -1.721521202717916310e+00  -1.722159210835592091e+00  -3.635269943867818654e+00  9.561224937438964844e+00
-5.793226400958459976e-01  -1.389407936726705373e+00  1.752317905426025391e+00  -1.703688923512594044e+00  -1.762551132832662404e+00  -3.665157858525411427e+00  9.620378017425537109e+00
-6.471436659442346695e-01  -1.423644367848531544e+00  1.791448593139648438e+00  -1.687748734151021779e+00  -1.804861370717183888e+00  -3.694255654011861623e+00  9.678735017776489258e+00
-7.149966398822229507e-01  -1.454906765614644826e+00  1.827803134918212891e+00  -1.674382511769429982e+00  -1.844827477131978810e+00  -3.722742859517232716e+00  9.728518009185791016e+00
-7.823427359210413101e-01  -1.483124558125631154e+00  1.861250877380371094e+00  -1.664166752492086232e+00  -1.878950897847310841e+00  -3.750966850911275685e+00  9.790163993835449219e+00
-8.475392500506799820e-01  -1.508537594472066701e+00  1.892126083374023438e+00  -1.656933132802144826e+00  -1.905889336262838185e+00  -3.779466454182760060e+00  9.845021963119506836e+00
-9.170602003680627945e-01  -1.533925358449117482e+00  1.923587799072265625e+00  -1.652657334004537404e+00  -1.927355114613668263e+00  -3.812121693287984669e+00  9.911456108093261719e+00
-9.801991621600549820e-01  -1.555609051381246388e+00  1.951639652252197266e+00  -1.651627842579976857e+00  -1.941106621419088185e+00  -3.844142023717061818e+00  9.972082138061523438e+00
-1.029825512562887013e+00  -1.571839157735006154e+00  1.973313331604003906e+00  -1.652633492146627248e+00  -1.948976818715230763e+00  -3.870893780385152638e+00  1.002382493019104004e+01
-1.091328922902242482e+00  -1.591125313435689748e+00  1.999486923217773438e+00  -1.657436196004049123e+00  -1.955409351979390919e+00  -3.906543318425313771e+00  1.010520100593566895e+01
-1.122060600911275685e+00  -1.599671665822164357e+00  2.012065410614013672e+00  -1.662730042134420216e+00  -1.955924812947408498e+00  -3.926709477101461232e+00  1.015255212783813477e+01
-1.143910233174459279e+00  -1.604801479970113576e+00  2.020574569702148438e+00  -1.668574635182515919e+00  -1.954091850911275685e+00  -3.942445103322164357e+00  1.019730401039123535e+01
-1.180333916340963185e+00  -1.608109776173726857e+00  2.031202316284179688e+00  -1.690538708363668263e+00  -1.937860314046041310e+00  -3.978060070668355763e+00  1.029086995124816895e+01
-1.193829361592428029e+00  -1.601733032857076466e+00  2.029191970825195312e+00  -1.710766617451803029e+00  -1.917352501546041310e+00  -3.999879185353414357e+00  1.035160398483276367e+01
-1.199774090443746388e+00  -1.585731331502095998e+00  2.016888141632080078e+00  -1.728826824818746388e+00  -1.891168419514791310e+00  -4.019794289265767873e+00  1.042228198051452637e+01
-1.199222866688863576e+00  -1.566601101552144826e+00  2.000791549682617188e+00  -1.742934528981344044e+00  -1.865320507680074513e+00  -4.035267178212301076e+00  1.047647404670715332e+01
-1.196454350148336232e+00  -1.552576367055074513e+00  1.988512516021728516e+00  -1.754276100789205373e+00  -1.846109215413228810e+00  -4.045650307332174123e+00  1.051653194427490234e+01
-1.192199055348531544e+00  -1.539007488881246388e+00  1.976724147796630859e+00  -1.766658608113424123e+00  -1.826646629964010060e+00  -4.055314366017476857e+00  1.055180597305297852e+01
-1.187645260487691701e+00  -1.529071156178609669e+00  1.967736244201660156e+00  -1.777425114308492482e+00  -1.811232868825094044e+00  -4.062476221715108693e+00  1.058931303024291992e+01
-1.181089226399556935e+00  -1.516832176839010060e+00  1.957085132598876953e+00  -1.791616741810933888e+00  -1.791687790547506154e+00  -4.071350161229268849e+00  1.062902092933654785e+01
-1.173730198537008107e+00  -1.505108658467428029e+00  1.946625232696533203e+00  -1.805592362080709279e+00  -1.772718254719869435e+00  -4.079565588627950490e+00  1.066574907302856445e+01
-1.165699783955709279e+00  -1.493889156972066701e+00  1.936512947082519531e+00  -1.820394341145650685e+00  -1.754096333180562794e+00  -4.087326113377706349e+00  1.070836400985717773e+01
-1.157274071370260060e+00  -1.482788864766256154e+00  1.926615715026855469e+00  -1.835220162068502248e+00  -1.736169640217916310e+00  -4.094547812138692677e+00  1.074491596221923828e+01
-1.148692909871236623e+00  -1.472216431294576466e+00  1.916898250579833984e+00  -1.850692574177877248e+00  -1.718997780476705373e+00  -4.101445500050679982e+00  1.078342700004577637e+01
-1.138169113789693654e+00  -1.459917370473043263e+00  1.905744552612304688e+00  -1.868894879017965138e+00  -1.699527565632955373e+00  -4.109301869069234669e+00  1.083746194839477539e+01
-1.129180256520406544e+00  -1.450196568165914357e+00  1.896901130676269531e+00  -1.883960072194234669e+00  -1.684572045003072560e+00  -4.115206305180684865e+00  1.087802290916442871e+01
-1.118884388600484669e+00  -1.439647022877828419e+00  1.887075901031494141e+00  -1.900773827229635060e+00  -1.668011967335836232e+00  -4.121601883565084279e+00  1.091865897178649902e+01
-1.110638443623678029e+00  -1.431700054799215138e+00  1.879572391510009766e+00  -1.914293591176168263e+00  -1.655835453663961232e+00  -4.126427714024679005e+00  1.096318411827087402e+01
-1.100809876118795216e+00  -1.422864739094869435e+00  1.871566295623779297e+00  -1.928628269826070607e+00  -1.642868343983785451e+00  -4.131673876439229787e+00  1.101318693161010742e+01
-1.091903988515035451e+00  -1.415192906056539357e+00  1.864589691162109375e+00  -1.941788975392476857e+00  -1.631697479878560841e+00  -4.136332337056295216e+00  1.105711102485656738e+01
-1.085060421620504201e+00  -1.409631077443258107e+00  1.859479904174804688e+00  -1.951512638722554982e+00  -1.623710934315816701e+00  -4.139637772236959279e+00  1.110032200813293457e+01
-1.078826729451314748e+00  -1.404416386281148732e+00  1.854728698730468750e+00  -1.960218731557027638e+00  -1.616491142903463185e+00  -4.142560068761007130e+00  1.113540005683898926e+01
-1.025870625172750294e+00  -1.364258114491597951e+00  1.820671081542968750e+00  -2.027243439351217091e+00  -1.570613209401265919e+00  -4.167746369038717091e+00  1.194332408905029297e+01
-1.025942150746480763e+00  -1.364341560994283498e+00  1.820719242095947266e+00  -2.027303043995992482e+00  -1.570697132741109669e+00  -4.167722288762227834e+00  1.202399110794067383e+01
-1.025654617940084279e+00  -1.363958183919088185e+00  1.819869518280029297e+00  -2.027746025715963185e+00  -1.572828594838277638e+00  -4.165973726903096974e+00  1.210181403160095215e+01
-1.021638695393697560e+00  -1.358815018330709279e+00  1.809913158416748047e+00  -2.035158936177388966e+00  -1.593264881764547169e+00  -4.149122778569356740e+00  1.216559696197509766e+01
-1.007853809987203419e+00  -1.344214264546529591e+00  1.783382892608642578e+00  -2.055947128926412404e+00  -1.644508663808004201e+00  -4.093912665043966115e+00  1.226371097564697266e+01
-9.997265974627893570e-01  -1.338256184254781544e+00  1.770315647125244141e+00  -2.069670502339498341e+00  -1.668443504964010060e+00  -4.060499970112935841e+00  1.231108808517456055e+01
-9.789407888995569351e-01  -1.338843647633687794e+00  1.758756160736083984e+00  -2.093380276356832326e+00  -1.704101387654439748e+00  -3.994885031376973927e+00  1.239359402656555176e+01
-9.368398825274866226e-01  -1.339742962514058888e+00  1.749865055084228516e+00  -2.109906021748678029e+00  -1.734828297291890919e+00  -3.916770521794454396e+00  1.249312090873718262e+01
-9.006722609149377945e-01  -1.313585106526510060e+00  1.716382980346679688e+00  -2.136142555867330373e+00  -1.777424637471334279e+00  -3.837112728749410451e+00  1.258982110023498535e+01
-8.840444723712366226e-01  -1.289788548146383107e+00  1.688968181610107422e+00  -2.148728195820943654e+00  -1.764215771351949513e+00  -3.771683041249410451e+00  1.266592097282409668e+01
-8.554399649249475601e-01  -1.292941872273580373e+00  1.689027786254882812e+00  -2.136238400136129201e+00  -1.751365963612691701e+00  -3.698267046605245412e+00  1.276715111732482910e+01
-8.317144552813928726e-01  -1.303479496632711232e+00  1.698505401611328125e+00  -2.120539490376607716e+00  -1.772442642842428029e+00  -3.654129330311910451e+00  1.282970094680786133e+01
-8.106616179095667007e-01  -1.314244572316304982e+00  1.708999633789062500e+00  -2.103499714528219044e+00  -1.802466217671529591e+00  -3.613045517598287404e+00  1.288794994354248047e+01
-7.963584105121057632e-01  -1.323559109364644826e+00  1.718596935272216797e+00  -2.088135544453756154e+00  -1.823353115712301076e+00  -3.583696190510885060e+00  1.293695712089538574e+01
-7.839973608600061539e-01  -1.332670036946431935e+00  1.728121757507324219e+00  -2.074640099202291310e+00  -1.839126412068502248e+00  -3.559843603764669240e+00  1.298165011405944824e+01
-7.638552824603479507e-01  -1.349824730549947560e+00  1.745915889739990234e+00  -2.049552742634908498e+00  -1.861894909535543263e+00  -3.523058954869405568e+00  1.304003095626831055e+01
-7.443478743182581070e-01  -1.366990868245260060e+00  1.764404296875000000e+00  -2.025279347096578419e+00  -1.879705254231588185e+00  -3.491758171712056935e+00  1.309574198722839355e+01
-7.293966452227991226e-01  -1.379494015370504201e+00  1.777997970581054688e+00  -2.007700268422262013e+00  -1.891611878071920216e+00  -3.469881359730855763e+00  1.313804697990417480e+01
-7.130783239947717789e-01  -1.391997639332906544e+00  1.791651725769042969e+00  -1.989414517079488576e+00  -1.903110329304830373e+00  -3.448950592671529591e+00  1.318129491806030273e+01
-6.924193541156213882e-01  -1.406790081654683888e+00  1.807830810546875000e+00  -1.968170468007222951e+00  -1.915915314351217091e+00  -3.425121847783223927e+00  1.322228407859802246e+01
-6.781509558307092789e-01  -1.416248146687642873e+00  1.818492889404296875e+00  -1.954542462025777638e+00  -1.923629585896627248e+00  -3.409566942845479787e+00  1.326167702674865723e+01
-6.560524145709436539e-01  -1.429829422627584279e+00  1.833642959594726562e+00  -1.934017006550924123e+00  -1.933535877858297169e+00  -3.387738052998678029e+00  1.331139993667602539e+01
-6.338933149920862320e-01  -1.442176644002095998e+00  1.847572803497314453e+00  -1.915144268666402638e+00  -1.940998856221334279e+00  -3.367597166691915334e+00  1.335222506523132324e+01
-6.079452673541467789e-01  -1.455134693776265919e+00  1.862579345703125000e+00  -1.894654099141256154e+00  -1.946389500294820607e+00  -3.345468584691182912e+00  1.341092109680175781e+01
-5.816724936114709976e-01  -1.465791050587789357e+00  1.875180244445800781e+00  -1.876882855092183888e+00  -1.948042217885152638e+00  -3.325591627751485646e+00  1.346510791778564453e+01
-5.515387693988245132e-01  -1.475393120442525685e+00  1.887028217315673828e+00  -1.859686199818746388e+00  -1.945885960255758107e+00  -3.305462185536519826e+00  1.352694797515869141e+01
-5.324242750750940445e-01  -1.479791943226949513e+00  1.892772197723388672e+00  -1.850500408803121388e+00  -1.942184750233785451e+00  -3.294002596532003224e+00  1.357418298721313477e+01
-5.031040350543420914e-01  -1.483736340199605763e+00  1.898396968841552734e+00  -1.840489212666646779e+00  -1.933236424122945607e+00  -3.279645506535665334e+00  1.362416005134582520e+01
-4.793360869037073257e-01  -1.484251801167623341e+00  1.900131702423095703e+00  -1.835938278828756154e+00  -1.923629585896627248e+00  -3.270413700734273732e+00  1.366653800010681152e+01
-4.530614058123987320e-01  -1.482429329548970998e+00  1.899641036987304688e+00  -1.833639446889058888e+00  -1.911746803914205373e+00  -3.261982981358663380e+00  1.370980811119079590e+01
-4.255507628070276382e-01  -1.478653732930318654e+00  1.897164344787597656e+00  -1.833495918904439748e+00  -1.897875610982076466e+00  -3.254343811665670216e+00  1.375008606910705566e+01
-3.859031836139124039e-01  -1.470921818410054982e+00  1.890761852264404297e+00  -1.836357895527974904e+00  -1.875788990651265919e+00  -3.244967285786763966e+00  1.380340600013732910e+01
-3.519995848285120132e-01  -1.461979214345113576e+00  1.883090496063232422e+00  -1.841387573872701466e+00  -1.854684654866353810e+00  -3.237782780324117482e+00  1.385153198242187500e+01
-3.186462561236780289e-01  -1.451766316090719044e+00  1.874019622802734375e+00  -1.848069492970601857e+00  -1.832443062459127248e+00  -3.231483999882833302e+00  1.389969897270202637e+01
-2.818506399737756851e-01  -1.438664738331929982e+00  1.861968994140625000e+00  -1.857422653828756154e+00  -1.804358307515279591e+00  -3.225233856831685841e+00  1.395291709899902344e+01
-2.570002714740198257e-01  -1.428367439900533498e+00  1.852119922637939453e+00  -1.865278546010152638e+00  -1.783735577260152638e+00  -3.221282068883077443e+00  1.399892497062683105e+01
-2.338169256793420914e-01  -1.417218510304586232e+00  1.841852664947509766e+00  -1.873901192341939748e+00  -1.762850109730855763e+00  -3.217713658009664357e+00  1.403816294670104980e+01
-2.079342047320764664e-01  -1.403756443654195607e+00  1.829167842864990234e+00  -1.884954277669088185e+00  -1.738492790852681935e+00  -3.213881794606344044e+00  1.407812690734863281e+01
-1.923535505877893570e-01  -1.394706074391500294e+00  1.820479393005371094e+00  -1.892079655324117482e+00  -1.723152939473287404e+00  -3.211570803319112599e+00  1.411504793167114258e+01
-1.780927816974084976e-01  -1.386099163685933888e+00  1.812139034271240234e+00  -1.899396721516744435e+00  -1.708496395741597951e+00  -3.209462944661275685e+00  1.414819812774658203e+01
-1.619012991534631851e-01  -1.375478092824117482e+00  1.802003383636474609e+00  -1.908569637929097951e+00  -1.691648785267965138e+00  -3.207175795231954396e+00  1.418838310241699219e+01
-1.449177900897424820e-01  -1.363586250935689748e+00  1.790611267089843750e+00  -1.918796364461080373e+00  -1.673388306294576466e+00  -3.204732958470479787e+00  1.423162412643432617e+01
-1.374447981463831070e-01  -1.357916180287496388e+00  1.785345554351806641e+00  -1.923515144978658498e+00  -1.665174786244527638e+00  -3.203691069279805959e+00  1.426047992706298828e+01
-1.241677443133752945e-01  -1.347654644642965138e+00  1.775425434112548828e+00  -1.932556454335347951e+00  -1.650578800831929982e+00  -3.201799456273214162e+00  1.430214500427246094e+01
-1.162150541888635757e-01  -1.341469113026754201e+00  1.769286632537841797e+00  -1.938280407582418263e+00  -1.641934219990865529e+00  -3.200757567082540334e+00  1.433685803413391113e+01
-5.023414293398076325e-02  -1.274599854146138966e+00  1.704213142395019531e+00  -2.000515286122457326e+00  -1.570541683827535451e+00  -3.191991869603292287e+00  1.515551209449768066e+01
-5.032998720277959137e-02  -1.274695698414937794e+00  1.704344749450683594e+00  -2.000598732625142873e+00  -1.570673290883199513e+00  -3.191968266163961232e+00  1.524864602088928223e+01
-4.850656190981084137e-02  -1.278112236653463185e+00  1.707683086395263672e+00  -1.999413315449849904e+00  -1.563215080891744435e+00  -3.195033613835470021e+00  1.533815002441406250e+01
-3.983432451357060700e-02  -1.296526257191793263e+00  1.725573062896728516e+00  -1.991773430501119435e+00  -1.527971092854635060e+00  -3.213163201008931935e+00  1.540936899185180664e+01
-4.169351259340459137e-02  -1.323331181203023732e+00  1.752054691314697266e+00  -1.975272003804342091e+00  -1.507153813038961232e+00  -3.237243954335347951e+00  1.547365307807922363e+01
-5.326825777162724762e-02  -1.354966942464010060e+00  1.784304618835449219e+00  -1.951512638722554982e+00  -1.507428948079244435e+00  -3.263803545628682912e+00  1.553544807434082031e+01
-7.225591341127568512e-02  -1.389527622853414357e+00  1.819486141204833984e+00  -1.923886124287740529e+00  -1.520644966756002248e+00  -3.292194668446676076e+00  1.559857797622680664e+01
-9.082299867738896637e-02  -1.417866055165426076e+00  1.847321510314941406e+00  -1.903420273457662404e+00  -1.535883728657857716e+00  -3.314287487660543263e+00  1.565422701835632324e+01
-1.220443884478967789e-01  -1.457544151936666310e+00  1.886956214904785156e+00  -1.879505459462301076e+00  -1.561802212391988576e+00  -3.344702307377950490e+00  1.571668100357055664e+01
-1.554482618915002945e-01  -1.493493382130758107e+00  1.922486782073974609e+00  -1.861122910176412404e+00  -1.587901417409078419e+00  -3.371572796498433888e+00  1.576622295379638672e+01
-1.976431051837366226e-01  -1.535015885029928029e+00  1.963140964508056641e+00  -1.842237297688619435e+00  -1.619400803242818654e+00  -3.401963297520772755e+00  1.583200311660766602e+01
-2.365630308734338882e-01  -1.571371380482808888e+00  1.997368335723876953e+00  -1.827723328267232716e+00  -1.647992436085836232e+00  -3.427947346364156544e+00  1.589384603500366211e+01
-2.945039908038538101e-01  -1.624447170888082326e+00  2.046868801116943359e+00  -1.807149235402242482e+00  -1.698845211659566701e+00  -3.467139069234029591e+00  1.597581911087036133e+01
-3.452947775470178726e-01  -1.667896572743551076e+00  2.089500427246093750e+00  -1.785604778920308888e+00  -1.769017998372213185e+00  -3.506534401570455373e+00  1.607057094573974609e+01
-3.665106932269495132e-01  -1.684544865285054982e+00  2.107214927673339844e+00  -1.771317307149068654e+00  -1.808275047932760060e+00  -3.524890724812642873e+00  1.612639212608337402e+01
-3.930743376361292007e-01  -1.699012104664937794e+00  2.123983383178710938e+00  -1.755688969288961232e+00  -1.847210709248678029e+00  -3.542672459279195607e+00  1.617182898521423340e+01
-4.327343145953577164e-01  -1.714269463215963185e+00  2.142271995544433594e+00  -1.738144222890035451e+00  -1.888868633900777638e+00  -3.563711468373433888e+00  1.622542309761047363e+01
-4.634702841388147476e-01  -1.723882500325338185e+00  2.153595447540283203e+00  -1.727389160786763966e+00  -1.915364567433492482e+00  -3.579313818608419240e+00  1.626827812194824219e+01
-4.941700140582483414e-01  -1.731768433247701466e+00  2.163206577301025391e+00  -1.717891995106832326e+00  -1.938099686299459279e+00  -3.594964090977804005e+00  1.630483913421630859e+01
-5.247495810138147476e-01  -1.737881485615865529e+00  2.170783042907714844e+00  -1.710036102925435841e+00  -1.956223789845601857e+00  -3.611249033604757130e+00  1.634254598617553711e+01
-5.553997198687952164e-01  -1.741321388875142873e+00  2.175966262817382812e+00  -1.704287354146138966e+00  -1.969964329396383107e+00  -3.627713982258931935e+00  1.638746595382690430e+01
-5.860498587237756851e-01  -1.742388073598043263e+00  2.178312778472900391e+00  -1.700730625783101857e+00  -1.979332272206441701e+00  -3.644813124333516896e+00  1.642761301994323730e+01
-6.219385305987756851e-01  -1.740338150654928029e+00  2.177905559539794922e+00  -1.699497048054830373e+00  -1.985646073018209279e+00  -3.665145937596456349e+00  1.647068810462951660e+01
-6.455124060260217789e-01  -1.737198177968160451e+00  2.175666809082031250e+00  -1.700371090565816701e+00  -1.987059418355123341e+00  -3.678880516682760060e+00  1.650758314132690430e+01
-6.737263838397424820e-01  -1.731277290974752248e+00  2.170783042907714844e+00  -1.703305546437398732e+00  -1.985837761555806935e+00  -3.695500914250509084e+00  1.654608201980590820e+01
-6.998770872699182632e-01  -1.723282639180318654e+00  2.163793563842773438e+00  -1.708275620137349904e+00  -1.981860462819234669e+00  -3.712229315434591115e+00  1.658937811851501465e+01
-7.237494627581995132e-01  -1.713514629994527638e+00  2.155031681060791016e+00  -1.715162102376119435e+00  -1.974948231373922169e+00  -3.728287045155660451e+00  1.662669992446899414e+01
-7.410028616534631851e-01  -1.704609219227926076e+00  2.146749019622802734e+00  -1.721689049397603810e+00  -1.967640225087301076e+00  -3.740991894398824513e+00  1.665927410125732422e+01
-7.600668112384241226e-01  -1.692515675221578419e+00  2.135258197784423828e+00  -1.730838600789205373e+00  -1.956786934529439748e+00  -3.756079975758687794e+00  1.669600892066955566e+01
-7.733987013446252945e-01  -1.681944195424215138e+00  2.125407695770263672e+00  -1.738838974629537404e+00  -1.946904484425679982e+00  -3.767994944249288380e+00  1.673120808601379395e+01
-7.826421896563928726e-01  -1.673662010823385060e+00  2.117460727691650391e+00  -1.745401684437887013e+00  -1.938638989125387013e+00  -3.776712242756978810e+00  1.675722813606262207e+01
-8.131192366229456070e-01  -1.637548271809713185e+00  2.083037853240966797e+00  -1.774442974721090138e+00  -1.899840180073873341e+00  -3.810025755559102834e+00  1.684722495079040527e+01
-8.212841192828577164e-01  -1.624831024800435841e+00  2.070710182189941406e+00  -1.785185639058248341e+00  -1.885598484669820607e+00  -3.820551458989278615e+00  1.688027596473693848e+01
-8.300955931292932632e-01  -1.608805481587545216e+00  2.055318832397460938e+00  -1.798322979603902638e+00  -1.867080990468160451e+00  -3.833436314259664357e+00  1.691921997070312500e+01
-8.359583059894006851e-01  -1.596147839223043263e+00  2.043003082275390625e+00  -1.809005085621969044e+00  -1.852061573659078419e+00  -3.842968289052144826e+00  1.695599699020385742e+01
-8.423121611224573257e-01  -1.580277744923726857e+00  2.027444362640380859e+00  -1.822609726582662404e+00  -1.833125893269674123e+00  -3.854488436375753224e+00  1.699517393112182617e+01
-8.476589361773889664e-01  -1.564958874379293263e+00  2.012364387512207031e+00  -1.835722748433248341e+00  -1.814203087483541310e+00  -3.865493361149923146e+00  1.703400611877441406e+01
-8.517234961139124039e-01  -1.549591843281881154e+00  1.997523784637451172e+00  -1.849051777516500294e+00  -1.794861618672506154e+00  -3.875636164342061818e+00  1.707053303718566895e+01
-8.550203482257288101e-01  -1.534356419240133107e+00  1.982899188995361328e+00  -1.861973110829488576e+00  -1.775879685078756154e+00  -3.885419670735494435e+00  1.711478710174560547e+01
-8.575380484210413101e-01  -1.519457165394918263e+00  1.968238830566406250e+00  -1.874751392995015919e+00  -1.757018391286031544e+00  -3.894736353551046193e+00  1.715695500373840332e+01
-8.595884482013147476e-01  -1.502040211354390919e+00  1.951448440551757812e+00  -1.889756504689351857e+00  -1.735068146382467091e+00  -3.905070845280782521e+00  1.720014595985412598e+01
-8.605712095843713882e-01  -1.487979237233297169e+00  1.937745571136474609e+00  -1.901779476796285451e+00  -1.717692677174703419e+00  -3.913034025822774709e+00  1.723815202713012695e+01
-8.611944357501428726e-01  -1.474637810383931935e+00  1.924856662750244141e+00  -1.913515392933980763e+00  -1.701155964528219044e+00  -3.920554463063375294e+00  1.728150391578674316e+01
-8.613980452166956070e-01  -1.462087933217183888e+00  1.912745475769042969e+00  -1.924269024525777638e+00  -1.685936752949849904e+00  -3.927356306706563771e+00  1.732110500335693359e+01
-8.612664381610315445e-01  -1.450304333363668263e+00  1.901472568511962891e+00  -1.934424225484029591e+00  -1.671879593526021779e+00  -3.933439795170919240e+00  1.735966205596923828e+01
-8.611825148211877945e-01  -1.439767185841695607e+00  1.891144752502441406e+00  -1.943884674702779591e+00  -1.659475151692525685e+00  -3.938804928456441701e+00  1.740154409408569336e+01
-8.607991377459924820e-01  -1.428559128438131154e+00  1.880099296569824219e+00  -1.953847710286275685e+00  -1.646232906972066701e+00  -3.944648329411641896e+00  1.745076012611389160e+01
-8.604276815997522476e-01  -1.418213669453756154e+00  1.869962692260742188e+00  -1.962973419819967091e+00  -1.634379212056295216e+00  -3.949869696293966115e+00  1.749696803092956543e+01
-8.432715574847620132e-01  -1.352893177662984669e+00  1.806346893310546875e+00  -2.024465386067525685e+00  -1.570553604756490529e+00  -3.985065523778096974e+00  1.830704903602600098e+01
-8.433077971087854507e-01  -1.352977101002828419e+00  1.806394577026367188e+00  -2.024429146443502248e+00  -1.570625607167379201e+00  -3.985089604054586232e+00  1.838061594963073730e+01
-8.448417822467249039e-01  -1.351598564778463185e+00  1.808788299560546875e+00  -2.018645111714498341e+00  -1.582980934773580373e+00  -3.976994101201192677e+00  1.848826193809509277e+01
-8.464005629168909195e-01  -1.346887413655416310e+00  1.816817760467529297e+00  -1.998598877583638966e+00  -1.623100105916158498e+00  -3.945499006901876271e+00  1.856364893913269043e+01
-8.187902609454553726e-01  -1.350447956715719044e+00  1.821401119232177734e+00  -1.994683090840474904e+00  -1.655368153248922169e+00  -3.877037111912862599e+00  1.865479803085327148e+01
-7.950637976275842789e-01  -1.356322113667623341e+00  1.801907062530517578e+00  -2.008262936268941701e+00  -1.689098183308736623e+00  -3.823245827351705373e+00  1.873296308517456055e+01
-7.627881209002893570e-01  -1.367746178303853810e+00  1.786817550659179688e+00  -1.992551628743306935e+00  -1.740743939076558888e+00  -3.761288944874898732e+00  1.882920193672180176e+01
-7.390721479998987320e-01  -1.381088558827535451e+00  1.789186954498291016e+00  -1.958494488392965138e+00  -1.790106598530904591e+00  -3.699775759373800099e+00  1.891242599487304688e+01
-7.314227263080042007e-01  -1.397355381642476857e+00  1.791268825531005859e+00  -1.929574314747945607e+00  -1.823113743458883107e+00  -3.634108368550435841e+00  1.900016212463378906e+01
-7.202723662005823257e-01  -1.403600994740621388e+00  1.788528919219970703e+00  -1.923933808003560841e+00  -1.830670658742086232e+00  -3.595191303883687794e+00  1.905953812599182129e+01
-7.064116636859338882e-01  -1.407509152089254201e+00  1.786015987396240234e+00  -1.918473068867818654e+00  -1.837868992482320607e+00  -3.567267719899312794e+00  1.910648798942565918e+01
-6.904290358172815445e-01  -1.412508312855855763e+00  1.784447669982910156e+00  -1.904150787984029591e+00  -1.853103462849752248e+00  -3.540002409611837209e+00  1.916202497482299805e+01
-6.790140310870569351e-01  -1.417182747517720998e+00  1.783227443695068359e+00  -1.886319462453023732e+00  -1.873273674641744435e+00  -3.514617029820577443e+00  1.922171902656555176e+01
-6.667955557452600601e-01  -1.422145668660299123e+00  1.781049728393554688e+00  -1.862261120473043263e+00  -1.899002377186910451e+00  -3.481711928044454396e+00  1.929295706748962402e+01
-6.520951429950159195e-01  -1.425526444111959279e+00  1.777902603149414062e+00  -1.836237732564107716e+00  -1.921784702931539357e+00  -3.447453562413350880e+00  1.936278510093688965e+01
-6.367471853839319351e-01  -1.426748577748433888e+00  1.774479866027832031e+00  -1.815028969441549123e+00  -1.937500778828756154e+00  -3.420511547719137013e+00  1.941451001167297363e+01
-6.234853903399866226e-01  -1.426880661641256154e+00  1.771428585052490234e+00  -1.799628559743062794e+00  -1.947180096303121388e+00  -3.401137177144185841e+00  1.945654392242431641e+01
-6.095398108111780289e-01  -1.426377598439351857e+00  1.767958164215087891e+00  -1.784406963978902638e+00  -1.955709282551900685e+00  -3.381762806569234669e+00  1.949679613113403320e+01
-5.945752302752893570e-01  -1.425310436879293263e+00  1.764020919799804688e+00  -1.769545380269185841e+00  -1.963219944630758107e+00  -3.362891499196187794e+00  1.953783893585205078e+01
-5.791309515582483414e-01  -1.423656288777486623e+00  1.759509563446044922e+00  -1.755353752766744435e+00  -1.969724957142965138e+00  -3.344187323247091115e+00  1.958152198791503906e+01
-5.601003805743616226e-01  -1.420647446309224904e+00  1.753502845764160156e+00  -1.739006344472066701e+00  -1.976169888173238576e+00  -3.322250668202535451e+00  1.962738013267517090e+01
-5.382397810565393570e-01  -1.415720764790670216e+00  1.745628833770751953e+00  -1.721449200307027638e+00  -1.981715981160299123e+00  -3.297990385686055959e+00  1.968322396278381348e+01
-5.049150625811975601e-01  -1.406358544026510060e+00  1.731831550598144531e+00  -1.697640720997945607e+00  -1.985837761555806935e+00  -3.262749735509054005e+00  1.977056598663330078e+01
-4.700539747821252945e-01  -1.394550625477926076e+00  1.716466903686523438e+00  -1.677879635487691701e+00  -1.982459370289937794e+00  -3.231531922017232716e+00  1.986144804954528809e+01
-4.412730375873010757e-01  -1.387118164693013966e+00  1.707575798034667969e+00  -1.669508282338277638e+00  -1.971054855977193654e+00  -3.216420237218038380e+00  1.990961909294128418e+01
-4.126585165606897476e-01  -1.380225483571187794e+00  1.699139595031738281e+00  -1.663951698933736623e+00  -1.956619564686910451e+00  -3.204864803944722951e+00  1.994408202171325684e+01
-3.705046812640588882e-01  -1.367554012929097951e+00  1.685007572174072266e+00  -1.659639660512105763e+00  -1.933379952107564748e+00  -3.190327469502584279e+00  2.000080609321594238e+01
-3.413613478290002945e-01  -1.356190029774801076e+00  1.672909259796142578e+00  -1.659304920827047169e+00  -1.915759388600484669e+00  -3.181094710026876271e+00  2.004722595214843750e+01
-3.065093199359338882e-01  -1.340953652058736623e+00  1.656300544738769531e+00  -1.661891285573140919e+00  -1.893636051808492482e+00  -3.170712772999898732e+00  2.008977699279785156e+01
-2.782524267779749039e-01  -1.326807800923482716e+00  1.641642093658447266e+00  -1.666143242512838185e+00  -1.874459091817037404e+00  -3.162916962300435841e+00  2.012809300422668457e+01
-2.507637182818811539e-01  -1.311714951192037404e+00  1.625655174255371094e+00  -1.672083202992574513e+00  -1.854420963917867482e+00  -3.155971829091207326e+00  2.016650295257568359e+01
-2.245815435992639664e-01  -1.296070400868551076e+00  1.609668731689453125e+00  -1.679340664540426076e+00  -1.834311787282125294e+00  -3.149565521870748341e+00  2.020813202857971191e+01
-1.944769064532678726e-01  -1.276637856160299123e+00  1.589601516723632812e+00  -1.689640823994771779e+00  -1.810011212025777638e+00  -3.142547909413472951e+00  2.025933194160461426e+01
-1.713526884662073257e-01  -1.260501209889547169e+00  1.573052883148193359e+00  -1.698802296315328419e+00  -1.790155235921041310e+00  -3.137362782155172169e+00  2.030009603500366211e+01
-1.494992415057581070e-01  -1.244749371205465138e+00  1.556611061096191406e+00  -1.708503071461812794e+00  -1.771161381398336232e+00  -3.132764641438619435e+00  2.034074997901916504e+01
-1.255944410907190445e-01  -1.225123707448140919e+00  1.537022590637207031e+00  -1.721197907124654591e+00  -1.748911205922262013e+00  -3.127770964299337209e+00  2.038194894790649414e+01
-1.106737295733850601e-01  -1.212272469197408498e+00  1.523764133453369141e+00  -1.730167690907613576e+00  -1.734564606343404591e+00  -3.124849383031026662e+00  2.042147493362426758e+01
-9.321004549135381012e-02  -1.195763889943258107e+00  1.507359027862548828e+00  -1.741509262715474904e+00  -1.717572991047994435e+00  -3.121412579213277638e+00  2.045924711227416992e+01
-8.025581041444951325e-02  -1.183188263569967091e+00  1.494328022003173828e+00  -1.750922028218404591e+00  -1.704676453267232716e+00  -3.118921343480245412e+00  2.049309301376342773e+01
-6.546718278993779450e-02  -1.167866532002584279e+00  1.478891849517822266e+00  -1.762359444295064748e+00  -1.689385239277974904e+00  -3.115999762211934865e+00  2.053023099899291992e+01
-5.220109621156865387e-02  -1.153564278279439748e+00  1.464353084564208984e+00  -1.773161713276998341e+00  -1.675268475209371388e+00  -3.113497082387105763e+00  2.056805300712585449e+01
-4.274923006166631012e-02  -1.142738167439595998e+00  1.453655242919921875e+00  -1.781544987355367482e+00  -1.665126625691549123e+00  -3.111640993748800099e+00  2.060219502449035645e+01
-3.187019029726201325e-02  -1.130413834248678029e+00  1.441426277160644531e+00  -1.791317288075582326e+00  -1.653787914906637013e+00  -3.109689060841695607e+00  2.064280700683593750e+01
-2.071506181825810700e-02  -1.117381397877828419e+00  1.428239345550537109e+00  -1.801532570515767873e+00  -1.641802136098043263e+00  -3.107677284871236623e+00  2.068670892715454102e+01
-1.442987123598271637e-02  -1.109360996876851857e+00  1.420413970947265625e+00  -1.808023277913228810e+00  -1.634714428578512013e+00  -3.106575314198629201e+00  2.072388100624084473e+01
-8.552376423970997621e-03  -1.101759735737935841e+00  1.412982940673828125e+00  -1.814166847859517873e+00  -1.628260914479390919e+00  -3.105461899434224904e+00  2.075510907173156738e+01
-1.727406178609669496e-03  -1.093451801930562794e+00  1.404331207275390625e+00  -1.821351830159322560e+00  -1.620993439351217091e+00  -3.104288403187887013e+00  2.079150509834289551e+01
4.512472823262214661e-02  -1.024957482014791310e+00  1.336267471313476562e+00  -1.882187668477193654e+00  -1.570649449025289357e+00  -3.096624437962667287e+00  2.160775709152221680e+01
4.501649364829063416e-02  -1.025077168141500294e+00  1.336410999298095703e+00  -1.882103745137349904e+00  -1.570649449025289357e+00  -3.096612517033712209e+00  2.169322299957275391e+01
4.547227174043655396e-02  -1.026372257863179982e+00  1.337798595428466797e+00  -1.882163826619283498e+00  -1.568566624318258107e+00  -3.097606245671407521e+00  2.176752710342407227e+01
5.094232037663459778e-02  -1.042797390614644826e+00  1.354432106018066406e+00  -1.879972283040181935e+00  -1.543617550526754201e+00  -3.113006178532735646e+00  2.183412694931030273e+01
5.035397037863731384e-02  -1.069114033375875294e+00  1.381618976593017578e+00  -1.871086899434224904e+00  -1.526247326527730763e+00  -3.135818068181173146e+00  2.189041495323181152e+01
4.336117580533027649e-02  -1.097696129475728810e+00  1.411833763122558594e+00  -1.859206978474752248e+00  -1.522380654011861623e+00  -3.159648005162374318e+00  2.193792104721069336e+01
2.902729064226150513e-02  -1.135268990193502248e+00  1.452040195465087891e+00  -1.842165772114888966e+00  -1.528342072163717091e+00  -3.189609352742330373e+00  2.199154305458068848e+01
1.206661667674779892e-02  -1.170587841664449513e+00  1.490475177764892578e+00  -1.826489273701803029e+00  -1.540983978901998341e+00  -3.216552082692281544e+00  2.203913998603820801e+01
-8.636299763814747621e-03  -1.209167305623189748e+00  1.531805515289306641e+00  -1.811100784932271779e+00  -1.559037033711568654e+00  -3.244907919560567677e+00  2.208960103988647461e+01
-3.791505495180302887e-02  -1.256713215504781544e+00  1.583714008331298828e+00  -1.795461002980367482e+00  -1.584405247365133107e+00  -3.279010836278096974e+00  2.214382600784301758e+01
-6.702596346010381012e-02  -1.299031559620992482e+00  1.629998683929443359e+00  -1.783676449452535451e+00  -1.608805481587545216e+00  -3.309054438267843068e+00  2.219210910797119141e+01
-1.124966780291956070e-01  -1.357137028370992482e+00  1.694042205810546875e+00  -1.770215336476461232e+00  -1.641946140919820607e+00  -3.349072758351461232e+00  2.225708413124084473e+01
-1.585310141192834976e-01  -1.408707920704976857e+00  1.750750541687011719e+00  -1.760012451802388966e+00  -1.670514885579244435e+00  -3.384301249180929005e+00  2.231361103057861328e+01
-2.014210859881799820e-01  -1.452953163777486623e+00  1.799896717071533203e+00  -1.749700848256246388e+00  -1.695324722920553029e+00  -3.413961474095479787e+00  2.236587309837341309e+01
-2.832663694964807632e-01  -1.539091412221090138e+00  1.897403240203857422e+00  -1.721736733113424123e+00  -1.754802529011861623e+00  -3.470899168645040334e+00  2.245669293403625488e+01
-3.318269888507288101e-01  -1.590586010609762013e+00  1.960675239562988281e+00  -1.699389282857076466e+00  -1.802418533955709279e+00  -3.506857935582296193e+00  2.252324795722961426e+01
-3.777597586261194351e-01  -1.623020950947896779e+00  2.002143383026123047e+00  -1.684347454701558888e+00  -1.837760750447408498e+00  -3.532482449208394826e+00  2.257372307777404785e+01
-4.505789915667932632e-01  -1.658116165791646779e+00  2.048233032226562500e+00  -1.669113461171285451e+00  -1.879022900258199513e+00  -3.565387789403096974e+00  2.263548398017883301e+01
-5.056703726397913101e-01  -1.681093041096822560e+00  2.078058719635009766e+00  -1.660226647053853810e+00  -1.905326191579000294e+00  -3.590366188679830373e+00  2.267962098121643066e+01
-5.505912939654749039e-01  -1.698304955159322560e+00  2.100763320922851562e+00  -1.654537979756490529e+00  -1.923952404652730763e+00  -3.611728016530172169e+00  2.271936202049255371e+01
-5.857380072223108414e-01  -1.710733715687887013e+00  2.117472648620605469e+00  -1.651280228291646779e+00  -1.936446491871969044e+00  -3.628935162221090138e+00  2.275492501258850098e+01
-6.292412916766565445e-01  -1.724134270344869435e+00  2.135988235473632812e+00  -1.649519745503560841e+00  -1.948377434407369435e+00  -3.651183430348531544e+00  2.279655504226684570e+01
-6.808608214007776382e-01  -1.736718479787008107e+00  2.154217720031738281e+00  -1.650573555623189748e+00  -1.957805458699361623e+00  -3.678005997334615529e+00  2.283856606483459473e+01
-7.219508329974573257e-01  -1.744125668202535451e+00  2.166187286376953125e+00  -1.654202286397115529e+00  -1.961530987416402638e+00  -3.700122896824971974e+00  2.288073110580444336e+01
-8.175914923297327164e-01  -1.752251927052633107e+00  2.184525012969970703e+00  -1.672754112874166310e+00  -1.957122151051656544e+00  -3.755996052418844044e+00  2.298833203315734863e+01
-8.660858313189905289e-01  -1.750178162251607716e+00  2.187840461730957031e+00  -1.690120045338765919e+00  -1.945298973714010060e+00  -3.788686815892354787e+00  2.304870200157165527e+01
-8.861787954913538101e-01  -1.748225037251607716e+00  2.188391208648681641e+00  -1.700646702443258107e+00  -1.936937634144918263e+00  -3.804505173360006154e+00  2.308416604995727539e+01
-9.109461943255823257e-01  -1.744257275258199513e+00  2.187972545623779297e+00  -1.718371693287984669e+00  -1.921665016804830373e+00  -3.827245775853292287e+00  2.312878894805908203e+01
-9.281967321978967789e-01  -1.738828484212056935e+00  2.185745716094970703e+00  -1.734311405812398732e+00  -1.907062832509176076e+00  -3.845459047948018849e+00  2.316636800765991211e+01
-9.426305929767053726e-01  -1.732008282338277638e+00  2.181520462036132812e+00  -1.750706974660054982e+00  -1.891168419514791310e+00  -3.863110367451803029e+00  2.320708012580871582e+01
-9.549778143512170914e-01  -1.723522488270894826e+00  2.175690650939941406e+00  -1.767233673726217091e+00  -1.874387566243306935e+00  -3.879827324544088185e+00  2.324965000152587891e+01
-9.650233427630823257e-01  -1.713970009480611623e+00  2.168473243713378906e+00  -1.783843819295064748e+00  -1.857056442891256154e+00  -3.896113459263936818e+00  2.329208612442016602e+01
-9.749248663531702164e-01  -1.701612774525777638e+00  2.158646583557128906e+00  -1.803376499806539357e+00  -1.836156193410054982e+00  -3.914315525685445607e+00  2.333453893661499023e+01
-9.812663237201135757e-01  -1.690753761922017873e+00  2.149741172790527344e+00  -1.819460217152730763e+00  -1.818718258534566701e+00  -3.928685490285054982e+00  2.337406206130981445e+01
-9.858811537372034195e-01  -1.679487053547994435e+00  2.140297412872314453e+00  -1.834668938313619435e+00  -1.801448170338765919e+00  -3.941750828419820607e+00  2.341532897949218750e+01
-9.889739195453088882e-01  -1.667980496083394826e+00  2.130542278289794922e+00  -1.849542919789449513e+00  -1.784945313130513966e+00  -3.954241100941793263e+00  2.345439100265502930e+01
-9.910476843463342789e-01  -1.656462017689840138e+00  2.120296955108642578e+00  -1.863925758992330373e+00  -1.768418614064351857e+00  -3.965941015874044240e+00  2.349778604507446289e+01
-9.923666159259241226e-01  -1.642042938862935841e+00  2.107597351074218750e+00  -1.881242100392476857e+00  -1.748731438313619435e+00  -3.979281727467672169e+00  2.354774713516235352e+01
-9.924386183368127945e-01  -1.627431694661275685e+00  2.094408035278320312e+00  -1.897983376179830373e+00  -1.729547325764791310e+00  -3.991867844258443654e+00  2.359588408470153809e+01
-9.916952292071741226e-01  -1.612760368977681935e+00  2.081194877624511719e+00  -1.914557282124654591e+00  -1.710951153432027638e+00  -4.003304068242208302e+00  2.364051604270935059e+01
-9.906161467181604507e-01  -1.600738350545064748e+00  2.070135593414306641e+00  -1.927454773579732716e+00  -1.696294609700338185e+00  -4.012441698704854787e+00  2.368246293067932129e+01
-9.887941519366663101e-01  -1.586798016224996388e+00  2.057604789733886719e+00  -1.942220036183492482e+00  -1.679973904286519826e+00  -4.022309605275289357e+00  2.372891902923583984e+01
-9.867804686175745132e-01  -1.573637310658590138e+00  2.045695781707763672e+00  -1.955344978963033498e+00  -1.665066544209615529e+00  -4.030943695698873341e+00  2.377541303634643555e+01
-9.849103132831018570e-01  -1.561638180409566701e+00  2.034541606903076172e+00  -1.967356030141012013e+00  -1.651812378560201466e+00  -4.038644138966695607e+00  2.382597208023071289e+01
-9.830883185016077164e-01  -1.550562683735982716e+00  2.024356365203857422e+00  -1.978133980427877248e+00  -1.640030686055318654e+00  -4.045386616383687794e+00  2.387260413169860840e+01
-9.812424818622034195e-01  -1.540518108998433888e+00  2.015164852142333984e+00  -1.987582031880513966e+00  -1.629554096852437794e+00  -4.051170889531270802e+00  2.392035508155822754e+01
-9.502304236041467789e-01  -1.475357357655660451e+00  1.951890945434570312e+00  -2.047660652791158498e+00  -1.570673290883199513e+00  -4.092008654271261037e+00  2.473779797554016113e+01
-9.502666632281702164e-01  -1.475441280995504201e+00  1.951974868774414062e+00  -2.047457043324605763e+00  -1.570649449025289357e+00  -4.091840807591573537e+00  2.481975102424621582e+01
-9.472458998309534195e-01  -1.473307434712545216e+00  1.947103977203369141e+00  -2.045277420674459279e+00  -1.577772919331685841e+00  -4.085649553929464162e+00  2.491230702400207520e+01
-9.169762770282190445e-01  -1.457784001027242482e+00  1.912279129028320312e+00  -2.024141613637105763e+00  -1.629925076161519826e+00  -4.031171385441915334e+00  2.500767803192138672e+01
-8.707974592791956070e-01  -1.456885162984029591e+00  1.895835399627685547e+00  -1.991366211568013966e+00  -1.682117287312642873e+00  -3.959605757390157521e+00  2.509610605239868164e+01
-8.212960402118127945e-01  -1.463885132466451466e+00  1.891730785369873047e+00  -1.977307144795553029e+00  -1.735714737568990529e+00  -3.885335747395650685e+00  2.516812109947204590e+01
-7.790096441852014664e-01  -1.470718208943502248e+00  1.888739585876464844e+00  -1.960829559956685841e+00  -1.774813954030172169e+00  -3.815390173588887990e+00  2.524005413055419922e+01
-7.123587767230432632e-01  -1.484767262135640919e+00  1.887028217315673828e+00  -1.913599316273824513e+00  -1.818095032368795216e+00  -3.684604231511251271e+00  2.534581613540649414e+01
-6.489298979388635757e-01  -1.502519909535543263e+00  1.891755104064941406e+00  -1.863254849110738576e+00  -1.876291577016012013e+00  -3.572596136723653615e+00  2.544380402565002441e+01
-5.850537459002893570e-01  -1.517455403004781544e+00  1.895452976226806641e+00  -1.813556019459859669e+00  -1.912130180989400685e+00  -3.484465662633077443e+00  2.553507494926452637e+01
-5.442474524127405289e-01  -1.525426689778463185e+00  1.895991325378417969e+00  -1.779557053242818654e+00  -1.925438229237691701e+00  -3.427707974110738576e+00  2.560244894027709961e+01
-5.117262045489709976e-01  -1.528866593037740529e+00  1.893526077270507812e+00  -1.752107922230855763e+00  -1.937381092702047169e+00  -3.379487578068868459e+00  2.566205501556396484e+01
-4.888337294207971695e-01  -1.530029598866597951e+00  1.889553070068359375e+00  -1.730120007191793263e+00  -1.950150791798726857e+00  -3.341277424489156544e+00  2.570743894577026367e+01
-4.670918623553674820e-01  -1.530724827443258107e+00  1.883294105529785156e+00  -1.701461617146627248e+00  -1.970323864613668263e+00  -3.293607536946431935e+00  2.576994013786315918e+01
-4.546683470355432632e-01  -1.530377213154928029e+00  1.876341342926025391e+00  -1.673532311116353810e+00  -1.991096798573629201e+00  -3.248943154011861623e+00  2.583125090599060059e+01
-4.457457701312463882e-01  -1.527955834065572560e+00  1.866767883300781250e+00  -1.644920651112691701e+00  -2.010971848164693654e+00  -3.202326361333028615e+00  2.590838599205017090e+01
-4.400737921344202164e-01  -1.524132076893941701e+00  1.856224536895751953e+00  -1.618500057850972951e+00  -2.028295818959371388e+00  -3.158139292393819630e+00  2.597824692726135254e+01
-4.306715170489709976e-01  -1.517767254506246388e+00  1.843731403350830078e+00  -1.594295326863424123e+00  -2.043320004140035451e+00  -3.117077414189473927e+00  2.605311894416809082e+01
-4.203217665301721695e-01  -1.510359112416402638e+00  1.830089092254638672e+00  -1.570424858723775685e+00  -2.057853523884908498e+00  -3.076015297566549123e+00  2.612882614135742188e+01
-4.065068403827112320e-01  -1.501476589833394826e+00  1.815585613250732422e+00  -1.549045864735738576e+00  -2.068517033253804982e+00  -3.040030066167012990e+00  2.620708012580871582e+01
-3.958089987384241226e-01  -1.495351616536275685e+00  1.806311130523681641e+00  -1.538050476704732716e+00  -2.067282978688375294e+00  -3.020031277333394826e+00  2.625854301452636719e+01
-3.808901945697229507e-01  -1.488602940236226857e+00  1.796916961669921875e+00  -1.527918163930074513e+00  -2.058404270802633107e+00  -3.001218382512227834e+00  2.630414605140686035e+01
-3.600223700152795914e-01  -1.481782261525289357e+00  1.787272453308105469e+00  -1.519067112599508107e+00  -2.043583218251363576e+00  -2.983686272297994435e+00  2.635243201255798340e+01
-3.283966223346155289e-01  -1.473031345997945607e+00  1.775640964508056641e+00  -1.510203663502828419e+00  -2.020951573048726857e+00  -2.964741055165426076e+00  2.640695691108703613e+01
-2.966988722430627945e-01  -1.464484993611470998e+00  1.764715194702148438e+00  -1.504119221364156544e+00  -1.997781578694478810e+00  -2.949604097996846974e+00  2.645753097534179688e+01
-2.674348990069788101e-01  -1.456057850514547169e+00  1.754411697387695312e+00  -1.500956837330953419e+00  -1.976325337086812794e+00  -2.938059631978170216e+00  2.650080013275146484e+01
-2.301467100726526382e-01  -1.443555180226461232e+00  1.740196228027343750e+00  -1.500334088002340138e+00  -1.949024502431051076e+00  -2.925652567540304005e+00  2.654646897315979004e+01
-1.908667723285120132e-01  -1.427755657826558888e+00  1.722509384155273438e+00  -1.503663841878072560e+00  -1.920550648366109669e+00  -2.914048020039693654e+00  2.659394693374633789e+01
-1.504948774920862320e-01  -1.408971611653463185e+00  1.702023029327392578e+00  -1.510862175618306935e+00  -1.892102066670553029e+00  -2.903892580662862599e+00  2.664240002632141113e+01
-1.169946829425256851e-01  -1.391313854848043263e+00  1.683224201202392578e+00  -1.519127194081441701e+00  -1.868554417287008107e+00  -2.896215979252950490e+00  2.668484711647033691e+01
-8.375817934145146637e-02  -1.372481171284810841e+00  1.662989616394042969e+00  -1.529486958180562794e+00  -1.845486466084615529e+00  -2.889138046895162404e+00  2.672455811500549316e+01
-3.912669817079716950e-02  -1.344310108815328419e+00  1.633624553680419922e+00  -1.546494309102193654e+00  -1.814513985310689748e+00  -2.880443636571065724e+00  2.677435302734375000e+01
-2.614800130025685121e-03  -1.319446865712301076e+00  1.607837677001953125e+00  -1.563190762196676076e+00  -1.789735619221822560e+00  -2.874048535023824513e+00  2.682472395896911621e+01
2.595670893788337708e-02  -1.298624340687887013e+00  1.586035251617431641e+00  -1.577946488057271779e+00  -1.770263020192281544e+00  -2.869449440632955373e+00  2.686606693267822266e+01
5.259726569056510925e-02  -1.277512852345601857e+00  1.564293384552001953e+00  -1.593205277119771779e+00  -1.751760784779683888e+00  -2.865174118672506154e+00  2.690330195426940918e+01
7.778660953044891357e-02  -1.256737057362691701e+00  1.543077468872070312e+00  -1.609050099049703419e+00  -1.734409157429830373e+00  -2.861425701771871388e+00  2.694340395927429199e+01
1.054952591657638550e-01  -1.232160870228902638e+00  1.518140316009521484e+00  -1.628320519124166310e+00  -1.715273682271138966e+00  -2.857449595128194630e+00  2.699381899833679199e+01
1.262946277856826782e-01  -1.212428394948140919e+00  1.497965812683105469e+00  -1.643902603779928029e+00  -1.700629059468404591e+00  -2.854743067418233693e+00  2.703496599197387695e+01
1.416722685098648071e-01  -1.197022740040914357e+00  1.482350349426269531e+00  -1.656573597584859669e+00  -1.689804379140035451e+00  -2.852731053029195607e+00  2.706717896461486816e+01
1.631438732147216797e-01  -1.174280468617574513e+00  1.459315299987792969e+00  -1.675592247639791310e+00  -1.674561802540914357e+00  -2.850060288106099904e+00  2.711036491394042969e+01
1.852030903100967407e-01  -1.148888413106099904e+00  1.433767795562744141e+00  -1.697868649159566701e+00  -1.658876721058980763e+00  -2.847413603459493459e+00  2.717334699630737305e+01
1.995369791984558105e-01  -1.131815735493795216e+00  1.416835784912109375e+00  -1.712694946919576466e+00  -1.648615185414449513e+00  -2.845904175435201466e+00  2.721191906929016113e+01
2.095891237258911133e-01  -1.119072262440816701e+00  1.403697013854980469e+00  -1.724467579518453419e+00  -1.641203705464498341e+00  -2.844742838536397755e+00  2.724478793144226074e+01
2.236833125352859497e-01  -1.101148907338277638e+00  1.385818958282470703e+00  -1.740539375935689748e+00  -1.631146732960836232e+00  -2.843365494404928029e+00  2.728707313537597656e+01
2.317801564931869507e-01  -1.090322796498433888e+00  1.374738693237304688e+00  -1.750634972249166310e+00  -1.625279251729146779e+00  -2.842490975056783498e+00  2.732384204864501953e+01
2.422401458024978638e-01  -1.075623814259664357e+00  1.360187530517578125e+00  -1.764383141194478810e+00  -1.617329422627584279e+00  -2.841473166142598927e+00  2.736757802963256836e+01
2.487655580043792725e-01  -1.066860500966207326e+00  1.351476669311523438e+00  -1.772419277821676076e+00  -1.612695995961324513e+00  -2.840886179600850880e+00  2.740289211273193359e+01
2.542355954647064209e-01  -1.058983151112691701e+00  1.343410968780517578e+00  -1.780179802571431935e+00  -1.608589474354879201e+00  -2.840395275746480763e+00  2.743743109703063965e+01
2.617324888706207275e-01  -1.047929112111226857e+00  1.332401752471923828e+00  -1.790718380604879201e+00  -1.603021923695699513e+00  -2.839688841496602834e+00  2.748291993141174316e+01
3.043996989727020264e-01  -9.816516081439417007e-01  1.266561985015869141e+00  -1.855913941060201466e+00  -1.570697132741109669e+00  -2.837425057088033498e+00  2.829337596893310547e+01
3.042918443679809570e-01  -9.817116896258752945e-01  1.266621589660644531e+00  -1.855877701436178029e+00  -1.570685211812154591e+00  -2.837317530308858693e+00  2.838577294349670410e+01
3.063789606094360352e-01  -9.834144751178186539e-01  1.267352104187011719e+00  -1.859530274068013966e+00  -1.572972122822896779e+00  -2.841437164937154591e+00  2.848082304000854492e+01
3.175104260444641113e-01  -9.930537382708948257e-01  1.271839618682861328e+00  -1.881888214741842091e+00  -1.585123840962545216e+00  -2.865988318120137990e+00  2.855774807929992676e+01
3.286778628826141357e-01  -1.011781040822164357e+00  1.287467956542968750e+00  -1.909048859273092091e+00  -1.595886532460347951e+00  -2.891629282628194630e+00  2.860763192176818848e+01
3.351313769817352295e-01  -1.036047760640279591e+00  1.311281204223632812e+00  -1.928688351308004201e+00  -1.606530014668599904e+00  -2.913952175770894826e+00  2.865853095054626465e+01
3.359590172767639160e-01  -1.070708576832906544e+00  1.347060680389404297e+00  -1.940399948750631154e+00  -1.624453369771138966e+00  -2.942394558583394826e+00  2.871630001068115234e+01
3.286179304122924805e-01  -1.116182629262105763e+00  1.395260810852050781e+00  -1.940831009541646779e+00  -1.651069466267720998e+00  -2.979459110890523732e+00  2.877423810958862305e+01
3.077343106269836426e-01  -1.173333470021383107e+00  1.456000804901123047e+00  -1.930795494710103810e+00  -1.684811417256490529e+00  -3.023755852376119435e+00  2.884993505477905273e+01
2.699252068996429443e-01  -1.240672890339986623e+00  1.529101371765136719e+00  -1.911838833485738576e+00  -1.721404854451314748e+00  -3.073129240666524709e+00  2.892843914031982422e+01
2.354986369609832764e-01  -1.299607578908101857e+00  1.594962120056152344e+00  -1.899300877247945607e+00  -1.758994404469625294e+00  -3.119089190159932912e+00  2.900197601318359375e+01
2.162227630615234375e-01  -1.336613957081929982e+00  1.636819839477539062e+00  -1.899983708058492482e+00  -1.787124458943502248e+00  -3.150738779698507130e+00  2.904971194267272949e+01
1.992369890213012695e-01  -1.371618572865621388e+00  1.677241325378417969e+00  -1.903408352528707326e+00  -1.810358826314107716e+00  -3.183417860661641896e+00  2.910240197181701660e+01
1.806445866823196411e-01  -1.411093060170308888e+00  1.722856521606445312e+00  -1.902174774800435841e+00  -1.824634377156392873e+00  -3.221761051808492482e+00  2.915336894989013672e+01
1.644992232322692871e-01  -1.449632946644918263e+00  1.768137454986572266e+00  -1.895289246235982716e+00  -1.829700295125142873e+00  -3.260450665150777638e+00  2.920703291893005371e+01
1.511004865169525146e-01  -1.481386486683980763e+00  1.805676937103271484e+00  -1.887373272572652638e+00  -1.829437081013814748e+00  -3.293044630681173146e+00  2.925529503822326660e+01
1.330956816673278809e-01  -1.515897099171773732e+00  1.847034454345703125e+00  -1.877062622700826466e+00  -1.824131313954488576e+00  -3.330428663884298146e+00  2.931215190887451172e+01
1.159668564796447754e-01  -1.538420502339498341e+00  1.874869346618652344e+00  -1.869757477437154591e+00  -1.816778008137838185e+00  -3.356533114110128224e+00  2.935299205780029297e+01
9.457988291978836060e-02  -1.558881107960836232e+00  1.900825977325439453e+00  -1.862931076680318654e+00  -1.807077232991353810e+00  -3.382529322301046193e+00  2.939538598060607910e+01
6.910216808319091797e-02  -1.577053372059957326e+00  1.924617290496826172e+00  -1.856177632008687794e+00  -1.795723740254537404e+00  -3.408501211796895802e+00  2.943396711349487305e+01
3.977489471435546875e-02  -1.593115154896871388e+00  1.946433544158935547e+00  -1.850368801747457326e+00  -1.783496205006734669e+00  -3.434521500264303029e+00  2.947503805160522461e+01
7.064700592309236526e-03  -1.606408421193258107e+00  1.965665340423583984e+00  -1.845974270497457326e+00  -1.770562950764791310e+00  -3.460266176854268849e+00  2.951507592201232910e+01
-2.855950990785771637e-02  -1.617123428975240529e+00  1.982372283935546875e+00  -1.843123737965719044e+00  -1.757305447255269826e+00  -3.485555473958150685e+00  2.955623102188110352e+01
-7.494241396059209137e-02  -1.626892391835347951e+00  1.998529434204101562e+00  -1.841818634663717091e+00  -1.741594616566793263e+00  -3.515000168477193654e+00  2.960155797004699707e+01
-1.156032721148889664e-01  -1.632106129323140919e+00  2.009396553039550781e+00  -1.842165772114888966e+00  -1.728960816060201466e+00  -3.538816754017965138e+00  2.964541602134704590e+01
-1.654875914203088882e-01  -1.635906044636861623e+00  2.019126415252685547e+00  -1.844549004231588185e+00  -1.714543644581929982e+00  -3.566214148198262990e+00  2.968850207328796387e+01
-2.152140776263635757e-01  -1.636685196553365529e+00  2.025948047637939453e+00  -1.848812405263082326e+00  -1.701060120259420216e+00  -3.592150036488668263e+00  2.974041199684143066e+01
-2.717288176165979507e-01  -1.634707276021138966e+00  2.030472278594970703e+00  -1.855494801198140919e+00  -1.686523739491597951e+00  -3.620421473179952443e+00  2.979017710685729980e+01
-3.102510611163538101e-01  -1.631710831318990529e+00  2.031860828399658203e+00  -1.860979382191793263e+00  -1.676788632069722951e+00  -3.639280859624044240e+00  2.983343291282653809e+01
-3.547576109515588882e-01  -1.626532856618062794e+00  2.031740665435791016e+00  -1.868451897297994435e+00  -1.666156117116109669e+00  -3.660499874745504201e+00  2.987753701210021973e+01
-3.826525847064417007e-01  -1.622469250355855763e+00  2.030843257904052734e+00  -1.873888794575826466e+00  -1.659642521535054982e+00  -3.674186531697408498e+00  2.991515898704528809e+01
-4.162805716144006851e-01  -1.616356674824849904e+00  2.028892040252685547e+00  -1.881193939839498341e+00  -1.651752297078267873e+00  -3.690184418355123341e+00  2.995666408538818359e+01
-4.476645628558557632e-01  -1.609632317219869435e+00  2.026115894317626953e+00  -1.888558689747945607e+00  -1.644520584736959279e+00  -3.705595318471090138e+00  2.999768209457397461e+01
-4.768655935870569351e-01  -1.602464501057760060e+00  2.022656917572021484e+00  -1.896079365407125294e+00  -1.637719456349508107e+00  -3.719869200383321584e+00  3.003217411041259766e+01
-5.082848707782190445e-01  -1.593786541615621388e+00  2.017905712127685547e+00  -1.905408207570211232e+00  -1.630428139363424123e+00  -3.735747162495748341e+00  3.008267903327941895e+01
-5.323398748980920914e-01  -1.586054627095357716e+00  2.013620853424072266e+00  -1.913036171589986623e+00  -1.624968353901998341e+00  -3.747805658970968068e+00  3.012543392181396484e+01
-5.548599402057092789e-01  -1.577952210103170216e+00  2.008654117584228516e+00  -1.920856300984517873e+00  -1.619747940693990529e+00  -3.759648386632100880e+00  3.016045808792114258e+01
-5.719836393939417007e-01  -1.571299854909078419e+00  2.004465579986572266e+00  -1.927214924489156544e+00  -1.615701023732320607e+00  -3.768988911305562794e+00  3.019572091102600098e+01
-5.922248999225061539e-01  -1.562705341969625294e+00  1.998888015747070312e+00  -1.935382191334859669e+00  -1.610971752797262013e+00  -3.779945437108175099e+00  3.023283505439758301e+01
-6.073458830462854507e-01  -1.556088749562398732e+00  1.994280815124511719e+00  -1.941920582448140919e+00  -1.607476059590474904e+00  -3.788267676030294240e+00  3.026585698127746582e+01
-6.211956183062952164e-01  -1.549196068440572560e+00  1.989745140075683594e+00  -1.948196236287252248e+00  -1.604123417531148732e+00  -3.796327177678243459e+00  3.029949903488159180e+01
-6.374667326556604507e-01  -1.540889565144674123e+00  1.984096050262451172e+00  -1.955500904713765919e+00  -1.600352112446920216e+00  -3.805607144032613576e+00  3.033414793014526367e+01
-6.488459745990198257e-01  -1.534728352223531544e+00  1.979620456695556641e+00  -1.961201016102926076e+00  -1.597647015248433888e+00  -3.812336985264913380e+00  3.036804294586181641e+01
-6.619156042682092789e-01  -1.527368370686666310e+00  1.974354743957519531e+00  -1.968014542256490529e+00  -1.594533745442525685e+00  -3.820252243672506154e+00  3.040630793571472168e+01
-6.711724440204065445e-01  -1.521783177052633107e+00  1.970357418060302734e+00  -1.973163906727926076e+00  -1.592294994984762013e+00  -3.826036039982930959e+00  3.044073605537414551e+01
-6.810644308673303726e-01  -1.514866177235738576e+00  1.965725421905517578e+00  -1.979043785725728810e+00  -1.589793030415670216e+00  -3.832430664693013966e+00  3.048413610458374023e+01
-6.900094191180627945e-01  -1.508609120045797169e+00  1.961357593536376953e+00  -1.984540287648336232e+00  -1.587649647389547169e+00  -3.838106695805684865e+00  3.052241611480712891e+01
-6.978743712054651382e-01  -1.502435986195699513e+00  1.957384109497070312e+00  -1.989486042653219044e+00  -1.585734192525045216e+00  -3.843195978795186818e+00  3.055999612808227539e+01
-7.491439024554651382e-01  -1.440223042164937794e+00  1.912099361419677734e+00  -2.042714897786275685e+00  -1.570625607167379201e+00  -3.890616718922750294e+00  3.137843394279479980e+01
-7.489879767047327164e-01  -1.440330807362691701e+00  1.912147045135498047e+00  -2.042666737233297169e+00  -1.570745293294088185e+00  -3.890700642262594044e+00  3.146018290519714355e+01
-7.484248320208948257e-01  -1.441565338765279591e+00  1.913368225097656250e+00  -2.041146580372945607e+00  -1.574360672627584279e+00  -3.888329569493429005e+00  3.154076004028320312e+01
-7.431252638446252945e-01  -1.451022926961080373e+00  1.922749996185302734e+00  -2.026584927235738576e+00  -1.606685940419332326e+00  -3.866619173680440724e+00  3.160922312736511230e+01
-7.298401037799280289e-01  -1.461511913930074513e+00  1.932910442352294922e+00  -2.009783569966451466e+00  -1.637348477040426076e+00  -3.839866940175191701e+00  3.165929698944091797e+01
-7.098649183856409195e-01  -1.472887818013326466e+00  1.943406105041503906e+00  -1.989977184926168263e+00  -1.669209782277242482e+00  -3.807882134114400685e+00  3.170629811286926270e+01
-6.892541090594690445e-01  -1.483903710042135060e+00  1.952896118164062500e+00  -1.970194164906637013e+00  -1.702952210103170216e+00  -3.773203436528341115e+00  3.175252199172973633e+01
-6.719039122210901382e-01  -1.492618862782613576e+00  1.959693908691406250e+00  -1.954027477894918263e+00  -1.730493847523824513e+00  -3.742500607167379201e+00  3.179259109497070312e+01
-6.454284826861780289e-01  -1.503299061452047169e+00  1.967783927917480469e+00  -1.931765858327047169e+00  -1.766969505940572560e+00  -3.696578566228048146e+00  3.185475993156433105e+01
-6.121180693255823257e-01  -1.512480560933248341e+00  1.973612308502197266e+00  -1.908785168324605763e+00  -1.800298515950338185e+00  -3.641352717076436818e+00  3.191009092330932617e+01
-5.725954214679163101e-01  -1.520883862172262013e+00  1.977765083312988281e+00  -1.883493248616353810e+00  -1.831077877675191701e+00  -3.578427616749898732e+00  3.198775410652160645e+01
-5.443556944476526382e-01  -1.525606457387105763e+00  1.979213714599609375e+00  -1.866452042256490529e+00  -1.847857777272359669e+00  -3.536350313817159474e+00  3.203469109535217285e+01
-5.089800993548792007e-01  -1.529585663472310841e+00  1.979297161102294922e+00  -1.847183529530660451e+00  -1.864266220723287404e+00  -3.487519566212789357e+00  3.208903503417968750e+01
-4.676678816424768570e-01  -1.532726589833394826e+00  1.977526187896728516e+00  -1.826321903859273732e+00  -1.879393879567281544e+00  -3.432341877614156544e+00  3.215174007415771484e+01
-4.268096129046838882e-01  -1.533912960683004201e+00  1.973720073699951172e+00  -1.806646172200338185e+00  -1.891347710286275685e+00  -3.378853146229879201e+00  3.221622490882873535e+01
-3.918631712542932632e-01  -1.532989803944722951e+00  1.968298435211181641e+00  -1.791532818471090138e+00  -1.898630444203512013e+00  -3.334512297307149709e+00  3.227725505828857422e+01
-3.583672682391565445e-01  -1.530305210744039357e+00  1.961297512054443359e+00  -1.778083626423970998e+00  -1.902906719838277638e+00  -3.292505804692403615e+00  3.232635998725891113e+01
-3.310597578631799820e-01  -1.526505772267476857e+00  1.953889369964599609e+00  -1.768610779439107716e+00  -1.904846970235006154e+00  -3.258773867283956349e+00  3.237362813949584961e+01
-3.095672766314905289e-01  -1.522501770650045216e+00  1.946696758270263672e+00  -1.761904541646138966e+00  -1.905781571065084279e+00  -3.232262674962179005e+00  3.241977405548095703e+01
-2.811196486102502945e-01  -1.515249554310933888e+00  1.935806274414062500e+00  -1.753796402608053029e+00  -1.906380955372945607e+00  -3.197332684193746388e+00  3.247081208229064941e+01
-2.433636824237268570e-01  -1.503431145344869435e+00  1.918800830841064453e+00  -1.745629135762349904e+00  -1.905853573475972951e+00  -3.152008358632222951e+00  3.255249214172363281e+01
-2.188003698932092789e-01  -1.493936840687887013e+00  1.906091690063476562e+00  -1.742132012044088185e+00  -1.903637234364644826e+00  -3.123603884373800099e+00  3.260671901702880859e+01
-1.952684561358850601e-01  -1.485054794942037404e+00  1.894734859466552734e+00  -1.740467373524801076e+00  -1.897504631672994435e+00  -3.101522270833150685e+00  3.265870594978332520e+01
-1.681140104876917007e-01  -1.475056950245992482e+00  1.882516384124755859e+00  -1.740719143544332326e+00  -1.886892143880025685e+00  -3.081955019627706349e+00  3.270306491851806641e+01
-1.431782881366174820e-01  -1.465647522603170216e+00  1.871231555938720703e+00  -1.742694679890767873e+00  -1.875572983418599904e+00  -3.066794459019796193e+00  3.274670100212097168e+01
-1.127484480487268570e-01  -1.452174011860982716e+00  1.856200695037841797e+00  -1.748060051594869435e+00  -1.860002342854635060e+00  -3.050628248845235646e+00  3.279624509811401367e+01
-7.695752779115849762e-02  -1.434516731892720998e+00  1.836719036102294922e+00  -1.757520977650777638e+00  -1.839845005665914357e+00  -3.033312145863668263e+00  3.284728598594665527e+01
-4.710323015321904450e-02  -1.418249909077779591e+00  1.818864345550537109e+00  -1.767257515584127248e+00  -1.821041409169332326e+00  -3.020438734685079396e+00  3.289897203445434570e+01
-1.839954057802373200e-02  -1.401407543812887013e+00  1.800830364227294922e+00  -1.778634850178853810e+00  -1.801076714192525685e+00  -3.008846584950582326e+00  3.294673490524291992e+01
8.564227260649204254e-03  -1.384121243153707326e+00  1.782449245452880859e+00  -1.791101757680074513e+00  -1.780250851308004201e+00  -2.998703066502706349e+00  3.299664592742919922e+01
3.410111367702484131e-02  -1.366415325795308888e+00  1.763566493988037109e+00  -1.804346863423482716e+00  -1.758550945912496388e+00  -2.989613835011617482e+00  3.304210996627807617e+01
5.741904303431510925e-02  -1.348121945058004201e+00  1.744443893432617188e+00  -1.818657700215474904e+00  -1.736923996602193654e+00  -2.981183354054586232e+00  3.308606791496276855e+01
7.532759755849838257e-02  -1.333209339772359669e+00  1.729163169860839844e+00  -1.830549542103902638e+00  -1.719668213521138966e+00  -2.975147787724630177e+00  3.313017702102661133e+01
9.447202086448669434e-02  -1.315970722829000294e+00  1.711213588714599609e+00  -1.844740692769185841e+00  -1.700006310139791310e+00  -2.968812529240743459e+00  3.317615413665771484e+01
1.088538393378257751e-01  -1.302424732838765919e+00  1.697189331054687500e+00  -1.856165234242574513e+00  -1.684895340596334279e+00  -2.964010779057637990e+00  3.321961593627929688e+01
1.242194920778274536e-01  -1.287295643483297169e+00  1.681824684143066406e+00  -1.868703667317525685e+00  -1.668275658284322560e+00  -2.958992783223287404e+00  3.326919794082641602e+01
1.372223794460296631e-01  -1.273688618336812794e+00  1.667823791503906250e+00  -1.880631271992818654e+00  -1.653703991566793263e+00  -2.954693380986348927e+00  3.330978012084960938e+01
1.484137624502182007e-01  -1.261568848286763966e+00  1.655307292938232422e+00  -1.891097847615377248e+00  -1.640964333211080373e+00  -2.951041046773092091e+00  3.336172008514404297e+01
1.552511453628540039e-01  -1.254387680684224904e+00  1.648067474365234375e+00  -1.897516552601949513e+00  -1.633337322865621388e+00  -2.948993031178609669e+00  3.339697813987731934e+01
2.111006230115890503e-01  -1.183140103016988576e+00  1.576486587524414062e+00  -1.964469734822408498e+00  -1.570482079182760060e+00  -2.930586640034810841e+00  3.422110009193420410e+01
2.109684348106384277e-01  -1.183212105427877248e+00  1.576582431793212891e+00  -1.964338127766744435e+00  -1.570661369954244435e+00  -2.930646721516744435e+00  3.428188991546630859e+01
2.109804153442382812e-01  -1.183368031178609669e+00  1.576786041259765625e+00  -1.964254681264058888e+00  -1.570505444203512013e+00  -2.930898014699117482e+00  3.433038210868835449e+01
2.121799588203430176e-01  -1.187276188527242482e+00  1.580806732177734375e+00  -1.961883370076314748e+00  -1.567680660878316701e+00  -2.934729878102437794e+00  3.437514305114746094e+01
2.164864093065261841e-01  -1.198581520711080373e+00  1.592437267303466797e+00  -1.954578224812642873e+00  -1.558294598256246388e+00  -2.946837250386373341e+00  3.442155313491821289e+01
2.226399332284927368e-01  -1.213362995778219044e+00  1.607765674591064453e+00  -1.944854561482564748e+00  -1.545724217091695607e+00  -2.962477509175435841e+00  3.446633005142211914e+01
2.317441999912261963e-01  -1.235925499592916310e+00  1.630968093872070312e+00  -1.930041138325826466e+00  -1.526809994374410451e+00  -2.986093584691182912e+00  3.451087403297424316e+01
2.420483976602554321e-01  -1.266915146504537404e+00  1.663731575012207031e+00  -1.909982506428853810e+00  -1.499983135853902638e+00  -3.019025866185323537e+00  3.457131600379943848e+01
2.486573159694671631e-01  -1.301537338887349904e+00  1.700419902801513672e+00  -1.888044182454244435e+00  -1.469158951436178029e+00  -3.056495968495504201e+00  3.462283992767333984e+01
2.489333301782608032e-01  -1.327850643788472951e+00  1.728337287902832031e+00  -1.871721569691793263e+00  -1.445183102284566701e+00  -3.085248295460836232e+00  3.466693711280822754e+01
2.378498017787933350e-01  -1.376497570668355763e+00  1.780128002166748047e+00  -1.843914333974019826e+00  -1.399758640919820607e+00  -3.140152994786397755e+00  3.473928403854370117e+01
2.218602150678634644e-01  -1.409055534993306935e+00  1.814628124237060547e+00  -1.827878777180806935e+00  -1.370100323353902638e+00  -3.178879324589864552e+00  3.478508400917053223e+01
2.039516717195510864e-01  -1.435151878987447560e+00  1.842438697814941406e+00  -1.816250626240865529e+00  -1.347324196492330373e+00  -3.211438957844869435e+00  3.482825613021850586e+01
1.830436885356903076e-01  -1.460193459187642873e+00  1.869029521942138672e+00  -1.806382481251851857e+00  -1.327026192341939748e+00  -3.244105164204732716e+00  3.486890602111816406e+01
1.589213162660598755e-01  -1.483663860951558888e+00  1.894112586975097656e+00  -1.798574272786275685e+00  -1.309336964284078419e+00  -3.276651684437887013e+00  3.490396213531494141e+01
1.312006711959838867e-01  -1.505852047597066701e+00  1.917233467102050781e+00  -1.792621914540426076e+00  -1.294209782277242482e+00  -3.309438053761617482e+00  3.494623804092407227e+01
1.006251722574234009e-01  -1.526505772267476857e+00  1.938582897186279297e+00  -1.788191143666402638e+00  -1.282433811818258107e+00  -3.342092100773946584e+00  3.498732805252075195e+01
6.676337122917175293e-02  -1.545372311268941701e+00  1.958341598510742188e+00  -1.785520855580465138e+00  -1.273626152669088185e+00  -3.374470774327413380e+00  3.502742910385131836e+01
2.954298816621303558e-02  -1.562848869954244435e+00  1.976281166076660156e+00  -1.784766499196187794e+00  -1.267750088368551076e+00  -3.406992499028341115e+00  3.506688094139099121e+01
-1.086742082704716950e-02  -1.578839127217428029e+00  1.992640972137451172e+00  -1.785568539296285451e+00  -1.264674488698140919e+00  -3.439323012028829396e+00  3.510732197761535645e+01
-6.259996095766240387e-02  -1.596075836812154591e+00  2.010114669799804688e+00  -1.788574520741597951e+00  -1.264578644429342091e+00  -3.477916065846578419e+00  3.515093493461608887e+01
-1.081913153277795914e-01  -1.608673397694722951e+00  2.022920131683349609e+00  -1.792789761220113576e+00  -1.266912762318746388e+00  -3.509228531514303029e+00  3.519024395942687988e+01
-1.452649275409143570e-01  -1.617531124745504201e+00  2.032135963439941406e+00  -1.797005478535787404e+00  -1.270526234303609669e+00  -3.533560339604512990e+00  3.522922801971435547e+01
-2.017334143268030289e-01  -1.629026238118306935e+00  2.044067859649658203e+00  -1.804682079945699513e+00  -1.278233353291646779e+00  -3.569554869328634084e+00  3.527135896682739258e+01
-2.485569159137170914e-01  -1.636936966572896779e+00  2.052374362945556641e+00  -1.812131230031148732e+00  -1.286275688801900685e+00  -3.598400894795553029e+00  3.531387996673583984e+01
-3.035948912249963882e-01  -1.644464317952291310e+00  2.060501098632812500e+00  -1.822094742451803029e+00  -1.297872368489400685e+00  -3.631377998982564748e+00  3.535753297805786133e+01
-3.476098219500940445e-01  -1.649402443562642873e+00  2.066185474395751953e+00  -1.830765072499410451e+00  -1.308523480092183888e+00  -3.657326523457662404e+00  3.540355801582336426e+01
-4.057510534869592789e-01  -1.654052559529439748e+00  2.072361469268798828e+00  -1.843794171010152638e+00  -1.324285332356588185e+00  -3.691190306340352834e+00  3.545355296134948730e+01
-4.370754400836389664e-01  -1.655778710042135060e+00  2.075138092041015625e+00  -1.851446453724996388e+00  -1.333751980458394826e+00  -3.709511105214254201e+00  3.549193096160888672e+01
-4.743354956256311539e-01  -1.657337490712301076e+00  2.077855110168457031e+00  -1.860967461262838185e+00  -1.345876042042867482e+00  -3.730969254170553029e+00  3.552926206588745117e+01
-5.022648016559045914e-01  -1.657792393361226857e+00  2.079518795013427734e+00  -1.868631664906637013e+00  -1.355630222951070607e+00  -3.747254673634664357e+00  3.556187796592712402e+01
-5.352657477008264664e-01  -1.657636467610494435e+00  2.081146717071533203e+00  -1.878511253987447560e+00  -1.368209187184469044e+00  -3.766725365315572560e+00  3.560009598731994629e+01
-5.596922079669397476e-01  -1.657109562550679982e+00  2.081960678100585938e+00  -1.886283699666158498e+00  -1.378083531056539357e+00  -3.781322542821065724e+00  3.563612508773803711e+01
-5.884960333453577164e-01  -1.655886475239888966e+00  2.082738399505615234e+00  -1.895600144063131154e+00  -1.390136067067281544e+00  -3.798542324696676076e+00  3.567004704475402832e+01
-6.097076574908655289e-01  -1.654640022908345998e+00  2.083049774169921875e+00  -1.903145138417379201e+00  -1.399735275899068654e+00  -3.811187569295064748e+00  3.570769500732421875e+01
-6.296728293048303726e-01  -1.652890030537740529e+00  2.083049774169921875e+00  -1.910724941884176076e+00  -1.409046951924459279e+00  -3.823485199605123341e+00  3.574042201042175293e+01
-6.535585562335413101e-01  -1.650409046803609669e+00  2.082858562469482422e+00  -1.920042339955465138e+00  -1.420741383229390919e+00  -3.838274065648214162e+00  3.577547812461853027e+01
-6.718199888812463882e-01  -1.648155514393941701e+00  2.082475185394287109e+00  -1.927442852650777638e+00  -1.430077377949849904e+00  -3.849578682576314748e+00  3.580694007873535156e+01
-6.885822455035608414e-01  -1.645626846943990529e+00  2.081948757171630859e+00  -1.934974972401754201e+00  -1.439222637807027638e+00  -3.860559527073995412e+00  3.584014701843261719e+01
-7.047932783709924820e-01  -1.642713848744527638e+00  2.081242561340332031e+00  -1.942471806203023732e+00  -1.447984043751851857e+00  -3.870917622243062794e+00  3.587318801879882812e+01
-7.158358732806604507e-01  -1.640556637440816701e+00  2.080656051635742188e+00  -1.947812382374898732e+00  -1.454459969197408498e+00  -3.878270451222554982e+00  3.590040111541748047e+01
